;Project drawerforbitholders
;Created by Estlcam version 11 build 11,030
;Machining time about 02:19:43 hours

G90
M03 S24000
G00 X0.0000 Y0.0000 Z0.0000 F1500
G00 Z5.0000 F180


;No. 1: Part 4
G00 X25.4750 Y16.6500 F1500
G00 Z0.5000 F180
G01 Z-2.0000 F300 S24000
G01 X31.6750 F900
G01 Y19.0500 F900
G01 X25.4750 F900
G01 Y21.4500 F900
G01 X31.6750 F900
G00 Z5.0000 F180
G00 Z0.5000 F180
G01 Z-2.0000 F300
G01 X32.2750 F900
G01 Y16.6126 F900
G01 X32.2803 Y16.4149 F900
G03 X33.1245 Y14.5005 I2.9973 J0.1784 F900
G03 X31.0324 Y15.3500 I-2.0924 J-2.1521 F900
G01 X26.1376 F900
G03 X24.0255 Y14.5005 I-0.0192 J-3.0027 F900
G03 X24.8750 Y16.5926 I-2.1521 J2.0924 F900
G01 Y21.4874 F900
G03 X24.0255 Y23.5995 I-3.0027 J0.0192 F900
G03 X26.1176 Y22.7500 I2.0924 J2.1521 F900
G01 X31.0124 F900
G03 X33.1245 Y23.5995 I0.0192 J3.0027 F900
G03 X32.2750 Y21.5074 I2.1521 J-2.0924 F900
G01 Y21.4500 F900
G01 X31.6750 F900
G00 Z5.0000 F180
G00 Y16.6500 F1500
G00 Z-1.5000 F180
G01 Z-4.0000 F300
G01 X25.4750 F900
G01 Y19.0500 F900
G01 X31.6750 F900
G01 Y21.4500 F900
G01 X25.4750 F900
G00 Z5.0000 F180
G00 Z-1.5000 F180
G01 Z-4.0000 F300
G01 X24.8750 F900
G01 Y21.4874 F900
G03 X24.0255 Y23.5995 I-3.0027 J0.0192 F900
G03 X26.1176 Y22.7500 I2.0924 J2.1521 F900
G01 X31.0124 F900
G03 X33.1245 Y23.5995 I0.0192 J3.0027 F900
G03 X32.2750 Y21.5074 I2.1521 J-2.0924 F900
G01 Y16.6126 F900
G01 X32.2803 Y16.4149 F900
G03 X33.1245 Y14.5005 I2.9973 J0.1784 F900
G03 X31.0324 Y15.3500 I-2.0924 J-2.1521 F900
G01 X26.1376 F900
G03 X24.0255 Y14.5005 I-0.0192 J-3.0027 F900
G03 X24.8750 Y16.5926 I-2.1521 J2.0924 F900
G01 Y21.4500 F900
G01 X25.4750 F900
G00 Z5.0000 F180
G00 Y16.6500 F1500
G00 Z-3.5000 F180
G01 Z-6.0000 F300
G01 X31.6750 F900
G01 Y19.0500 F900
G01 X25.4750 F900
G01 Y21.4500 F900
G01 X31.6750 F900
G00 Z5.0000 F180
G00 Z-3.5000 F180
G01 Z-6.0000 F300
G01 X32.2750 F900
G01 Y16.6126 F900
G01 X32.2803 Y16.4149 F900
G03 X33.1245 Y14.5005 I2.9973 J0.1784 F900
G03 X31.0324 Y15.3500 I-2.0924 J-2.1521 F900
G01 X26.1376 F900
G03 X24.0255 Y14.5005 I-0.0192 J-3.0027 F900
G03 X24.8750 Y16.5926 I-2.1521 J2.0924 F900
G01 Y21.4874 F900
G03 X24.0255 Y23.5995 I-3.0027 J0.0192 F900
G03 X26.1176 Y22.7500 I2.0924 J2.1521 F900
G01 X31.0124 F900
G03 X33.1245 Y23.5995 I0.0192 J3.0027 F900
G03 X32.2750 Y21.5074 I2.1521 J-2.0924 F900
G01 Y21.4500 F900
G01 X31.6750 F900
G00 Z5.0000 F180
G00 Y16.6500 F1500
G00 Z-5.5000 F180
G01 Z-8.0000 F300
G01 X25.4750 F900
G01 Y19.0500 F900
G01 X31.6750 F900
G01 Y21.4500 F900
G01 X25.4750 F900
G00 Z5.0000 F180
G00 Z-5.5000 F180
G01 Z-8.0000 F300
G01 X24.8750 F900
G01 Y21.4874 F900
G03 X24.0255 Y23.5995 I-3.0027 J0.0192 F900
G03 X26.1176 Y22.7500 I2.0924 J2.1521 F900
G01 X31.0124 F900
G03 X33.1245 Y23.5995 I0.0192 J3.0027 F900
G03 X32.2750 Y21.5074 I2.1521 J-2.0924 F900
G01 Y16.6126 F900
G01 X32.2803 Y16.4149 F900
G03 X33.1245 Y14.5005 I2.9973 J0.1784 F900
G03 X31.0324 Y15.3500 I-2.0924 J-2.1521 F900
G01 X26.1376 F900
G03 X24.0255 Y14.5005 I-0.0192 J-3.0027 F900
G03 X24.8750 Y16.5926 I-2.1521 J2.0924 F900
G01 Y21.4500 F900
G01 X25.4750 F900
G00 Z5.0000 F180
G00 Y16.6500 F1500
G00 Z-7.5000 F180
G01 Z-10.0000 F300
G01 X31.6750 F900
G01 Y19.0500 F900
G01 X25.4750 F900
G01 Y21.4500 F900
G01 X31.6750 F900
G00 Z5.0000 F180
G00 Z-7.5000 F180
G01 Z-10.0000 F300
G01 X32.2750 F900
G01 Y16.6126 F900
G01 X32.2803 Y16.4149 F900
G03 X33.1245 Y14.5005 I2.9973 J0.1784 F900
G03 X31.0324 Y15.3500 I-2.0924 J-2.1521 F900
G01 X26.1376 F900
G03 X24.0255 Y14.5005 I-0.0192 J-3.0027 F900
G03 X24.8750 Y16.5926 I-2.1521 J2.0924 F900
G01 Y21.4874 F900
G03 X24.0255 Y23.5995 I-3.0027 J0.0192 F900
G03 X26.1176 Y22.7500 I2.0924 J2.1521 F900
G01 X31.0124 F900
G03 X33.1245 Y23.5995 I0.0192 J3.0027 F900
G03 X32.2750 Y21.5074 I2.1521 J-2.0924 F900
G01 Y21.4500 F900
G01 X31.6750 F900
G00 Z5.0000 F180
G00 Y16.6500 F1500
G00 Z-9.5000 F180
G01 Z-12.0000 F300
G01 X25.4750 F900
G01 Y19.0500 F900
G01 X31.6750 F900
G01 Y21.4500 F900
G01 X25.4750 F900
G00 Z5.0000 F180
G00 Z-9.5000 F180
G01 Z-12.0000 F300
G01 X24.8750 F900
G01 Y21.4874 F900
G03 X24.0255 Y23.5995 I-3.0027 J0.0192 F900
G03 X26.1176 Y22.7500 I2.0924 J2.1521 F900
G01 X31.0124 F900
G03 X33.1245 Y23.5995 I0.0192 J3.0027 F900
G03 X32.2750 Y21.5074 I2.1521 J-2.0924 F900
G01 Y16.6126 F900
G01 X32.2803 Y16.4149 F900
G03 X33.1245 Y14.5005 I2.9973 J0.1784 F900
G03 X31.0324 Y15.3500 I-2.0924 J-2.1521 F900
G01 X26.1376 F900
G03 X24.0255 Y14.5005 I-0.0192 J-3.0027 F900
G03 X24.8750 Y16.5926 I-2.1521 J2.0924 F900
G01 Y21.4500 F900
G01 X25.4750 F900
G00 Z5.0000 F180
G00 Y16.6500 F1500
G00 Z-11.5000 F180
G01 Z-14.0000 F300
G01 X31.6750 F900
G01 Y19.0500 F900
G01 X25.4750 F900
G01 Y21.4500 F900
G01 X31.6750 F900
G00 Z5.0000 F180
G00 Z-11.5000 F180
G01 Z-14.0000 F300
G01 X32.2750 F900
G01 Y16.6126 F900
G01 X32.2803 Y16.4149 F900
G03 X33.1245 Y14.5005 I2.9973 J0.1784 F900
G03 X31.0324 Y15.3500 I-2.0924 J-2.1521 F900
G01 X26.1376 F900
G03 X24.0255 Y14.5005 I-0.0192 J-3.0027 F900
G03 X24.8750 Y16.5926 I-2.1521 J2.0924 F900
G01 Y21.4874 F900
G03 X24.0255 Y23.5995 I-3.0027 J0.0192 F900
G03 X26.1176 Y22.7500 I2.0924 J2.1521 F900
G01 X31.0124 F900
G03 X33.1245 Y23.5995 I0.0192 J3.0027 F900
G03 X32.2750 Y21.5074 I2.1521 J-2.0924 F900
G01 Y21.4500 F900
G01 X31.6750 F900
G00 Z5.0000 F180
G00 Y16.6500 F1500
G00 Z-13.5000 F180
G01 Z-16.0000 F300
G01 X25.4750 F900
G01 Y19.0500 F900
G01 X31.6750 F900
G01 Y21.4500 F900
G01 X25.4750 F900
G00 Z5.0000 F180
G00 Z-13.5000 F180
G01 Z-16.0000 F300
G01 X24.8750 F900
G01 Y21.4874 F900
G03 X24.0255 Y23.5995 I-3.0027 J0.0192 F900
G03 X26.1176 Y22.7500 I2.0924 J2.1521 F900
G01 X31.0124 F900
G03 X33.1245 Y23.5995 I0.0192 J3.0027 F900
G03 X32.2750 Y21.5074 I2.1521 J-2.0924 F900
G01 Y16.6126 F900
G01 X32.2803 Y16.4149 F900
G03 X33.1245 Y14.5005 I2.9973 J0.1784 F900
G03 X31.0324 Y15.3500 I-2.0924 J-2.1521 F900
G01 X26.1376 F900
G03 X24.0255 Y14.5005 I-0.0192 J-3.0027 F900
G03 X24.8750 Y16.5926 I-2.1521 J2.0924 F900
G01 Y21.4500 F900
G01 X25.4750 F900
G00 Z5.0000 F180


;No. 2: Part 5
G00 X25.4750 Y48.4000 Z5.0000 F1500
G00 Z0.5000 F180
G01 Z-2.0000 F300
G01 X31.6750 F900
G01 Y50.8000 F900
G01 X25.4750 F900
G01 Y53.2000 F900
G01 X31.6750 F900
G00 Z5.0000 F180
G00 Z0.5000 F180
G01 Z-2.0000 F300
G01 X32.2750 F900
G01 Y48.3626 F900
G01 X32.2803 Y48.1649 F900
G03 X33.1245 Y46.2505 I2.9973 J0.1784 F900
G03 X31.0324 Y47.1000 I-2.0924 J-2.1521 F900
G01 X26.1376 F900
G03 X24.0255 Y46.2505 I-0.0192 J-3.0027 F900
G03 X24.8750 Y48.3426 I-2.1521 J2.0924 F900
G01 Y53.2374 F900
G03 X24.0255 Y55.3495 I-3.0027 J0.0192 F900
G03 X26.1176 Y54.5000 I2.0924 J2.1521 F900
G01 X31.0124 F900
G03 X33.1245 Y55.3495 I0.0192 J3.0027 F900
G03 X32.2750 Y53.2574 I2.1521 J-2.0924 F900
G01 Y53.2000 F900
G01 X31.6750 F900
G00 Z5.0000 F180
G00 Y48.4000 F1500
G00 Z-1.5000 F180
G01 Z-4.0000 F300
G01 X25.4750 F900
G01 Y50.8000 F900
G01 X31.6750 F900
G01 Y53.2000 F900
G01 X25.4750 F900
G00 Z5.0000 F180
G00 Z-1.5000 F180
G01 Z-4.0000 F300
G01 X24.8750 F900
G01 Y53.2374 F900
G03 X24.0255 Y55.3495 I-3.0027 J0.0192 F900
G03 X26.1176 Y54.5000 I2.0924 J2.1521 F900
G01 X31.0124 F900
G03 X33.1245 Y55.3495 I0.0192 J3.0027 F900
G03 X32.2750 Y53.2574 I2.1521 J-2.0924 F900
G01 Y48.3626 F900
G01 X32.2803 Y48.1649 F900
G03 X33.1245 Y46.2505 I2.9973 J0.1784 F900
G03 X31.0324 Y47.1000 I-2.0924 J-2.1521 F900
G01 X26.1376 F900
G03 X24.0255 Y46.2505 I-0.0192 J-3.0027 F900
G03 X24.8750 Y48.3426 I-2.1521 J2.0924 F900
G01 Y53.2000 F900
G01 X25.4750 F900
G00 Z5.0000 F180
G00 Y48.4000 F1500
G00 Z-3.5000 F180
G01 Z-6.0000 F300
G01 X31.6750 F900
G01 Y50.8000 F900
G01 X25.4750 F900
G01 Y53.2000 F900
G01 X31.6750 F900
G00 Z5.0000 F180
G00 Z-3.5000 F180
G01 Z-6.0000 F300
G01 X32.2750 F900
G01 Y48.3626 F900
G01 X32.2803 Y48.1649 F900
G03 X33.1245 Y46.2505 I2.9973 J0.1784 F900
G03 X31.0324 Y47.1000 I-2.0924 J-2.1521 F900
G01 X26.1376 F900
G03 X24.0255 Y46.2505 I-0.0192 J-3.0027 F900
G03 X24.8750 Y48.3426 I-2.1521 J2.0924 F900
G01 Y53.2374 F900
G03 X24.0255 Y55.3495 I-3.0027 J0.0192 F900
G03 X26.1176 Y54.5000 I2.0924 J2.1521 F900
G01 X31.0124 F900
G03 X33.1245 Y55.3495 I0.0192 J3.0027 F900
G03 X32.2750 Y53.2574 I2.1521 J-2.0924 F900
G01 Y53.2000 F900
G01 X31.6750 F900
G00 Z5.0000 F180
G00 Y48.4000 F1500
G00 Z-5.5000 F180
G01 Z-8.0000 F300
G01 X25.4750 F900
G01 Y50.8000 F900
G01 X31.6750 F900
G01 Y53.2000 F900
G01 X25.4750 F900
G00 Z5.0000 F180
G00 Z-5.5000 F180
G01 Z-8.0000 F300
G01 X24.8750 F900
G01 Y53.2374 F900
G03 X24.0255 Y55.3495 I-3.0027 J0.0192 F900
G03 X26.1176 Y54.5000 I2.0924 J2.1521 F900
G01 X31.0124 F900
G03 X33.1245 Y55.3495 I0.0192 J3.0027 F900
G03 X32.2750 Y53.2574 I2.1521 J-2.0924 F900
G01 Y48.3626 F900
G01 X32.2803 Y48.1649 F900
G03 X33.1245 Y46.2505 I2.9973 J0.1784 F900
G03 X31.0324 Y47.1000 I-2.0924 J-2.1521 F900
G01 X26.1376 F900
G03 X24.0255 Y46.2505 I-0.0192 J-3.0027 F900
G03 X24.8750 Y48.3426 I-2.1521 J2.0924 F900
G01 Y53.2000 F900
G01 X25.4750 F900
G00 Z5.0000 F180
G00 Y48.4000 F1500
G00 Z-7.5000 F180
G01 Z-10.0000 F300
G01 X31.6750 F900
G01 Y50.8000 F900
G01 X25.4750 F900
G01 Y53.2000 F900
G01 X31.6750 F900
G00 Z5.0000 F180
G00 Z-7.5000 F180
G01 Z-10.0000 F300
G01 X32.2750 F900
G01 Y48.3626 F900
G01 X32.2803 Y48.1649 F900
G03 X33.1245 Y46.2505 I2.9973 J0.1784 F900
G03 X31.0324 Y47.1000 I-2.0924 J-2.1521 F900
G01 X26.1376 F900
G03 X24.0255 Y46.2505 I-0.0192 J-3.0027 F900
G03 X24.8750 Y48.3426 I-2.1521 J2.0924 F900
G01 Y53.2374 F900
G03 X24.0255 Y55.3495 I-3.0027 J0.0192 F900
G03 X26.1176 Y54.5000 I2.0924 J2.1521 F900
G01 X31.0124 F900
G03 X33.1245 Y55.3495 I0.0192 J3.0027 F900
G03 X32.2750 Y53.2574 I2.1521 J-2.0924 F900
G01 Y53.2000 F900
G01 X31.6750 F900
G00 Z5.0000 F180
G00 Y48.4000 F1500
G00 Z-9.5000 F180
G01 Z-12.0000 F300
G01 X25.4750 F900
G01 Y50.8000 F900
G01 X31.6750 F900
G01 Y53.2000 F900
G01 X25.4750 F900
G00 Z5.0000 F180
G00 Z-9.5000 F180
G01 Z-12.0000 F300
G01 X24.8750 F900
G01 Y53.2374 F900
G03 X24.0255 Y55.3495 I-3.0027 J0.0192 F900
G03 X26.1176 Y54.5000 I2.0924 J2.1521 F900
G01 X31.0124 F900
G03 X33.1245 Y55.3495 I0.0192 J3.0027 F900
G03 X32.2750 Y53.2574 I2.1521 J-2.0924 F900
G01 Y48.3626 F900
G01 X32.2803 Y48.1649 F900
G03 X33.1245 Y46.2505 I2.9973 J0.1784 F900
G03 X31.0324 Y47.1000 I-2.0924 J-2.1521 F900
G01 X26.1376 F900
G03 X24.0255 Y46.2505 I-0.0192 J-3.0027 F900
G03 X24.8750 Y48.3426 I-2.1521 J2.0924 F900
G01 Y53.2000 F900
G01 X25.4750 F900
G00 Z5.0000 F180
G00 Y48.4000 F1500
G00 Z-11.5000 F180
G01 Z-14.0000 F300
G01 X31.6750 F900
G01 Y50.8000 F900
G01 X25.4750 F900
G01 Y53.2000 F900
G01 X31.6750 F900
G00 Z5.0000 F180
G00 Z-11.5000 F180
G01 Z-14.0000 F300
G01 X32.2750 F900
G01 Y48.3626 F900
G01 X32.2803 Y48.1649 F900
G03 X33.1245 Y46.2505 I2.9973 J0.1784 F900
G03 X31.0324 Y47.1000 I-2.0924 J-2.1521 F900
G01 X26.1376 F900
G03 X24.0255 Y46.2505 I-0.0192 J-3.0027 F900
G03 X24.8750 Y48.3426 I-2.1521 J2.0924 F900
G01 Y53.2374 F900
G03 X24.0255 Y55.3495 I-3.0027 J0.0192 F900
G03 X26.1176 Y54.5000 I2.0924 J2.1521 F900
G01 X31.0124 F900
G03 X33.1245 Y55.3495 I0.0192 J3.0027 F900
G03 X32.2750 Y53.2574 I2.1521 J-2.0924 F900
G01 Y53.2000 F900
G01 X31.6750 F900
G00 Z5.0000 F180
G00 Y48.4000 F1500
G00 Z-13.5000 F180
G01 Z-16.0000 F300
G01 X25.4750 F900
G01 Y50.8000 F900
G01 X31.6750 F900
G01 Y53.2000 F900
G01 X25.4750 F900
G00 Z5.0000 F180
G00 Z-13.5000 F180
G01 Z-16.0000 F300
G01 X24.8750 F900
G01 Y53.2374 F900
G03 X24.0255 Y55.3495 I-3.0027 J0.0192 F900
G03 X26.1176 Y54.5000 I2.0924 J2.1521 F900
G01 X31.0124 F900
G03 X33.1245 Y55.3495 I0.0192 J3.0027 F900
G03 X32.2750 Y53.2574 I2.1521 J-2.0924 F900
G01 Y48.3626 F900
G01 X32.2803 Y48.1649 F900
G03 X33.1245 Y46.2505 I2.9973 J0.1784 F900
G03 X31.0324 Y47.1000 I-2.0924 J-2.1521 F900
G01 X26.1376 F900
G03 X24.0255 Y46.2505 I-0.0192 J-3.0027 F900
G03 X24.8750 Y48.3426 I-2.1521 J2.0924 F900
G01 Y53.2000 F900
G01 X25.4750 F900
G00 Z5.0000 F180


;No. 3: Part 10
G00 X57.2250 Y48.4000 Z5.0000 F1500
G00 Z0.5000 F180
G01 Z-2.0000 F300
G01 X63.4250 F900
G01 Y50.8000 F900
G01 X57.2250 F900
G01 Y53.2000 F900
G01 X63.4250 F900
G00 Z5.0000 F180
G00 Z0.5000 F180
G01 Z-2.0000 F300
G01 X64.0250 F900
G01 Y48.3626 F900
G01 X64.0303 Y48.1649 F900
G03 X64.8745 Y46.2505 I2.9973 J0.1784 F900
G03 X62.7824 Y47.1000 I-2.0924 J-2.1521 F900
G01 X57.8876 F900
G03 X55.7755 Y46.2505 I-0.0192 J-3.0027 F900
G03 X56.6250 Y48.3426 I-2.1521 J2.0924 F900
G01 Y53.2374 F900
G03 X55.7755 Y55.3495 I-3.0027 J0.0192 F900
G03 X57.8676 Y54.5000 I2.0924 J2.1521 F900
G01 X62.7624 F900
G03 X64.8745 Y55.3495 I0.0192 J3.0027 F900
G03 X64.0250 Y53.2574 I2.1521 J-2.0924 F900
G01 Y53.2000 F900
G01 X63.4250 F900
G00 Z5.0000 F180
G00 Y48.4000 F1500
G00 Z-1.5000 F180
G01 Z-4.0000 F300
G01 X57.2250 F900
G01 Y50.8000 F900
G01 X63.4250 F900
G01 Y53.2000 F900
G01 X57.2250 F900
G00 Z5.0000 F180
G00 Z-1.5000 F180
G01 Z-4.0000 F300
G01 X56.6250 F900
G01 Y53.2374 F900
G03 X55.7755 Y55.3495 I-3.0027 J0.0192 F900
G03 X57.8676 Y54.5000 I2.0924 J2.1521 F900
G01 X62.7624 F900
G03 X64.8745 Y55.3495 I0.0192 J3.0027 F900
G03 X64.0250 Y53.2574 I2.1521 J-2.0924 F900
G01 Y48.3626 F900
G01 X64.0303 Y48.1649 F900
G03 X64.8745 Y46.2505 I2.9973 J0.1784 F900
G03 X62.7824 Y47.1000 I-2.0924 J-2.1521 F900
G01 X57.8876 F900
G03 X55.7755 Y46.2505 I-0.0192 J-3.0027 F900
G03 X56.6250 Y48.3426 I-2.1521 J2.0924 F900
G01 Y53.2000 F900
G01 X57.2250 F900
G00 Z5.0000 F180
G00 Y48.4000 F1500
G00 Z-3.5000 F180
G01 Z-6.0000 F300
G01 X63.4250 F900
G01 Y50.8000 F900
G01 X57.2250 F900
G01 Y53.2000 F900
G01 X63.4250 F900
G00 Z5.0000 F180
G00 Z-3.5000 F180
G01 Z-6.0000 F300
G01 X64.0250 F900
G01 Y48.3626 F900
G01 X64.0303 Y48.1649 F900
G03 X64.8745 Y46.2505 I2.9973 J0.1784 F900
G03 X62.7824 Y47.1000 I-2.0924 J-2.1521 F900
G01 X57.8876 F900
G03 X55.7755 Y46.2505 I-0.0192 J-3.0027 F900
G03 X56.6250 Y48.3426 I-2.1521 J2.0924 F900
G01 Y53.2374 F900
G03 X55.7755 Y55.3495 I-3.0027 J0.0192 F900
G03 X57.8676 Y54.5000 I2.0924 J2.1521 F900
G01 X62.7624 F900
G03 X64.8745 Y55.3495 I0.0192 J3.0027 F900
G03 X64.0250 Y53.2574 I2.1521 J-2.0924 F900
G01 Y53.2000 F900
G01 X63.4250 F900
G00 Z5.0000 F180
G00 Y48.4000 F1500
G00 Z-5.5000 F180
G01 Z-8.0000 F300
G01 X57.2250 F900
G01 Y50.8000 F900
G01 X63.4250 F900
G01 Y53.2000 F900
G01 X57.2250 F900
G00 Z5.0000 F180
G00 Z-5.5000 F180
G01 Z-8.0000 F300
G01 X56.6250 F900
G01 Y53.2374 F900
G03 X55.7755 Y55.3495 I-3.0027 J0.0192 F900
G03 X57.8676 Y54.5000 I2.0924 J2.1521 F900
G01 X62.7624 F900
G03 X64.8745 Y55.3495 I0.0192 J3.0027 F900
G03 X64.0250 Y53.2574 I2.1521 J-2.0924 F900
G01 Y48.3626 F900
G01 X64.0303 Y48.1649 F900
G03 X64.8745 Y46.2505 I2.9973 J0.1784 F900
G03 X62.7824 Y47.1000 I-2.0924 J-2.1521 F900
G01 X57.8876 F900
G03 X55.7755 Y46.2505 I-0.0192 J-3.0027 F900
G03 X56.6250 Y48.3426 I-2.1521 J2.0924 F900
G01 Y53.2000 F900
G01 X57.2250 F900
G00 Z5.0000 F180
G00 Y48.4000 F1500
G00 Z-7.5000 F180
G01 Z-10.0000 F300
G01 X63.4250 F900
G01 Y50.8000 F900
G01 X57.2250 F900
G01 Y53.2000 F900
G01 X63.4250 F900
G00 Z5.0000 F180
G00 Z-7.5000 F180
G01 Z-10.0000 F300
G01 X64.0250 F900
G01 Y48.3626 F900
G01 X64.0303 Y48.1649 F900
G03 X64.8745 Y46.2505 I2.9973 J0.1784 F900
G03 X62.7824 Y47.1000 I-2.0924 J-2.1521 F900
G01 X57.8876 F900
G03 X55.7755 Y46.2505 I-0.0192 J-3.0027 F900
G03 X56.6250 Y48.3426 I-2.1521 J2.0924 F900
G01 Y53.2374 F900
G03 X55.7755 Y55.3495 I-3.0027 J0.0192 F900
G03 X57.8676 Y54.5000 I2.0924 J2.1521 F900
G01 X62.7624 F900
G03 X64.8745 Y55.3495 I0.0192 J3.0027 F900
G03 X64.0250 Y53.2574 I2.1521 J-2.0924 F900
G01 Y53.2000 F900
G01 X63.4250 F900
G00 Z5.0000 F180
G00 Y48.4000 F1500
G00 Z-9.5000 F180
G01 Z-12.0000 F300
G01 X57.2250 F900
G01 Y50.8000 F900
G01 X63.4250 F900
G01 Y53.2000 F900
G01 X57.2250 F900
G00 Z5.0000 F180
G00 Z-9.5000 F180
G01 Z-12.0000 F300
G01 X56.6250 F900
G01 Y53.2374 F900
G03 X55.7755 Y55.3495 I-3.0027 J0.0192 F900
G03 X57.8676 Y54.5000 I2.0924 J2.1521 F900
G01 X62.7624 F900
G03 X64.8745 Y55.3495 I0.0192 J3.0027 F900
G03 X64.0250 Y53.2574 I2.1521 J-2.0924 F900
G01 Y48.3626 F900
G01 X64.0303 Y48.1649 F900
G03 X64.8745 Y46.2505 I2.9973 J0.1784 F900
G03 X62.7824 Y47.1000 I-2.0924 J-2.1521 F900
G01 X57.8876 F900
G03 X55.7755 Y46.2505 I-0.0192 J-3.0027 F900
G03 X56.6250 Y48.3426 I-2.1521 J2.0924 F900
G01 Y53.2000 F900
G01 X57.2250 F900
G00 Z5.0000 F180
G00 Y48.4000 F1500
G00 Z-11.5000 F180
G01 Z-14.0000 F300
G01 X63.4250 F900
G01 Y50.8000 F900
G01 X57.2250 F900
G01 Y53.2000 F900
G01 X63.4250 F900
G00 Z5.0000 F180
G00 Z-11.5000 F180
G01 Z-14.0000 F300
G01 X64.0250 F900
G01 Y48.3626 F900
G01 X64.0303 Y48.1649 F900
G03 X64.8745 Y46.2505 I2.9973 J0.1784 F900
G03 X62.7824 Y47.1000 I-2.0924 J-2.1521 F900
G01 X57.8876 F900
G03 X55.7755 Y46.2505 I-0.0192 J-3.0027 F900
G03 X56.6250 Y48.3426 I-2.1521 J2.0924 F900
G01 Y53.2374 F900
G03 X55.7755 Y55.3495 I-3.0027 J0.0192 F900
G03 X57.8676 Y54.5000 I2.0924 J2.1521 F900
G01 X62.7624 F900
G03 X64.8745 Y55.3495 I0.0192 J3.0027 F900
G03 X64.0250 Y53.2574 I2.1521 J-2.0924 F900
G01 Y53.2000 F900
G01 X63.4250 F900
G00 Z5.0000 F180
G00 Y48.4000 F1500
G00 Z-13.5000 F180
G01 Z-16.0000 F300
G01 X57.2250 F900
G01 Y50.8000 F900
G01 X63.4250 F900
G01 Y53.2000 F900
G01 X57.2250 F900
G00 Z5.0000 F180
G00 Z-13.5000 F180
G01 Z-16.0000 F300
G01 X56.6250 F900
G01 Y53.2374 F900
G03 X55.7755 Y55.3495 I-3.0027 J0.0192 F900
G03 X57.8676 Y54.5000 I2.0924 J2.1521 F900
G01 X62.7624 F900
G03 X64.8745 Y55.3495 I0.0192 J3.0027 F900
G03 X64.0250 Y53.2574 I2.1521 J-2.0924 F900
G01 Y48.3626 F900
G01 X64.0303 Y48.1649 F900
G03 X64.8745 Y46.2505 I2.9973 J0.1784 F900
G03 X62.7824 Y47.1000 I-2.0924 J-2.1521 F900
G01 X57.8876 F900
G03 X55.7755 Y46.2505 I-0.0192 J-3.0027 F900
G03 X56.6250 Y48.3426 I-2.1521 J2.0924 F900
G01 Y53.2000 F900
G01 X57.2250 F900
G00 Z5.0000 F180


;No. 4: Part 9
G00 X57.2250 Y16.6500 Z5.0000 F1500
G00 Z0.5000 F180
G01 Z-2.0000 F300
G01 X63.4250 F900
G01 Y19.0500 F900
G01 X57.2250 F900
G01 Y21.4500 F900
G01 X63.4250 F900
G00 Z5.0000 F180
G00 Z0.5000 F180
G01 Z-2.0000 F300
G01 X64.0250 F900
G01 Y16.6126 F900
G01 X64.0303 Y16.4149 F900
G03 X64.8745 Y14.5005 I2.9973 J0.1784 F900
G03 X62.7824 Y15.3500 I-2.0924 J-2.1521 F900
G01 X57.8876 F900
G03 X55.7755 Y14.5005 I-0.0192 J-3.0027 F900
G03 X56.6250 Y16.5926 I-2.1521 J2.0924 F900
G01 Y21.4874 F900
G03 X55.7755 Y23.5995 I-3.0027 J0.0192 F900
G03 X57.8676 Y22.7500 I2.0924 J2.1521 F900
G01 X62.7624 F900
G03 X64.8745 Y23.5995 I0.0192 J3.0027 F900
G03 X64.0250 Y21.5074 I2.1521 J-2.0924 F900
G01 Y21.4500 F900
G01 X63.4250 F900
G00 Z5.0000 F180
G00 Y16.6500 F1500
G00 Z-1.5000 F180
G01 Z-4.0000 F300
G01 X57.2250 F900
G01 Y19.0500 F900
G01 X63.4250 F900
G01 Y21.4500 F900
G01 X57.2250 F900
G00 Z5.0000 F180
G00 Z-1.5000 F180
G01 Z-4.0000 F300
G01 X56.6250 F900
G01 Y21.4874 F900
G03 X55.7755 Y23.5995 I-3.0027 J0.0192 F900
G03 X57.8676 Y22.7500 I2.0924 J2.1521 F900
G01 X62.7624 F900
G03 X64.8745 Y23.5995 I0.0192 J3.0027 F900
G03 X64.0250 Y21.5074 I2.1521 J-2.0924 F900
G01 Y16.6126 F900
G01 X64.0303 Y16.4149 F900
G03 X64.8745 Y14.5005 I2.9973 J0.1784 F900
G03 X62.7824 Y15.3500 I-2.0924 J-2.1521 F900
G01 X57.8876 F900
G03 X55.7755 Y14.5005 I-0.0192 J-3.0027 F900
G03 X56.6250 Y16.5926 I-2.1521 J2.0924 F900
G01 Y21.4500 F900
G01 X57.2250 F900
G00 Z5.0000 F180
G00 Y16.6500 F1500
G00 Z-3.5000 F180
G01 Z-6.0000 F300
G01 X63.4250 F900
G01 Y19.0500 F900
G01 X57.2250 F900
G01 Y21.4500 F900
G01 X63.4250 F900
G00 Z5.0000 F180
G00 Z-3.5000 F180
G01 Z-6.0000 F300
G01 X64.0250 F900
G01 Y16.6126 F900
G01 X64.0303 Y16.4149 F900
G03 X64.8745 Y14.5005 I2.9973 J0.1784 F900
G03 X62.7824 Y15.3500 I-2.0924 J-2.1521 F900
G01 X57.8876 F900
G03 X55.7755 Y14.5005 I-0.0192 J-3.0027 F900
G03 X56.6250 Y16.5926 I-2.1521 J2.0924 F900
G01 Y21.4874 F900
G03 X55.7755 Y23.5995 I-3.0027 J0.0192 F900
G03 X57.8676 Y22.7500 I2.0924 J2.1521 F900
G01 X62.7624 F900
G03 X64.8745 Y23.5995 I0.0192 J3.0027 F900
G03 X64.0250 Y21.5074 I2.1521 J-2.0924 F900
G01 Y21.4500 F900
G01 X63.4250 F900
G00 Z5.0000 F180
G00 Y16.6500 F1500
G00 Z-5.5000 F180
G01 Z-8.0000 F300
G01 X57.2250 F900
G01 Y19.0500 F900
G01 X63.4250 F900
G01 Y21.4500 F900
G01 X57.2250 F900
G00 Z5.0000 F180
G00 Z-5.5000 F180
G01 Z-8.0000 F300
G01 X56.6250 F900
G01 Y21.4874 F900
G03 X55.7755 Y23.5995 I-3.0027 J0.0192 F900
G03 X57.8676 Y22.7500 I2.0924 J2.1521 F900
G01 X62.7624 F900
G03 X64.8745 Y23.5995 I0.0192 J3.0027 F900
G03 X64.0250 Y21.5074 I2.1521 J-2.0924 F900
G01 Y16.6126 F900
G01 X64.0303 Y16.4149 F900
G03 X64.8745 Y14.5005 I2.9973 J0.1784 F900
G03 X62.7824 Y15.3500 I-2.0924 J-2.1521 F900
G01 X57.8876 F900
G03 X55.7755 Y14.5005 I-0.0192 J-3.0027 F900
G03 X56.6250 Y16.5926 I-2.1521 J2.0924 F900
G01 Y21.4500 F900
G01 X57.2250 F900
G00 Z5.0000 F180
G00 Y16.6500 F1500
G00 Z-7.5000 F180
G01 Z-10.0000 F300
G01 X63.4250 F900
G01 Y19.0500 F900
G01 X57.2250 F900
G01 Y21.4500 F900
G01 X63.4250 F900
G00 Z5.0000 F180
G00 Z-7.5000 F180
G01 Z-10.0000 F300
G01 X64.0250 F900
G01 Y16.6126 F900
G01 X64.0303 Y16.4149 F900
G03 X64.8745 Y14.5005 I2.9973 J0.1784 F900
G03 X62.7824 Y15.3500 I-2.0924 J-2.1521 F900
G01 X57.8876 F900
G03 X55.7755 Y14.5005 I-0.0192 J-3.0027 F900
G03 X56.6250 Y16.5926 I-2.1521 J2.0924 F900
G01 Y21.4874 F900
G03 X55.7755 Y23.5995 I-3.0027 J0.0192 F900
G03 X57.8676 Y22.7500 I2.0924 J2.1521 F900
G01 X62.7624 F900
G03 X64.8745 Y23.5995 I0.0192 J3.0027 F900
G03 X64.0250 Y21.5074 I2.1521 J-2.0924 F900
G01 Y21.4500 F900
G01 X63.4250 F900
G00 Z5.0000 F180
G00 Y16.6500 F1500
G00 Z-9.5000 F180
G01 Z-12.0000 F300
G01 X57.2250 F900
G01 Y19.0500 F900
G01 X63.4250 F900
G01 Y21.4500 F900
G01 X57.2250 F900
G00 Z5.0000 F180
G00 Z-9.5000 F180
G01 Z-12.0000 F300
G01 X56.6250 F900
G01 Y21.4874 F900
G03 X55.7755 Y23.5995 I-3.0027 J0.0192 F900
G03 X57.8676 Y22.7500 I2.0924 J2.1521 F900
G01 X62.7624 F900
G03 X64.8745 Y23.5995 I0.0192 J3.0027 F900
G03 X64.0250 Y21.5074 I2.1521 J-2.0924 F900
G01 Y16.6126 F900
G01 X64.0303 Y16.4149 F900
G03 X64.8745 Y14.5005 I2.9973 J0.1784 F900
G03 X62.7824 Y15.3500 I-2.0924 J-2.1521 F900
G01 X57.8876 F900
G03 X55.7755 Y14.5005 I-0.0192 J-3.0027 F900
G03 X56.6250 Y16.5926 I-2.1521 J2.0924 F900
G01 Y21.4500 F900
G01 X57.2250 F900
G00 Z5.0000 F180
G00 Y16.6500 F1500
G00 Z-11.5000 F180
G01 Z-14.0000 F300
G01 X63.4250 F900
G01 Y19.0500 F900
G01 X57.2250 F900
G01 Y21.4500 F900
G01 X63.4250 F900
G00 Z5.0000 F180
G00 Z-11.5000 F180
G01 Z-14.0000 F300
G01 X64.0250 F900
G01 Y16.6126 F900
G01 X64.0303 Y16.4149 F900
G03 X64.8745 Y14.5005 I2.9973 J0.1784 F900
G03 X62.7824 Y15.3500 I-2.0924 J-2.1521 F900
G01 X57.8876 F900
G03 X55.7755 Y14.5005 I-0.0192 J-3.0027 F900
G03 X56.6250 Y16.5926 I-2.1521 J2.0924 F900
G01 Y21.4874 F900
G03 X55.7755 Y23.5995 I-3.0027 J0.0192 F900
G03 X57.8676 Y22.7500 I2.0924 J2.1521 F900
G01 X62.7624 F900
G03 X64.8745 Y23.5995 I0.0192 J3.0027 F900
G03 X64.0250 Y21.5074 I2.1521 J-2.0924 F900
G01 Y21.4500 F900
G01 X63.4250 F900
G00 Z5.0000 F180
G00 Y16.6500 F1500
G00 Z-13.5000 F180
G01 Z-16.0000 F300
G01 X57.2250 F900
G01 Y19.0500 F900
G01 X63.4250 F900
G01 Y21.4500 F900
G01 X57.2250 F900
G00 Z5.0000 F180
G00 Z-13.5000 F180
G01 Z-16.0000 F300
G01 X56.6250 F900
G01 Y21.4874 F900
G03 X55.7755 Y23.5995 I-3.0027 J0.0192 F900
G03 X57.8676 Y22.7500 I2.0924 J2.1521 F900
G01 X62.7624 F900
G03 X64.8745 Y23.5995 I0.0192 J3.0027 F900
G03 X64.0250 Y21.5074 I2.1521 J-2.0924 F900
G01 Y16.6126 F900
G01 X64.0303 Y16.4149 F900
G03 X64.8745 Y14.5005 I2.9973 J0.1784 F900
G03 X62.7824 Y15.3500 I-2.0924 J-2.1521 F900
G01 X57.8876 F900
G03 X55.7755 Y14.5005 I-0.0192 J-3.0027 F900
G03 X56.6250 Y16.5926 I-2.1521 J2.0924 F900
G01 Y21.4500 F900
G01 X57.2250 F900
G00 Z5.0000 F180


;No. 5: Part 14
G00 X88.9750 Y16.6500 Z5.0000 F1500
G00 Z0.5000 F180
G01 Z-2.0000 F300
G01 X95.1750 F900
G01 Y19.0500 F900
G01 X88.9750 F900
G01 Y21.4500 F900
G01 X95.1750 F900
G00 Z5.0000 F180
G00 Z0.5000 F180
G01 Z-2.0000 F300
G01 X95.7750 F900
G01 Y16.6126 F900
G01 X95.7803 Y16.4149 F900
G03 X96.6245 Y14.5005 I2.9973 J0.1784 F900
G03 X94.5324 Y15.3500 I-2.0924 J-2.1521 F900
G01 X89.6376 F900
G03 X87.5255 Y14.5005 I-0.0192 J-3.0027 F900
G03 X88.3750 Y16.5926 I-2.1521 J2.0924 F900
G01 Y21.4874 F900
G03 X87.5255 Y23.5995 I-3.0027 J0.0192 F900
G03 X89.6176 Y22.7500 I2.0924 J2.1521 F900
G01 X94.5124 F900
G03 X96.6245 Y23.5995 I0.0192 J3.0027 F900
G03 X95.7750 Y21.5074 I2.1521 J-2.0924 F900
G01 Y21.4500 F900
G01 X95.1750 F900
G00 Z5.0000 F180
G00 Y16.6500 F1500
G00 Z-1.5000 F180
G01 Z-4.0000 F300
G01 X88.9750 F900
G01 Y19.0500 F900
G01 X95.1750 F900
G01 Y21.4500 F900
G01 X88.9750 F900
G00 Z5.0000 F180
G00 Z-1.5000 F180
G01 Z-4.0000 F300
G01 X88.3750 F900
G01 Y21.4874 F900
G03 X87.5255 Y23.5995 I-3.0027 J0.0192 F900
G03 X89.6176 Y22.7500 I2.0924 J2.1521 F900
G01 X94.5124 F900
G03 X96.6245 Y23.5995 I0.0192 J3.0027 F900
G03 X95.7750 Y21.5074 I2.1521 J-2.0924 F900
G01 Y16.6126 F900
G01 X95.7803 Y16.4149 F900
G03 X96.6245 Y14.5005 I2.9973 J0.1784 F900
G03 X94.5324 Y15.3500 I-2.0924 J-2.1521 F900
G01 X89.6376 F900
G03 X87.5255 Y14.5005 I-0.0192 J-3.0027 F900
G03 X88.3750 Y16.5926 I-2.1521 J2.0924 F900
G01 Y21.4500 F900
G01 X88.9750 F900
G00 Z5.0000 F180
G00 Y16.6500 F1500
G00 Z-3.5000 F180
G01 Z-6.0000 F300
G01 X95.1750 F900
G01 Y19.0500 F900
G01 X88.9750 F900
G01 Y21.4500 F900
G01 X95.1750 F900
G00 Z5.0000 F180
G00 Z-3.5000 F180
G01 Z-6.0000 F300
G01 X95.7750 F900
G01 Y16.6126 F900
G01 X95.7803 Y16.4149 F900
G03 X96.6245 Y14.5005 I2.9973 J0.1784 F900
G03 X94.5324 Y15.3500 I-2.0924 J-2.1521 F900
G01 X89.6376 F900
G03 X87.5255 Y14.5005 I-0.0192 J-3.0027 F900
G03 X88.3750 Y16.5926 I-2.1521 J2.0924 F900
G01 Y21.4874 F900
G03 X87.5255 Y23.5995 I-3.0027 J0.0192 F900
G03 X89.6176 Y22.7500 I2.0924 J2.1521 F900
G01 X94.5124 F900
G03 X96.6245 Y23.5995 I0.0192 J3.0027 F900
G03 X95.7750 Y21.5074 I2.1521 J-2.0924 F900
G01 Y21.4500 F900
G01 X95.1750 F900
G00 Z5.0000 F180
G00 Y16.6500 F1500
G00 Z-5.5000 F180
G01 Z-8.0000 F300
G01 X88.9750 F900
G01 Y19.0500 F900
G01 X95.1750 F900
G01 Y21.4500 F900
G01 X88.9750 F900
G00 Z5.0000 F180
G00 Z-5.5000 F180
G01 Z-8.0000 F300
G01 X88.3750 F900
G01 Y21.4874 F900
G03 X87.5255 Y23.5995 I-3.0027 J0.0192 F900
G03 X89.6176 Y22.7500 I2.0924 J2.1521 F900
G01 X94.5124 F900
G03 X96.6245 Y23.5995 I0.0192 J3.0027 F900
G03 X95.7750 Y21.5074 I2.1521 J-2.0924 F900
G01 Y16.6126 F900
G01 X95.7803 Y16.4149 F900
G03 X96.6245 Y14.5005 I2.9973 J0.1784 F900
G03 X94.5324 Y15.3500 I-2.0924 J-2.1521 F900
G01 X89.6376 F900
G03 X87.5255 Y14.5005 I-0.0192 J-3.0027 F900
G03 X88.3750 Y16.5926 I-2.1521 J2.0924 F900
G01 Y21.4500 F900
G01 X88.9750 F900
G00 Z5.0000 F180
G00 Y16.6500 F1500
G00 Z-7.5000 F180
G01 Z-10.0000 F300
G01 X95.1750 F900
G01 Y19.0500 F900
G01 X88.9750 F900
G01 Y21.4500 F900
G01 X95.1750 F900
G00 Z5.0000 F180
G00 Z-7.5000 F180
G01 Z-10.0000 F300
G01 X95.7750 F900
G01 Y16.6126 F900
G01 X95.7803 Y16.4149 F900
G03 X96.6245 Y14.5005 I2.9973 J0.1784 F900
G03 X94.5324 Y15.3500 I-2.0924 J-2.1521 F900
G01 X89.6376 F900
G03 X87.5255 Y14.5005 I-0.0192 J-3.0027 F900
G03 X88.3750 Y16.5926 I-2.1521 J2.0924 F900
G01 Y21.4874 F900
G03 X87.5255 Y23.5995 I-3.0027 J0.0192 F900
G03 X89.6176 Y22.7500 I2.0924 J2.1521 F900
G01 X94.5124 F900
G03 X96.6245 Y23.5995 I0.0192 J3.0027 F900
G03 X95.7750 Y21.5074 I2.1521 J-2.0924 F900
G01 Y21.4500 F900
G01 X95.1750 F900
G00 Z5.0000 F180
G00 Y16.6500 F1500
G00 Z-9.5000 F180
G01 Z-12.0000 F300
G01 X88.9750 F900
G01 Y19.0500 F900
G01 X95.1750 F900
G01 Y21.4500 F900
G01 X88.9750 F900
G00 Z5.0000 F180
G00 Z-9.5000 F180
G01 Z-12.0000 F300
G01 X88.3750 F900
G01 Y21.4874 F900
G03 X87.5255 Y23.5995 I-3.0027 J0.0192 F900
G03 X89.6176 Y22.7500 I2.0924 J2.1521 F900
G01 X94.5124 F900
G03 X96.6245 Y23.5995 I0.0192 J3.0027 F900
G03 X95.7750 Y21.5074 I2.1521 J-2.0924 F900
G01 Y16.6126 F900
G01 X95.7803 Y16.4149 F900
G03 X96.6245 Y14.5005 I2.9973 J0.1784 F900
G03 X94.5324 Y15.3500 I-2.0924 J-2.1521 F900
G01 X89.6376 F900
G03 X87.5255 Y14.5005 I-0.0192 J-3.0027 F900
G03 X88.3750 Y16.5926 I-2.1521 J2.0924 F900
G01 Y21.4500 F900
G01 X88.9750 F900
G00 Z5.0000 F180
G00 Y16.6500 F1500
G00 Z-11.5000 F180
G01 Z-14.0000 F300
G01 X95.1750 F900
G01 Y19.0500 F900
G01 X88.9750 F900
G01 Y21.4500 F900
G01 X95.1750 F900
G00 Z5.0000 F180
G00 Z-11.5000 F180
G01 Z-14.0000 F300
G01 X95.7750 F900
G01 Y16.6126 F900
G01 X95.7803 Y16.4149 F900
G03 X96.6245 Y14.5005 I2.9973 J0.1784 F900
G03 X94.5324 Y15.3500 I-2.0924 J-2.1521 F900
G01 X89.6376 F900
G03 X87.5255 Y14.5005 I-0.0192 J-3.0027 F900
G03 X88.3750 Y16.5926 I-2.1521 J2.0924 F900
G01 Y21.4874 F900
G03 X87.5255 Y23.5995 I-3.0027 J0.0192 F900
G03 X89.6176 Y22.7500 I2.0924 J2.1521 F900
G01 X94.5124 F900
G03 X96.6245 Y23.5995 I0.0192 J3.0027 F900
G03 X95.7750 Y21.5074 I2.1521 J-2.0924 F900
G01 Y21.4500 F900
G01 X95.1750 F900
G00 Z5.0000 F180
G00 Y16.6500 F1500
G00 Z-13.5000 F180
G01 Z-16.0000 F300
G01 X88.9750 F900
G01 Y19.0500 F900
G01 X95.1750 F900
G01 Y21.4500 F900
G01 X88.9750 F900
G00 Z5.0000 F180
G00 Z-13.5000 F180
G01 Z-16.0000 F300
G01 X88.3750 F900
G01 Y21.4874 F900
G03 X87.5255 Y23.5995 I-3.0027 J0.0192 F900
G03 X89.6176 Y22.7500 I2.0924 J2.1521 F900
G01 X94.5124 F900
G03 X96.6245 Y23.5995 I0.0192 J3.0027 F900
G03 X95.7750 Y21.5074 I2.1521 J-2.0924 F900
G01 Y16.6126 F900
G01 X95.7803 Y16.4149 F900
G03 X96.6245 Y14.5005 I2.9973 J0.1784 F900
G03 X94.5324 Y15.3500 I-2.0924 J-2.1521 F900
G01 X89.6376 F900
G03 X87.5255 Y14.5005 I-0.0192 J-3.0027 F900
G03 X88.3750 Y16.5926 I-2.1521 J2.0924 F900
G01 Y21.4500 F900
G01 X88.9750 F900
G00 Z5.0000 F180


;No. 6: Part 15
G00 X88.9750 Y48.4000 Z5.0000 F1500
G00 Z0.5000 F180
G01 Z-2.0000 F300
G01 X95.1750 F900
G01 Y50.8000 F900
G01 X88.9750 F900
G01 Y53.2000 F900
G01 X95.1750 F900
G00 Z5.0000 F180
G00 Z0.5000 F180
G01 Z-2.0000 F300
G01 X95.7750 F900
G01 Y48.3626 F900
G01 X95.7803 Y48.1649 F900
G03 X96.6245 Y46.2505 I2.9973 J0.1784 F900
G03 X94.5324 Y47.1000 I-2.0924 J-2.1521 F900
G01 X89.6376 F900
G03 X87.5255 Y46.2505 I-0.0192 J-3.0027 F900
G03 X88.3750 Y48.3426 I-2.1521 J2.0924 F900
G01 Y53.2374 F900
G03 X87.5255 Y55.3495 I-3.0027 J0.0192 F900
G03 X89.6176 Y54.5000 I2.0924 J2.1521 F900
G01 X94.5124 F900
G03 X96.6245 Y55.3495 I0.0192 J3.0027 F900
G03 X95.7750 Y53.2574 I2.1521 J-2.0924 F900
G01 Y53.2000 F900
G01 X95.1750 F900
G00 Z5.0000 F180
G00 Y48.4000 F1500
G00 Z-1.5000 F180
G01 Z-4.0000 F300
G01 X88.9750 F900
G01 Y50.8000 F900
G01 X95.1750 F900
G01 Y53.2000 F900
G01 X88.9750 F900
G00 Z5.0000 F180
G00 Z-1.5000 F180
G01 Z-4.0000 F300
G01 X88.3750 F900
G01 Y53.2374 F900
G03 X87.5255 Y55.3495 I-3.0027 J0.0192 F900
G03 X89.6176 Y54.5000 I2.0924 J2.1521 F900
G01 X94.5124 F900
G03 X96.6245 Y55.3495 I0.0192 J3.0027 F900
G03 X95.7750 Y53.2574 I2.1521 J-2.0924 F900
G01 Y48.3626 F900
G01 X95.7803 Y48.1649 F900
G03 X96.6245 Y46.2505 I2.9973 J0.1784 F900
G03 X94.5324 Y47.1000 I-2.0924 J-2.1521 F900
G01 X89.6376 F900
G03 X87.5255 Y46.2505 I-0.0192 J-3.0027 F900
G03 X88.3750 Y48.3426 I-2.1521 J2.0924 F900
G01 Y53.2000 F900
G01 X88.9750 F900
G00 Z5.0000 F180
G00 Y48.4000 F1500
G00 Z-3.5000 F180
G01 Z-6.0000 F300
G01 X95.1750 F900
G01 Y50.8000 F900
G01 X88.9750 F900
G01 Y53.2000 F900
G01 X95.1750 F900
G00 Z5.0000 F180
G00 Z-3.5000 F180
G01 Z-6.0000 F300
G01 X95.7750 F900
G01 Y48.3626 F900
G01 X95.7803 Y48.1649 F900
G03 X96.6245 Y46.2505 I2.9973 J0.1784 F900
G03 X94.5324 Y47.1000 I-2.0924 J-2.1521 F900
G01 X89.6376 F900
G03 X87.5255 Y46.2505 I-0.0192 J-3.0027 F900
G03 X88.3750 Y48.3426 I-2.1521 J2.0924 F900
G01 Y53.2374 F900
G03 X87.5255 Y55.3495 I-3.0027 J0.0192 F900
G03 X89.6176 Y54.5000 I2.0924 J2.1521 F900
G01 X94.5124 F900
G03 X96.6245 Y55.3495 I0.0192 J3.0027 F900
G03 X95.7750 Y53.2574 I2.1521 J-2.0924 F900
G01 Y53.2000 F900
G01 X95.1750 F900
G00 Z5.0000 F180
G00 Y48.4000 F1500
G00 Z-5.5000 F180
G01 Z-8.0000 F300
G01 X88.9750 F900
G01 Y50.8000 F900
G01 X95.1750 F900
G01 Y53.2000 F900
G01 X88.9750 F900
G00 Z5.0000 F180
G00 Z-5.5000 F180
G01 Z-8.0000 F300
G01 X88.3750 F900
G01 Y53.2374 F900
G03 X87.5255 Y55.3495 I-3.0027 J0.0192 F900
G03 X89.6176 Y54.5000 I2.0924 J2.1521 F900
G01 X94.5124 F900
G03 X96.6245 Y55.3495 I0.0192 J3.0027 F900
G03 X95.7750 Y53.2574 I2.1521 J-2.0924 F900
G01 Y48.3626 F900
G01 X95.7803 Y48.1649 F900
G03 X96.6245 Y46.2505 I2.9973 J0.1784 F900
G03 X94.5324 Y47.1000 I-2.0924 J-2.1521 F900
G01 X89.6376 F900
G03 X87.5255 Y46.2505 I-0.0192 J-3.0027 F900
G03 X88.3750 Y48.3426 I-2.1521 J2.0924 F900
G01 Y53.2000 F900
G01 X88.9750 F900
G00 Z5.0000 F180
G00 Y48.4000 F1500
G00 Z-7.5000 F180
G01 Z-10.0000 F300
G01 X95.1750 F900
G01 Y50.8000 F900
G01 X88.9750 F900
G01 Y53.2000 F900
G01 X95.1750 F900
G00 Z5.0000 F180
G00 Z-7.5000 F180
G01 Z-10.0000 F300
G01 X95.7750 F900
G01 Y48.3626 F900
G01 X95.7803 Y48.1649 F900
G03 X96.6245 Y46.2505 I2.9973 J0.1784 F900
G03 X94.5324 Y47.1000 I-2.0924 J-2.1521 F900
G01 X89.6376 F900
G03 X87.5255 Y46.2505 I-0.0192 J-3.0027 F900
G03 X88.3750 Y48.3426 I-2.1521 J2.0924 F900
G01 Y53.2374 F900
G03 X87.5255 Y55.3495 I-3.0027 J0.0192 F900
G03 X89.6176 Y54.5000 I2.0924 J2.1521 F900
G01 X94.5124 F900
G03 X96.6245 Y55.3495 I0.0192 J3.0027 F900
G03 X95.7750 Y53.2574 I2.1521 J-2.0924 F900
G01 Y53.2000 F900
G01 X95.1750 F900
G00 Z5.0000 F180
G00 Y48.4000 F1500
G00 Z-9.5000 F180
G01 Z-12.0000 F300
G01 X88.9750 F900
G01 Y50.8000 F900
G01 X95.1750 F900
G01 Y53.2000 F900
G01 X88.9750 F900
G00 Z5.0000 F180
G00 Z-9.5000 F180
G01 Z-12.0000 F300
G01 X88.3750 F900
G01 Y53.2374 F900
G03 X87.5255 Y55.3495 I-3.0027 J0.0192 F900
G03 X89.6176 Y54.5000 I2.0924 J2.1521 F900
G01 X94.5124 F900
G03 X96.6245 Y55.3495 I0.0192 J3.0027 F900
G03 X95.7750 Y53.2574 I2.1521 J-2.0924 F900
G01 Y48.3626 F900
G01 X95.7803 Y48.1649 F900
G03 X96.6245 Y46.2505 I2.9973 J0.1784 F900
G03 X94.5324 Y47.1000 I-2.0924 J-2.1521 F900
G01 X89.6376 F900
G03 X87.5255 Y46.2505 I-0.0192 J-3.0027 F900
G03 X88.3750 Y48.3426 I-2.1521 J2.0924 F900
G01 Y53.2000 F900
G01 X88.9750 F900
G00 Z5.0000 F180
G00 Y48.4000 F1500
G00 Z-11.5000 F180
G01 Z-14.0000 F300
G01 X95.1750 F900
G01 Y50.8000 F900
G01 X88.9750 F900
G01 Y53.2000 F900
G01 X95.1750 F900
G00 Z5.0000 F180
G00 Z-11.5000 F180
G01 Z-14.0000 F300
G01 X95.7750 F900
G01 Y48.3626 F900
G01 X95.7803 Y48.1649 F900
G03 X96.6245 Y46.2505 I2.9973 J0.1784 F900
G03 X94.5324 Y47.1000 I-2.0924 J-2.1521 F900
G01 X89.6376 F900
G03 X87.5255 Y46.2505 I-0.0192 J-3.0027 F900
G03 X88.3750 Y48.3426 I-2.1521 J2.0924 F900
G01 Y53.2374 F900
G03 X87.5255 Y55.3495 I-3.0027 J0.0192 F900
G03 X89.6176 Y54.5000 I2.0924 J2.1521 F900
G01 X94.5124 F900
G03 X96.6245 Y55.3495 I0.0192 J3.0027 F900
G03 X95.7750 Y53.2574 I2.1521 J-2.0924 F900
G01 Y53.2000 F900
G01 X95.1750 F900
G00 Z5.0000 F180
G00 Y48.4000 F1500
G00 Z-13.5000 F180
G01 Z-16.0000 F300
G01 X88.9750 F900
G01 Y50.8000 F900
G01 X95.1750 F900
G01 Y53.2000 F900
G01 X88.9750 F900
G00 Z5.0000 F180
G00 Z-13.5000 F180
G01 Z-16.0000 F300
G01 X88.3750 F900
G01 Y53.2374 F900
G03 X87.5255 Y55.3495 I-3.0027 J0.0192 F900
G03 X89.6176 Y54.5000 I2.0924 J2.1521 F900
G01 X94.5124 F900
G03 X96.6245 Y55.3495 I0.0192 J3.0027 F900
G03 X95.7750 Y53.2574 I2.1521 J-2.0924 F900
G01 Y48.3626 F900
G01 X95.7803 Y48.1649 F900
G03 X96.6245 Y46.2505 I2.9973 J0.1784 F900
G03 X94.5324 Y47.1000 I-2.0924 J-2.1521 F900
G01 X89.6376 F900
G03 X87.5255 Y46.2505 I-0.0192 J-3.0027 F900
G03 X88.3750 Y48.3426 I-2.1521 J2.0924 F900
G01 Y53.2000 F900
G01 X88.9750 F900
G00 Z5.0000 F180


;No. 7: Part 16
G00 X88.9750 Y80.1500 Z5.0000 F1500
G00 Z0.5000 F180
G01 Z-2.0000 F300
G01 X95.1750 F900
G01 Y82.5500 F900
G01 X88.9750 F900
G01 Y84.9500 F900
G01 X95.1750 F900
G00 Z5.0000 F180
G00 Z0.5000 F180
G01 Z-2.0000 F300
G01 X95.7750 F900
G01 Y80.1126 F900
G01 X95.7803 Y79.9149 F900
G03 X96.6245 Y78.0005 I2.9973 J0.1784 F900
G03 X94.5324 Y78.8500 I-2.0924 J-2.1521 F900
G01 X89.6376 F900
G03 X87.5255 Y78.0005 I-0.0192 J-3.0027 F900
G03 X88.3750 Y80.0926 I-2.1521 J2.0924 F900
G01 Y84.9874 F900
G03 X87.5255 Y87.0995 I-3.0027 J0.0192 F900
G03 X89.6176 Y86.2500 I2.0924 J2.1521 F900
G01 X94.5124 F900
G03 X96.6245 Y87.0995 I0.0192 J3.0027 F900
G03 X95.7750 Y85.0074 I2.1521 J-2.0924 F900
G01 Y84.9500 F900
G01 X95.1750 F900
G00 Z5.0000 F180
G00 Y80.1500 F1500
G00 Z-1.5000 F180
G01 Z-4.0000 F300
G01 X88.9750 F900
G01 Y82.5500 F900
G01 X95.1750 F900
G01 Y84.9500 F900
G01 X88.9750 F900
G00 Z5.0000 F180
G00 Z-1.5000 F180
G01 Z-4.0000 F300
G01 X88.3750 F900
G01 Y84.9874 F900
G03 X87.5255 Y87.0995 I-3.0027 J0.0192 F900
G03 X89.6176 Y86.2500 I2.0924 J2.1521 F900
G01 X94.5124 F900
G03 X96.6245 Y87.0995 I0.0192 J3.0027 F900
G03 X95.7750 Y85.0074 I2.1521 J-2.0924 F900
G01 Y80.1126 F900
G01 X95.7803 Y79.9149 F900
G03 X96.6245 Y78.0005 I2.9973 J0.1784 F900
G03 X94.5324 Y78.8500 I-2.0924 J-2.1521 F900
G01 X89.6376 F900
G03 X87.5255 Y78.0005 I-0.0192 J-3.0027 F900
G03 X88.3750 Y80.0926 I-2.1521 J2.0924 F900
G01 Y84.9500 F900
G01 X88.9750 F900
G00 Z5.0000 F180
G00 Y80.1500 F1500
G00 Z-3.5000 F180
G01 Z-6.0000 F300
G01 X95.1750 F900
G01 Y82.5500 F900
G01 X88.9750 F900
G01 Y84.9500 F900
G01 X95.1750 F900
G00 Z5.0000 F180
G00 Z-3.5000 F180
G01 Z-6.0000 F300
G01 X95.7750 F900
G01 Y80.1126 F900
G01 X95.7803 Y79.9149 F900
G03 X96.6245 Y78.0005 I2.9973 J0.1784 F900
G03 X94.5324 Y78.8500 I-2.0924 J-2.1521 F900
G01 X89.6376 F900
G03 X87.5255 Y78.0005 I-0.0192 J-3.0027 F900
G03 X88.3750 Y80.0926 I-2.1521 J2.0924 F900
G01 Y84.9874 F900
G03 X87.5255 Y87.0995 I-3.0027 J0.0192 F900
G03 X89.6176 Y86.2500 I2.0924 J2.1521 F900
G01 X94.5124 F900
G03 X96.6245 Y87.0995 I0.0192 J3.0027 F900
G03 X95.7750 Y85.0074 I2.1521 J-2.0924 F900
G01 Y84.9500 F900
G01 X95.1750 F900
G00 Z5.0000 F180
G00 Y80.1500 F1500
G00 Z-5.5000 F180
G01 Z-8.0000 F300
G01 X88.9750 F900
G01 Y82.5500 F900
G01 X95.1750 F900
G01 Y84.9500 F900
G01 X88.9750 F900
G00 Z5.0000 F180
G00 Z-5.5000 F180
G01 Z-8.0000 F300
G01 X88.3750 F900
G01 Y84.9874 F900
G03 X87.5255 Y87.0995 I-3.0027 J0.0192 F900
G03 X89.6176 Y86.2500 I2.0924 J2.1521 F900
G01 X94.5124 F900
G03 X96.6245 Y87.0995 I0.0192 J3.0027 F900
G03 X95.7750 Y85.0074 I2.1521 J-2.0924 F900
G01 Y80.1126 F900
G01 X95.7803 Y79.9149 F900
G03 X96.6245 Y78.0005 I2.9973 J0.1784 F900
G03 X94.5324 Y78.8500 I-2.0924 J-2.1521 F900
G01 X89.6376 F900
G03 X87.5255 Y78.0005 I-0.0192 J-3.0027 F900
G03 X88.3750 Y80.0926 I-2.1521 J2.0924 F900
G01 Y84.9500 F900
G01 X88.9750 F900
G00 Z5.0000 F180
G00 Y80.1500 F1500
G00 Z-7.5000 F180
G01 Z-10.0000 F300
G01 X95.1750 F900
G01 Y82.5500 F900
G01 X88.9750 F900
G01 Y84.9500 F900
G01 X95.1750 F900
G00 Z5.0000 F180
G00 Z-7.5000 F180
G01 Z-10.0000 F300
G01 X95.7750 F900
G01 Y80.1126 F900
G01 X95.7803 Y79.9149 F900
G03 X96.6245 Y78.0005 I2.9973 J0.1784 F900
G03 X94.5324 Y78.8500 I-2.0924 J-2.1521 F900
G01 X89.6376 F900
G03 X87.5255 Y78.0005 I-0.0192 J-3.0027 F900
G03 X88.3750 Y80.0926 I-2.1521 J2.0924 F900
G01 Y84.9874 F900
G03 X87.5255 Y87.0995 I-3.0027 J0.0192 F900
G03 X89.6176 Y86.2500 I2.0924 J2.1521 F900
G01 X94.5124 F900
G03 X96.6245 Y87.0995 I0.0192 J3.0027 F900
G03 X95.7750 Y85.0074 I2.1521 J-2.0924 F900
G01 Y84.9500 F900
G01 X95.1750 F900
G00 Z5.0000 F180
G00 Y80.1500 F1500
G00 Z-9.5000 F180
G01 Z-12.0000 F300
G01 X88.9750 F900
G01 Y82.5500 F900
G01 X95.1750 F900
G01 Y84.9500 F900
G01 X88.9750 F900
G00 Z5.0000 F180
G00 Z-9.5000 F180
G01 Z-12.0000 F300
G01 X88.3750 F900
G01 Y84.9874 F900
G03 X87.5255 Y87.0995 I-3.0027 J0.0192 F900
G03 X89.6176 Y86.2500 I2.0924 J2.1521 F900
G01 X94.5124 F900
G03 X96.6245 Y87.0995 I0.0192 J3.0027 F900
G03 X95.7750 Y85.0074 I2.1521 J-2.0924 F900
G01 Y80.1126 F900
G01 X95.7803 Y79.9149 F900
G03 X96.6245 Y78.0005 I2.9973 J0.1784 F900
G03 X94.5324 Y78.8500 I-2.0924 J-2.1521 F900
G01 X89.6376 F900
G03 X87.5255 Y78.0005 I-0.0192 J-3.0027 F900
G03 X88.3750 Y80.0926 I-2.1521 J2.0924 F900
G01 Y84.9500 F900
G01 X88.9750 F900
G00 Z5.0000 F180
G00 Y80.1500 F1500
G00 Z-11.5000 F180
G01 Z-14.0000 F300
G01 X95.1750 F900
G01 Y82.5500 F900
G01 X88.9750 F900
G01 Y84.9500 F900
G01 X95.1750 F900
G00 Z5.0000 F180
G00 Z-11.5000 F180
G01 Z-14.0000 F300
G01 X95.7750 F900
G01 Y80.1126 F900
G01 X95.7803 Y79.9149 F900
G03 X96.6245 Y78.0005 I2.9973 J0.1784 F900
G03 X94.5324 Y78.8500 I-2.0924 J-2.1521 F900
G01 X89.6376 F900
G03 X87.5255 Y78.0005 I-0.0192 J-3.0027 F900
G03 X88.3750 Y80.0926 I-2.1521 J2.0924 F900
G01 Y84.9874 F900
G03 X87.5255 Y87.0995 I-3.0027 J0.0192 F900
G03 X89.6176 Y86.2500 I2.0924 J2.1521 F900
G01 X94.5124 F900
G03 X96.6245 Y87.0995 I0.0192 J3.0027 F900
G03 X95.7750 Y85.0074 I2.1521 J-2.0924 F900
G01 Y84.9500 F900
G01 X95.1750 F900
G00 Z5.0000 F180
G00 Y80.1500 F1500
G00 Z-13.5000 F180
G01 Z-16.0000 F300
G01 X88.9750 F900
G01 Y82.5500 F900
G01 X95.1750 F900
G01 Y84.9500 F900
G01 X88.9750 F900
G00 Z5.0000 F180
G00 Z-13.5000 F180
G01 Z-16.0000 F300
G01 X88.3750 F900
G01 Y84.9874 F900
G03 X87.5255 Y87.0995 I-3.0027 J0.0192 F900
G03 X89.6176 Y86.2500 I2.0924 J2.1521 F900
G01 X94.5124 F900
G03 X96.6245 Y87.0995 I0.0192 J3.0027 F900
G03 X95.7750 Y85.0074 I2.1521 J-2.0924 F900
G01 Y80.1126 F900
G01 X95.7803 Y79.9149 F900
G03 X96.6245 Y78.0005 I2.9973 J0.1784 F900
G03 X94.5324 Y78.8500 I-2.0924 J-2.1521 F900
G01 X89.6376 F900
G03 X87.5255 Y78.0005 I-0.0192 J-3.0027 F900
G03 X88.3750 Y80.0926 I-2.1521 J2.0924 F900
G01 Y84.9500 F900
G01 X88.9750 F900
G00 Z5.0000 F180


;No. 8: Part 13
G00 X88.2802 Y110.7000 Z5.0000 F1500
G00 Z0.5000 F180
G01 Z-2.0000 F300
G01 X95.9065 F900
G01 X95.8750 Y113.1000 F900
G01 X88.2750 F900
G01 Y115.5000 F900
G01 X95.8750 F900
G01 X95.8698 Y117.9000 F900
G01 X88.2435 F900
G00 Z5.0000 F180
G00 Z0.5000 F180
G01 Z-2.0000 F300
G01 X87.6478 Y117.8349 F900
G01 X87.6372 Y117.9315 F900
G03 X86.8266 Y119.5485 I-2.9711 J-0.4778 F900
G03 X88.9176 Y118.7000 I2.0913 J2.1531 F900
G01 X95.2124 F900
G03 X97.3236 Y119.5482 I0.0186 J3.0053 F900
G03 X96.4750 Y117.4570 I2.1530 J-2.0915 F900
G01 Y111.1630 F900
G01 X96.4802 Y110.9666 F900
G03 X97.3234 Y109.0515 I3.0002 J0.1778 F900
G03 X95.2324 Y109.9000 I-2.0913 J-2.1531 F900
G01 X88.9376 F900
G03 X86.8264 Y109.0518 I-0.0186 J-3.0053 F900
G03 X87.6750 Y111.1430 I-2.1530 J2.0915 F900
G01 Y117.4370 F900
G01 X87.6698 Y117.6334 F900
G01 X87.6478 Y117.8349 F900
G01 X88.2435 Y117.9000 F900
G00 Z5.0000 F180
G00 X88.2802 Y110.7000 F1500
G00 Z-1.5000 F180
G01 Z-4.0000 F300
G01 X95.9065 F900
G01 X95.8750 Y113.1000 F900
G01 X88.2750 F900
G01 Y115.5000 F900
G01 X95.8750 F900
G01 X95.8698 Y117.9000 F900
G01 X88.2435 F900
G00 Z5.0000 F180
G00 Z-1.5000 F180
G01 Z-4.0000 F300
G01 X87.6478 Y117.8349 F900
G01 X87.6372 Y117.9315 F900
G03 X86.8266 Y119.5485 I-2.9711 J-0.4778 F900
G03 X88.9176 Y118.7000 I2.0913 J2.1531 F900
G01 X95.2124 F900
G03 X97.3236 Y119.5482 I0.0186 J3.0053 F900
G03 X96.4750 Y117.4570 I2.1530 J-2.0915 F900
G01 Y111.1630 F900
G01 X96.4802 Y110.9666 F900
G03 X97.3234 Y109.0515 I3.0002 J0.1778 F900
G03 X95.2324 Y109.9000 I-2.0913 J-2.1531 F900
G01 X88.9376 F900
G03 X86.8264 Y109.0518 I-0.0186 J-3.0053 F900
G03 X87.6750 Y111.1430 I-2.1530 J2.0915 F900
G01 Y117.4370 F900
G01 X87.6698 Y117.6334 F900
G01 X87.6478 Y117.8349 F900
G01 X88.2435 Y117.9000 F900
G00 Z5.0000 F180
G00 X88.2802 Y110.7000 F1500
G00 Z-3.5000 F180
G01 Z-6.0000 F300
G01 X95.9065 F900
G01 X95.8750 Y113.1000 F900
G01 X88.2750 F900
G01 Y115.5000 F900
G01 X95.8750 F900
G01 X95.8698 Y117.9000 F900
G01 X88.2435 F900
G00 Z5.0000 F180
G00 Z-3.5000 F180
G01 Z-6.0000 F300
G01 X87.6478 Y117.8349 F900
G01 X87.6372 Y117.9315 F900
G03 X86.8266 Y119.5485 I-2.9711 J-0.4778 F900
G03 X88.9176 Y118.7000 I2.0913 J2.1531 F900
G01 X95.2124 F900
G03 X97.3236 Y119.5482 I0.0186 J3.0053 F900
G03 X96.4750 Y117.4570 I2.1530 J-2.0915 F900
G01 Y111.1630 F900
G01 X96.4802 Y110.9666 F900
G03 X97.3234 Y109.0515 I3.0002 J0.1778 F900
G03 X95.2324 Y109.9000 I-2.0913 J-2.1531 F900
G01 X88.9376 F900
G03 X86.8264 Y109.0518 I-0.0186 J-3.0053 F900
G03 X87.6750 Y111.1430 I-2.1530 J2.0915 F900
G01 Y117.4370 F900
G01 X87.6698 Y117.6334 F900
G01 X87.6478 Y117.8349 F900
G01 X88.2435 Y117.9000 F900
G00 Z5.0000 F180
G00 X88.2802 Y110.7000 F1500
G00 Z-5.5000 F180
G01 Z-8.0000 F300
G01 X95.9065 F900
G01 X95.8750 Y113.1000 F900
G01 X88.2750 F900
G01 Y115.5000 F900
G01 X95.8750 F900
G01 X95.8698 Y117.9000 F900
G01 X88.2435 F900
G00 Z5.0000 F180
G00 Z-5.5000 F180
G01 Z-8.0000 F300
G01 X87.6478 Y117.8349 F900
G01 X87.6372 Y117.9315 F900
G03 X86.8266 Y119.5485 I-2.9711 J-0.4778 F900
G03 X88.9176 Y118.7000 I2.0913 J2.1531 F900
G01 X95.2124 F900
G03 X97.3236 Y119.5482 I0.0186 J3.0053 F900
G03 X96.4750 Y117.4570 I2.1530 J-2.0915 F900
G01 Y111.1630 F900
G01 X96.4802 Y110.9666 F900
G03 X97.3234 Y109.0515 I3.0002 J0.1778 F900
G03 X95.2324 Y109.9000 I-2.0913 J-2.1531 F900
G01 X88.9376 F900
G03 X86.8264 Y109.0518 I-0.0186 J-3.0053 F900
G03 X87.6750 Y111.1430 I-2.1530 J2.0915 F900
G01 Y117.4370 F900
G01 X87.6698 Y117.6334 F900
G01 X87.6478 Y117.8349 F900
G01 X88.2435 Y117.9000 F900
G00 Z5.0000 F180
G00 X88.2802 Y110.7000 F1500
G00 Z-7.5000 F180
G01 Z-10.0000 F300
G01 X95.9065 F900
G01 X95.8750 Y113.1000 F900
G01 X88.2750 F900
G01 Y115.5000 F900
G01 X95.8750 F900
G01 X95.8698 Y117.9000 F900
G01 X88.2435 F900
G00 Z5.0000 F180
G00 Z-7.5000 F180
G01 Z-10.0000 F300
G01 X87.6478 Y117.8349 F900
G01 X87.6372 Y117.9315 F900
G03 X86.8266 Y119.5485 I-2.9711 J-0.4778 F900
G03 X88.9176 Y118.7000 I2.0913 J2.1531 F900
G01 X95.2124 F900
G03 X97.3236 Y119.5482 I0.0186 J3.0053 F900
G03 X96.4750 Y117.4570 I2.1530 J-2.0915 F900
G01 Y111.1630 F900
G01 X96.4802 Y110.9666 F900
G03 X97.3234 Y109.0515 I3.0002 J0.1778 F900
G03 X95.2324 Y109.9000 I-2.0913 J-2.1531 F900
G01 X88.9376 F900
G03 X86.8264 Y109.0518 I-0.0186 J-3.0053 F900
G03 X87.6750 Y111.1430 I-2.1530 J2.0915 F900
G01 Y117.4370 F900
G01 X87.6698 Y117.6334 F900
G01 X87.6478 Y117.8349 F900
G01 X88.2435 Y117.9000 F900
G00 Z5.0000 F180
G00 X88.2802 Y110.7000 F1500
G00 Z-9.5000 F180
G01 Z-12.0000 F300
G01 X95.9065 F900
G01 X95.8750 Y113.1000 F900
G01 X88.2750 F900
G01 Y115.5000 F900
G01 X95.8750 F900
G01 X95.8698 Y117.9000 F900
G01 X88.2435 F900
G00 Z5.0000 F180
G00 Z-9.5000 F180
G01 Z-12.0000 F300
G01 X87.6478 Y117.8349 F900
G01 X87.6372 Y117.9315 F900
G03 X86.8266 Y119.5485 I-2.9711 J-0.4778 F900
G03 X88.9176 Y118.7000 I2.0913 J2.1531 F900
G01 X95.2124 F900
G03 X97.3236 Y119.5482 I0.0186 J3.0053 F900
G03 X96.4750 Y117.4570 I2.1530 J-2.0915 F900
G01 Y111.1630 F900
G01 X96.4802 Y110.9666 F900
G03 X97.3234 Y109.0515 I3.0002 J0.1778 F900
G03 X95.2324 Y109.9000 I-2.0913 J-2.1531 F900
G01 X88.9376 F900
G03 X86.8264 Y109.0518 I-0.0186 J-3.0053 F900
G03 X87.6750 Y111.1430 I-2.1530 J2.0915 F900
G01 Y117.4370 F900
G01 X87.6698 Y117.6334 F900
G01 X87.6478 Y117.8349 F900
G01 X88.2435 Y117.9000 F900
G00 Z5.0000 F180
G00 X88.2802 Y110.7000 F1500
G00 Z-11.5000 F180
G01 Z-14.0000 F300
G01 X95.9065 F900
G01 X95.8750 Y113.1000 F900
G01 X88.2750 F900
G01 Y115.5000 F900
G01 X95.8750 F900
G01 X95.8698 Y117.9000 F900
G01 X88.2435 F900
G00 Z5.0000 F180
G00 Z-11.5000 F180
G01 Z-14.0000 F300
G01 X87.6478 Y117.8349 F900
G01 X87.6372 Y117.9315 F900
G03 X86.8266 Y119.5485 I-2.9711 J-0.4778 F900
G03 X88.9176 Y118.7000 I2.0913 J2.1531 F900
G01 X95.2124 F900
G03 X97.3236 Y119.5482 I0.0186 J3.0053 F900
G03 X96.4750 Y117.4570 I2.1530 J-2.0915 F900
G01 Y111.1630 F900
G01 X96.4802 Y110.9666 F900
G03 X97.3234 Y109.0515 I3.0002 J0.1778 F900
G03 X95.2324 Y109.9000 I-2.0913 J-2.1531 F900
G01 X88.9376 F900
G03 X86.8264 Y109.0518 I-0.0186 J-3.0053 F900
G03 X87.6750 Y111.1430 I-2.1530 J2.0915 F900
G01 Y117.4370 F900
G01 X87.6698 Y117.6334 F900
G01 X87.6478 Y117.8349 F900
G01 X88.2435 Y117.9000 F900
G00 Z5.0000 F180
G00 X88.2802 Y110.7000 F1500
G00 Z-13.5000 F180
G01 Z-16.0000 F300
G01 X95.9065 F900
G01 X95.8750 Y113.1000 F900
G01 X88.2750 F900
G01 Y115.5000 F900
G01 X95.8750 F900
G01 X95.8698 Y117.9000 F900
G01 X88.2435 F900
G00 Z5.0000 F180
G00 Z-13.5000 F180
G01 Z-16.0000 F300
G01 X87.6478 Y117.8349 F900
G01 X87.6372 Y117.9315 F900
G03 X86.8266 Y119.5485 I-2.9711 J-0.4778 F900
G03 X88.9176 Y118.7000 I2.0913 J2.1531 F900
G01 X95.2124 F900
G03 X97.3236 Y119.5482 I0.0186 J3.0053 F900
G03 X96.4750 Y117.4570 I2.1530 J-2.0915 F900
G01 Y111.1630 F900
G01 X96.4802 Y110.9666 F900
G03 X97.3234 Y109.0515 I3.0002 J0.1778 F900
G03 X95.2324 Y109.9000 I-2.0913 J-2.1531 F900
G01 X88.9376 F900
G03 X86.8264 Y109.0518 I-0.0186 J-3.0053 F900
G03 X87.6750 Y111.1430 I-2.1530 J2.0915 F900
G01 Y117.4370 F900
G01 X87.6698 Y117.6334 F900
G01 X87.6478 Y117.8349 F900
G01 X88.2435 Y117.9000 F900
G00 Z5.0000 F180


;No. 9: Part 12
G00 X83.9250 Y140.0500 Z5.0000 F1500
G00 Z0.5000 F180
G01 Z-2.0000 F300
G01 X100.2250 F900
G01 Y142.4500 F900
G01 X83.9250 F900
G01 Y144.8500 F900
G01 X100.2250 F900
G01 Y147.2500 F900
G01 X83.9250 F900
G01 Y149.6500 F900
G01 X100.2250 F900
G01 Y152.0500 F900
G01 X83.9250 F900
G00 Z5.0000 F180
G00 Z0.5000 F180
G01 Z-2.0000 F300
G01 X83.3250 F900
G01 Y153.5370 F900
G03 X82.4766 Y155.6485 I-3.0053 J0.0186 F900
G03 X84.5676 Y154.8000 I2.0913 J2.1531 F900
G01 X99.5624 F900
G03 X101.6726 Y155.6471 I0.0185 J3.0057 F900
G03 X100.8250 Y153.5570 I2.1540 J-2.0904 F900
G01 Y138.5630 F900
G01 X100.8301 Y138.3680 F900
G03 X101.6734 Y136.4515 I3.0003 J0.1765 F900
G03 X99.5824 Y137.3000 I-2.0913 J-2.1531 F900
G01 X84.5876 F900
G03 X82.4764 Y136.4518 I-0.0186 J-3.0053 F900
G03 X83.3250 Y138.5430 I-2.1530 J2.0915 F900
G01 Y152.0500 F900
G01 X83.9250 F900
G00 Z5.0000 F180
G00 Y140.0500 F1500
G00 Z-1.5000 F180
G01 Z-4.0000 F300
G01 X100.2250 F900
G01 Y142.4500 F900
G01 X83.9250 F900
G01 Y144.8500 F900
G01 X100.2250 F900
G01 Y147.2500 F900
G01 X83.9250 F900
G01 Y149.6500 F900
G01 X100.2250 F900
G01 Y152.0500 F900
G01 X83.9250 F900
G00 Z5.0000 F180
G00 Z-1.5000 F180
G01 Z-4.0000 F300
G01 X83.3250 F900
G01 Y153.5370 F900
G03 X82.4766 Y155.6485 I-3.0053 J0.0186 F900
G03 X84.5676 Y154.8000 I2.0913 J2.1531 F900
G01 X99.5624 F900
G03 X101.6726 Y155.6471 I0.0185 J3.0057 F900
G03 X100.8250 Y153.5570 I2.1540 J-2.0904 F900
G01 Y138.5630 F900
G01 X100.8301 Y138.3680 F900
G03 X101.6734 Y136.4515 I3.0003 J0.1765 F900
G03 X99.5824 Y137.3000 I-2.0913 J-2.1531 F900
G01 X84.5876 F900
G03 X82.4764 Y136.4518 I-0.0186 J-3.0053 F900
G03 X83.3250 Y138.5430 I-2.1530 J2.0915 F900
G01 Y152.0500 F900
G01 X83.9250 F900
G00 Z5.0000 F180
G00 Y140.0500 F1500
G00 Z-3.5000 F180
G01 Z-6.0000 F300
G01 X100.2250 F900
G01 Y142.4500 F900
G01 X83.9250 F900
G01 Y144.8500 F900
G01 X100.2250 F900
G01 Y147.2500 F900
G01 X83.9250 F900
G01 Y149.6500 F900
G01 X100.2250 F900
G01 Y152.0500 F900
G01 X83.9250 F900
G00 Z5.0000 F180
G00 Z-3.5000 F180
G01 Z-6.0000 F300
G01 X83.3250 F900
G01 Y153.5370 F900
G03 X82.4766 Y155.6485 I-3.0053 J0.0186 F900
G03 X84.5676 Y154.8000 I2.0913 J2.1531 F900
G01 X99.5624 F900
G03 X101.6726 Y155.6471 I0.0185 J3.0057 F900
G03 X100.8250 Y153.5570 I2.1540 J-2.0904 F900
G01 Y138.5630 F900
G01 X100.8301 Y138.3680 F900
G03 X101.6734 Y136.4515 I3.0003 J0.1765 F900
G03 X99.5824 Y137.3000 I-2.0913 J-2.1531 F900
G01 X84.5876 F900
G03 X82.4764 Y136.4518 I-0.0186 J-3.0053 F900
G03 X83.3250 Y138.5430 I-2.1530 J2.0915 F900
G01 Y152.0500 F900
G01 X83.9250 F900
G00 Z5.0000 F180
G00 Y140.0500 F1500
G00 Z-5.5000 F180
G01 Z-8.0000 F300
G01 X100.2250 F900
G01 Y142.4500 F900
G01 X83.9250 F900
G01 Y144.8500 F900
G01 X100.2250 F900
G01 Y147.2500 F900
G01 X83.9250 F900
G01 Y149.6500 F900
G01 X100.2250 F900
G01 Y152.0500 F900
G01 X83.9250 F900
G00 Z5.0000 F180
G00 Z-5.5000 F180
G01 Z-8.0000 F300
G01 X83.3250 F900
G01 Y153.5370 F900
G03 X82.4766 Y155.6485 I-3.0053 J0.0186 F900
G03 X84.5676 Y154.8000 I2.0913 J2.1531 F900
G01 X99.5624 F900
G03 X101.6726 Y155.6471 I0.0185 J3.0057 F900
G03 X100.8250 Y153.5570 I2.1540 J-2.0904 F900
G01 Y138.5630 F900
G01 X100.8301 Y138.3680 F900
G03 X101.6734 Y136.4515 I3.0003 J0.1765 F900
G03 X99.5824 Y137.3000 I-2.0913 J-2.1531 F900
G01 X84.5876 F900
G03 X82.4764 Y136.4518 I-0.0186 J-3.0053 F900
G03 X83.3250 Y138.5430 I-2.1530 J2.0915 F900
G01 Y152.0500 F900
G01 X83.9250 F900
G00 Z5.0000 F180
G00 Y140.0500 F1500
G00 Z-7.5000 F180
G01 Z-10.0000 F300
G01 X100.2250 F900
G01 Y142.4500 F900
G01 X83.9250 F900
G01 Y144.8500 F900
G01 X100.2250 F900
G01 Y147.2500 F900
G01 X83.9250 F900
G01 Y149.6500 F900
G01 X100.2250 F900
G01 Y152.0500 F900
G01 X83.9250 F900
G00 Z5.0000 F180
G00 Z-7.5000 F180
G01 Z-10.0000 F300
G01 X83.3250 F900
G01 Y153.5370 F900
G03 X82.4766 Y155.6485 I-3.0053 J0.0186 F900
G03 X84.5676 Y154.8000 I2.0913 J2.1531 F900
G01 X99.5624 F900
G03 X101.6726 Y155.6471 I0.0185 J3.0057 F900
G03 X100.8250 Y153.5570 I2.1540 J-2.0904 F900
G01 Y138.5630 F900
G01 X100.8301 Y138.3680 F900
G03 X101.6734 Y136.4515 I3.0003 J0.1765 F900
G03 X99.5824 Y137.3000 I-2.0913 J-2.1531 F900
G01 X84.5876 F900
G03 X82.4764 Y136.4518 I-0.0186 J-3.0053 F900
G03 X83.3250 Y138.5430 I-2.1530 J2.0915 F900
G01 Y152.0500 F900
G01 X83.9250 F900
G00 Z5.0000 F180
G00 Y140.0500 F1500
G00 Z-9.5000 F180
G01 Z-12.0000 F300
G01 X100.2250 F900
G01 Y142.4500 F900
G01 X83.9250 F900
G01 Y144.8500 F900
G01 X100.2250 F900
G01 Y147.2500 F900
G01 X83.9250 F900
G01 Y149.6500 F900
G01 X100.2250 F900
G01 Y152.0500 F900
G01 X83.9250 F900
G00 Z5.0000 F180
G00 Z-9.5000 F180
G01 Z-12.0000 F300
G01 X83.3250 F900
G01 Y153.5370 F900
G03 X82.4766 Y155.6485 I-3.0053 J0.0186 F900
G03 X84.5676 Y154.8000 I2.0913 J2.1531 F900
G01 X99.5624 F900
G03 X101.6726 Y155.6471 I0.0185 J3.0057 F900
G03 X100.8250 Y153.5570 I2.1540 J-2.0904 F900
G01 Y138.5630 F900
G01 X100.8301 Y138.3680 F900
G03 X101.6734 Y136.4515 I3.0003 J0.1765 F900
G03 X99.5824 Y137.3000 I-2.0913 J-2.1531 F900
G01 X84.5876 F900
G03 X82.4764 Y136.4518 I-0.0186 J-3.0053 F900
G03 X83.3250 Y138.5430 I-2.1530 J2.0915 F900
G01 Y152.0500 F900
G01 X83.9250 F900
G00 Z5.0000 F180
G00 Y140.0500 F1500
G00 Z-11.5000 F180
G01 Z-14.0000 F300
G01 X100.2250 F900
G01 Y142.4500 F900
G01 X83.9250 F900
G01 Y144.8500 F900
G01 X100.2250 F900
G01 Y147.2500 F900
G01 X83.9250 F900
G01 Y149.6500 F900
G01 X100.2250 F900
G01 Y152.0500 F900
G01 X83.9250 F900
G00 Z5.0000 F180
G00 Z-11.5000 F180
G01 Z-14.0000 F300
G01 X83.3250 F900
G01 Y153.5370 F900
G03 X82.4766 Y155.6485 I-3.0053 J0.0186 F900
G03 X84.5676 Y154.8000 I2.0913 J2.1531 F900
G01 X99.5624 F900
G03 X101.6726 Y155.6471 I0.0185 J3.0057 F900
G03 X100.8250 Y153.5570 I2.1540 J-2.0904 F900
G01 Y138.5630 F900
G01 X100.8301 Y138.3680 F900
G03 X101.6734 Y136.4515 I3.0003 J0.1765 F900
G03 X99.5824 Y137.3000 I-2.0913 J-2.1531 F900
G01 X84.5876 F900
G03 X82.4764 Y136.4518 I-0.0186 J-3.0053 F900
G03 X83.3250 Y138.5430 I-2.1530 J2.0915 F900
G01 Y152.0500 F900
G01 X83.9250 F900
G00 Z5.0000 F180
G00 Y140.0500 F1500
G00 Z-13.5000 F180
G01 Z-16.0000 F300
G01 X100.2250 F900
G01 Y142.4500 F900
G01 X83.9250 F900
G01 Y144.8500 F900
G01 X100.2250 F900
G01 Y147.2500 F900
G01 X83.9250 F900
G01 Y149.6500 F900
G01 X100.2250 F900
G01 Y152.0500 F900
G01 X83.9250 F900
G00 Z5.0000 F180
G00 Z-13.5000 F180
G01 Z-16.0000 F300
G01 X83.3250 F900
G01 Y153.5370 F900
G03 X82.4766 Y155.6485 I-3.0053 J0.0186 F900
G03 X84.5676 Y154.8000 I2.0913 J2.1531 F900
G01 X99.5624 F900
G03 X101.6726 Y155.6471 I0.0185 J3.0057 F900
G03 X100.8250 Y153.5570 I2.1540 J-2.0904 F900
G01 Y138.5630 F900
G01 X100.8301 Y138.3680 F900
G03 X101.6734 Y136.4515 I3.0003 J0.1765 F900
G03 X99.5824 Y137.3000 I-2.0913 J-2.1531 F900
G01 X84.5876 F900
G03 X82.4764 Y136.4518 I-0.0186 J-3.0053 F900
G03 X83.3250 Y138.5430 I-2.1530 J2.0915 F900
G01 Y152.0500 F900
G01 X83.9250 F900
G00 Z5.0000 F180


;No. 10: Part 7
G00 X68.4750 Y140.0500 Z5.0000 F1500
G00 Z0.5000 F180
G01 Z-2.0000 F300
G01 X52.1750 F900
G01 Y142.4500 F900
G01 X68.4750 F900
G01 Y144.8500 F900
G01 X52.1750 F900
G01 Y147.2500 F900
G01 X68.4750 F900
G01 Y149.6500 F900
G01 X52.1750 F900
G01 Y152.0500 F900
G01 X68.4750 F900
G00 Z5.0000 F180
G00 Z0.5000 F180
G01 Z-2.0000 F300
G01 X69.0750 F900
G01 Y138.5630 F900
G01 X69.0802 Y138.3666 F900
G03 X69.9234 Y136.4515 I3.0002 J0.1778 F900
G03 X67.8324 Y137.3000 I-2.0913 J-2.1531 F900
G01 X52.8376 F900
G03 X50.7264 Y136.4518 I-0.0186 J-3.0053 F900
G03 X51.5750 Y138.5430 I-2.1530 J2.0915 F900
G01 Y153.5370 F900
G03 X50.7266 Y155.6485 I-3.0053 J0.0186 F900
G03 X52.8176 Y154.8000 I2.0913 J2.1531 F900
G01 X67.8124 F900
G03 X69.9236 Y155.6482 I0.0186 J3.0053 F900
G03 X69.0750 Y153.5570 I2.1530 J-2.0915 F900
G01 Y152.0500 F900
G01 X68.4750 F900
G00 Z5.0000 F180
G00 Y140.0500 F1500
G00 Z-1.5000 F180
G01 Z-4.0000 F300
G01 X52.1750 F900
G01 Y142.4500 F900
G01 X68.4750 F900
G01 Y144.8500 F900
G01 X52.1750 F900
G01 Y147.2500 F900
G01 X68.4750 F900
G01 Y149.6500 F900
G01 X52.1750 F900
G01 Y152.0500 F900
G01 X68.4750 F900
G00 Z5.0000 F180
G00 Z-1.5000 F180
G01 Z-4.0000 F300
G01 X69.0750 F900
G01 Y138.5630 F900
G01 X69.0802 Y138.3666 F900
G03 X69.9234 Y136.4515 I3.0002 J0.1778 F900
G03 X67.8324 Y137.3000 I-2.0913 J-2.1531 F900
G01 X52.8376 F900
G03 X50.7264 Y136.4518 I-0.0186 J-3.0053 F900
G03 X51.5750 Y138.5430 I-2.1530 J2.0915 F900
G01 Y153.5370 F900
G03 X50.7266 Y155.6485 I-3.0053 J0.0186 F900
G03 X52.8176 Y154.8000 I2.0913 J2.1531 F900
G01 X67.8124 F900
G03 X69.9236 Y155.6482 I0.0186 J3.0053 F900
G03 X69.0750 Y153.5570 I2.1530 J-2.0915 F900
G01 Y152.0500 F900
G01 X68.4750 F900
G00 Z5.0000 F180
G00 Y140.0500 F1500
G00 Z-3.5000 F180
G01 Z-6.0000 F300
G01 X52.1750 F900
G01 Y142.4500 F900
G01 X68.4750 F900
G01 Y144.8500 F900
G01 X52.1750 F900
G01 Y147.2500 F900
G01 X68.4750 F900
G01 Y149.6500 F900
G01 X52.1750 F900
G01 Y152.0500 F900
G01 X68.4750 F900
G00 Z5.0000 F180
G00 Z-3.5000 F180
G01 Z-6.0000 F300
G01 X69.0750 F900
G01 Y138.5630 F900
G01 X69.0802 Y138.3666 F900
G03 X69.9234 Y136.4515 I3.0002 J0.1778 F900
G03 X67.8324 Y137.3000 I-2.0913 J-2.1531 F900
G01 X52.8376 F900
G03 X50.7264 Y136.4518 I-0.0186 J-3.0053 F900
G03 X51.5750 Y138.5430 I-2.1530 J2.0915 F900
G01 Y153.5370 F900
G03 X50.7266 Y155.6485 I-3.0053 J0.0186 F900
G03 X52.8176 Y154.8000 I2.0913 J2.1531 F900
G01 X67.8124 F900
G03 X69.9236 Y155.6482 I0.0186 J3.0053 F900
G03 X69.0750 Y153.5570 I2.1530 J-2.0915 F900
G01 Y152.0500 F900
G01 X68.4750 F900
G00 Z5.0000 F180
G00 Y140.0500 F1500
G00 Z-5.5000 F180
G01 Z-8.0000 F300
G01 X52.1750 F900
G01 Y142.4500 F900
G01 X68.4750 F900
G01 Y144.8500 F900
G01 X52.1750 F900
G01 Y147.2500 F900
G01 X68.4750 F900
G01 Y149.6500 F900
G01 X52.1750 F900
G01 Y152.0500 F900
G01 X68.4750 F900
G00 Z5.0000 F180
G00 Z-5.5000 F180
G01 Z-8.0000 F300
G01 X69.0750 F900
G01 Y138.5630 F900
G01 X69.0802 Y138.3666 F900
G03 X69.9234 Y136.4515 I3.0002 J0.1778 F900
G03 X67.8324 Y137.3000 I-2.0913 J-2.1531 F900
G01 X52.8376 F900
G03 X50.7264 Y136.4518 I-0.0186 J-3.0053 F900
G03 X51.5750 Y138.5430 I-2.1530 J2.0915 F900
G01 Y153.5370 F900
G03 X50.7266 Y155.6485 I-3.0053 J0.0186 F900
G03 X52.8176 Y154.8000 I2.0913 J2.1531 F900
G01 X67.8124 F900
G03 X69.9236 Y155.6482 I0.0186 J3.0053 F900
G03 X69.0750 Y153.5570 I2.1530 J-2.0915 F900
G01 Y152.0500 F900
G01 X68.4750 F900
G00 Z5.0000 F180
G00 Y140.0500 F1500
G00 Z-7.5000 F180
G01 Z-10.0000 F300
G01 X52.1750 F900
G01 Y142.4500 F900
G01 X68.4750 F900
G01 Y144.8500 F900
G01 X52.1750 F900
G01 Y147.2500 F900
G01 X68.4750 F900
G01 Y149.6500 F900
G01 X52.1750 F900
G01 Y152.0500 F900
G01 X68.4750 F900
G00 Z5.0000 F180
G00 Z-7.5000 F180
G01 Z-10.0000 F300
G01 X69.0750 F900
G01 Y138.5630 F900
G01 X69.0802 Y138.3666 F900
G03 X69.9234 Y136.4515 I3.0002 J0.1778 F900
G03 X67.8324 Y137.3000 I-2.0913 J-2.1531 F900
G01 X52.8376 F900
G03 X50.7264 Y136.4518 I-0.0186 J-3.0053 F900
G03 X51.5750 Y138.5430 I-2.1530 J2.0915 F900
G01 Y153.5370 F900
G03 X50.7266 Y155.6485 I-3.0053 J0.0186 F900
G03 X52.8176 Y154.8000 I2.0913 J2.1531 F900
G01 X67.8124 F900
G03 X69.9236 Y155.6482 I0.0186 J3.0053 F900
G03 X69.0750 Y153.5570 I2.1530 J-2.0915 F900
G01 Y152.0500 F900
G01 X68.4750 F900
G00 Z5.0000 F180
G00 Y140.0500 F1500
G00 Z-9.5000 F180
G01 Z-12.0000 F300
G01 X52.1750 F900
G01 Y142.4500 F900
G01 X68.4750 F900
G01 Y144.8500 F900
G01 X52.1750 F900
G01 Y147.2500 F900
G01 X68.4750 F900
G01 Y149.6500 F900
G01 X52.1750 F900
G01 Y152.0500 F900
G01 X68.4750 F900
G00 Z5.0000 F180
G00 Z-9.5000 F180
G01 Z-12.0000 F300
G01 X69.0750 F900
G01 Y138.5630 F900
G01 X69.0802 Y138.3666 F900
G03 X69.9234 Y136.4515 I3.0002 J0.1778 F900
G03 X67.8324 Y137.3000 I-2.0913 J-2.1531 F900
G01 X52.8376 F900
G03 X50.7264 Y136.4518 I-0.0186 J-3.0053 F900
G03 X51.5750 Y138.5430 I-2.1530 J2.0915 F900
G01 Y153.5370 F900
G03 X50.7266 Y155.6485 I-3.0053 J0.0186 F900
G03 X52.8176 Y154.8000 I2.0913 J2.1531 F900
G01 X67.8124 F900
G03 X69.9236 Y155.6482 I0.0186 J3.0053 F900
G03 X69.0750 Y153.5570 I2.1530 J-2.0915 F900
G01 Y152.0500 F900
G01 X68.4750 F900
G00 Z5.0000 F180
G00 Y140.0500 F1500
G00 Z-11.5000 F180
G01 Z-14.0000 F300
G01 X52.1750 F900
G01 Y142.4500 F900
G01 X68.4750 F900
G01 Y144.8500 F900
G01 X52.1750 F900
G01 Y147.2500 F900
G01 X68.4750 F900
G01 Y149.6500 F900
G01 X52.1750 F900
G01 Y152.0500 F900
G01 X68.4750 F900
G00 Z5.0000 F180
G00 Z-11.5000 F180
G01 Z-14.0000 F300
G01 X69.0750 F900
G01 Y138.5630 F900
G01 X69.0802 Y138.3666 F900
G03 X69.9234 Y136.4515 I3.0002 J0.1778 F900
G03 X67.8324 Y137.3000 I-2.0913 J-2.1531 F900
G01 X52.8376 F900
G03 X50.7264 Y136.4518 I-0.0186 J-3.0053 F900
G03 X51.5750 Y138.5430 I-2.1530 J2.0915 F900
G01 Y153.5370 F900
G03 X50.7266 Y155.6485 I-3.0053 J0.0186 F900
G03 X52.8176 Y154.8000 I2.0913 J2.1531 F900
G01 X67.8124 F900
G03 X69.9236 Y155.6482 I0.0186 J3.0053 F900
G03 X69.0750 Y153.5570 I2.1530 J-2.0915 F900
G01 Y152.0500 F900
G01 X68.4750 F900
G00 Z5.0000 F180
G00 Y140.0500 F1500
G00 Z-13.5000 F180
G01 Z-16.0000 F300
G01 X52.1750 F900
G01 Y142.4500 F900
G01 X68.4750 F900
G01 Y144.8500 F900
G01 X52.1750 F900
G01 Y147.2500 F900
G01 X68.4750 F900
G01 Y149.6500 F900
G01 X52.1750 F900
G01 Y152.0500 F900
G01 X68.4750 F900
G00 Z5.0000 F180
G00 Z-13.5000 F180
G01 Z-16.0000 F300
G01 X69.0750 F900
G01 Y138.5630 F900
G01 X69.0802 Y138.3666 F900
G03 X69.9234 Y136.4515 I3.0002 J0.1778 F900
G03 X67.8324 Y137.3000 I-2.0913 J-2.1531 F900
G01 X52.8376 F900
G03 X50.7264 Y136.4518 I-0.0186 J-3.0053 F900
G03 X51.5750 Y138.5430 I-2.1530 J2.0915 F900
G01 Y153.5370 F900
G03 X50.7266 Y155.6485 I-3.0053 J0.0186 F900
G03 X52.8176 Y154.8000 I2.0913 J2.1531 F900
G01 X67.8124 F900
G03 X69.9236 Y155.6482 I0.0186 J3.0053 F900
G03 X69.0750 Y153.5570 I2.1530 J-2.0915 F900
G01 Y152.0500 F900
G01 X68.4750 F900
G00 Z5.0000 F180


;No. 11: Part 8
G00 X64.1565 Y110.7000 Z5.0000 F1500
G00 Z0.5000 F180
G01 Z-2.0000 F300
G01 X56.5302 F900
G01 X56.5250 Y113.1000 F900
G01 X64.1250 F900
G01 Y115.5000 F900
G01 X56.5250 F900
G01 X56.4935 Y117.9000 F900
G01 X64.1198 F900
G00 Z5.0000 F180
G00 Z0.5000 F180
G01 Z-2.0000 F300
G01 X64.7473 Y117.8052 F900
G01 X64.7400 Y117.7565 F900
G01 X64.7250 Y117.4570 F900
G01 Y111.1630 F900
G01 X64.7302 Y110.9666 F900
G03 X65.5734 Y109.0515 I3.0002 J0.1778 F900
G03 X63.4824 Y109.9000 I-2.0913 J-2.1531 F900
G01 X57.1876 F900
G03 X55.0764 Y109.0518 I-0.0186 J-3.0053 F900
G03 X55.9250 Y111.1430 I-2.1530 J2.0915 F900
G01 Y117.4370 F900
G03 X55.0766 Y119.5485 I-3.0053 J0.0186 F900
G03 X57.1676 Y118.7000 I2.0913 J2.1531 F900
G01 X63.4624 F900
G03 X65.5736 Y119.5482 I0.0186 J3.0053 F900
G03 X64.7473 Y117.8052 I2.1345 J-2.0792 F900
G01 X64.1198 Y117.9000 F900
G00 Z5.0000 F180
G00 X64.1565 Y110.7000 F1500
G00 Z-1.5000 F180
G01 Z-4.0000 F300
G01 X56.5302 F900
G01 X56.5250 Y113.1000 F900
G01 X64.1250 F900
G01 Y115.5000 F900
G01 X56.5250 F900
G01 X56.4935 Y117.9000 F900
G01 X64.1198 F900
G00 Z5.0000 F180
G00 Z-1.5000 F180
G01 Z-4.0000 F300
G01 X64.7473 Y117.8052 F900
G01 X64.7400 Y117.7565 F900
G01 X64.7250 Y117.4570 F900
G01 Y111.1630 F900
G01 X64.7302 Y110.9666 F900
G03 X65.5734 Y109.0515 I3.0002 J0.1778 F900
G03 X63.4824 Y109.9000 I-2.0913 J-2.1531 F900
G01 X57.1876 F900
G03 X55.0764 Y109.0518 I-0.0186 J-3.0053 F900
G03 X55.9250 Y111.1430 I-2.1530 J2.0915 F900
G01 Y117.4370 F900
G03 X55.0766 Y119.5485 I-3.0053 J0.0186 F900
G03 X57.1676 Y118.7000 I2.0913 J2.1531 F900
G01 X63.4624 F900
G03 X65.5736 Y119.5482 I0.0186 J3.0053 F900
G03 X64.7473 Y117.8052 I2.1345 J-2.0792 F900
G01 X64.1198 Y117.9000 F900
G00 Z5.0000 F180
G00 X64.1565 Y110.7000 F1500
G00 Z-3.5000 F180
G01 Z-6.0000 F300
G01 X56.5302 F900
G01 X56.5250 Y113.1000 F900
G01 X64.1250 F900
G01 Y115.5000 F900
G01 X56.5250 F900
G01 X56.4935 Y117.9000 F900
G01 X64.1198 F900
G00 Z5.0000 F180
G00 Z-3.5000 F180
G01 Z-6.0000 F300
G01 X64.7473 Y117.8052 F900
G01 X64.7400 Y117.7565 F900
G01 X64.7250 Y117.4570 F900
G01 Y111.1630 F900
G01 X64.7302 Y110.9666 F900
G03 X65.5734 Y109.0515 I3.0002 J0.1778 F900
G03 X63.4824 Y109.9000 I-2.0913 J-2.1531 F900
G01 X57.1876 F900
G03 X55.0764 Y109.0518 I-0.0186 J-3.0053 F900
G03 X55.9250 Y111.1430 I-2.1530 J2.0915 F900
G01 Y117.4370 F900
G03 X55.0766 Y119.5485 I-3.0053 J0.0186 F900
G03 X57.1676 Y118.7000 I2.0913 J2.1531 F900
G01 X63.4624 F900
G03 X65.5736 Y119.5482 I0.0186 J3.0053 F900
G03 X64.7473 Y117.8052 I2.1345 J-2.0792 F900
G01 X64.1198 Y117.9000 F900
G00 Z5.0000 F180
G00 X64.1565 Y110.7000 F1500
G00 Z-5.5000 F180
G01 Z-8.0000 F300
G01 X56.5302 F900
G01 X56.5250 Y113.1000 F900
G01 X64.1250 F900
G01 Y115.5000 F900
G01 X56.5250 F900
G01 X56.4935 Y117.9000 F900
G01 X64.1198 F900
G00 Z5.0000 F180
G00 Z-5.5000 F180
G01 Z-8.0000 F300
G01 X64.7473 Y117.8052 F900
G01 X64.7400 Y117.7565 F900
G01 X64.7250 Y117.4570 F900
G01 Y111.1630 F900
G01 X64.7302 Y110.9666 F900
G03 X65.5734 Y109.0515 I3.0002 J0.1778 F900
G03 X63.4824 Y109.9000 I-2.0913 J-2.1531 F900
G01 X57.1876 F900
G03 X55.0764 Y109.0518 I-0.0186 J-3.0053 F900
G03 X55.9250 Y111.1430 I-2.1530 J2.0915 F900
G01 Y117.4370 F900
G03 X55.0766 Y119.5485 I-3.0053 J0.0186 F900
G03 X57.1676 Y118.7000 I2.0913 J2.1531 F900
G01 X63.4624 F900
G03 X65.5736 Y119.5482 I0.0186 J3.0053 F900
G03 X64.7473 Y117.8052 I2.1345 J-2.0792 F900
G01 X64.1198 Y117.9000 F900
G00 Z5.0000 F180
G00 X64.1565 Y110.7000 F1500
G00 Z-7.5000 F180
G01 Z-10.0000 F300
G01 X56.5302 F900
G01 X56.5250 Y113.1000 F900
G01 X64.1250 F900
G01 Y115.5000 F900
G01 X56.5250 F900
G01 X56.4935 Y117.9000 F900
G01 X64.1198 F900
G00 Z5.0000 F180
G00 Z-7.5000 F180
G01 Z-10.0000 F300
G01 X64.7473 Y117.8052 F900
G01 X64.7400 Y117.7565 F900
G01 X64.7250 Y117.4570 F900
G01 Y111.1630 F900
G01 X64.7302 Y110.9666 F900
G03 X65.5734 Y109.0515 I3.0002 J0.1778 F900
G03 X63.4824 Y109.9000 I-2.0913 J-2.1531 F900
G01 X57.1876 F900
G03 X55.0764 Y109.0518 I-0.0186 J-3.0053 F900
G03 X55.9250 Y111.1430 I-2.1530 J2.0915 F900
G01 Y117.4370 F900
G03 X55.0766 Y119.5485 I-3.0053 J0.0186 F900
G03 X57.1676 Y118.7000 I2.0913 J2.1531 F900
G01 X63.4624 F900
G03 X65.5736 Y119.5482 I0.0186 J3.0053 F900
G03 X64.7473 Y117.8052 I2.1345 J-2.0792 F900
G01 X64.1198 Y117.9000 F900
G00 Z5.0000 F180
G00 X64.1565 Y110.7000 F1500
G00 Z-9.5000 F180
G01 Z-12.0000 F300
G01 X56.5302 F900
G01 X56.5250 Y113.1000 F900
G01 X64.1250 F900
G01 Y115.5000 F900
G01 X56.5250 F900
G01 X56.4935 Y117.9000 F900
G01 X64.1198 F900
G00 Z5.0000 F180
G00 Z-9.5000 F180
G01 Z-12.0000 F300
G01 X64.7473 Y117.8052 F900
G01 X64.7400 Y117.7565 F900
G01 X64.7250 Y117.4570 F900
G01 Y111.1630 F900
G01 X64.7302 Y110.9666 F900
G03 X65.5734 Y109.0515 I3.0002 J0.1778 F900
G03 X63.4824 Y109.9000 I-2.0913 J-2.1531 F900
G01 X57.1876 F900
G03 X55.0764 Y109.0518 I-0.0186 J-3.0053 F900
G03 X55.9250 Y111.1430 I-2.1530 J2.0915 F900
G01 Y117.4370 F900
G03 X55.0766 Y119.5485 I-3.0053 J0.0186 F900
G03 X57.1676 Y118.7000 I2.0913 J2.1531 F900
G01 X63.4624 F900
G03 X65.5736 Y119.5482 I0.0186 J3.0053 F900
G03 X64.7473 Y117.8052 I2.1345 J-2.0792 F900
G01 X64.1198 Y117.9000 F900
G00 Z5.0000 F180
G00 X64.1565 Y110.7000 F1500
G00 Z-11.5000 F180
G01 Z-14.0000 F300
G01 X56.5302 F900
G01 X56.5250 Y113.1000 F900
G01 X64.1250 F900
G01 Y115.5000 F900
G01 X56.5250 F900
G01 X56.4935 Y117.9000 F900
G01 X64.1198 F900
G00 Z5.0000 F180
G00 Z-11.5000 F180
G01 Z-14.0000 F300
G01 X64.7473 Y117.8052 F900
G01 X64.7400 Y117.7565 F900
G01 X64.7250 Y117.4570 F900
G01 Y111.1630 F900
G01 X64.7302 Y110.9666 F900
G03 X65.5734 Y109.0515 I3.0002 J0.1778 F900
G03 X63.4824 Y109.9000 I-2.0913 J-2.1531 F900
G01 X57.1876 F900
G03 X55.0764 Y109.0518 I-0.0186 J-3.0053 F900
G03 X55.9250 Y111.1430 I-2.1530 J2.0915 F900
G01 Y117.4370 F900
G03 X55.0766 Y119.5485 I-3.0053 J0.0186 F900
G03 X57.1676 Y118.7000 I2.0913 J2.1531 F900
G01 X63.4624 F900
G03 X65.5736 Y119.5482 I0.0186 J3.0053 F900
G03 X64.7473 Y117.8052 I2.1345 J-2.0792 F900
G01 X64.1198 Y117.9000 F900
G00 Z5.0000 F180
G00 X64.1565 Y110.7000 F1500
G00 Z-13.5000 F180
G01 Z-16.0000 F300
G01 X56.5302 F900
G01 X56.5250 Y113.1000 F900
G01 X64.1250 F900
G01 Y115.5000 F900
G01 X56.5250 F900
G01 X56.4935 Y117.9000 F900
G01 X64.1198 F900
G00 Z5.0000 F180
G00 Z-13.5000 F180
G01 Z-16.0000 F300
G01 X64.7473 Y117.8052 F900
G01 X64.7400 Y117.7565 F900
G01 X64.7250 Y117.4570 F900
G01 Y111.1630 F900
G01 X64.7302 Y110.9666 F900
G03 X65.5734 Y109.0515 I3.0002 J0.1778 F900
G03 X63.4824 Y109.9000 I-2.0913 J-2.1531 F900
G01 X57.1876 F900
G03 X55.0764 Y109.0518 I-0.0186 J-3.0053 F900
G03 X55.9250 Y111.1430 I-2.1530 J2.0915 F900
G01 Y117.4370 F900
G03 X55.0766 Y119.5485 I-3.0053 J0.0186 F900
G03 X57.1676 Y118.7000 I2.0913 J2.1531 F900
G01 X63.4624 F900
G03 X65.5736 Y119.5482 I0.0186 J3.0053 F900
G03 X64.7473 Y117.8052 I2.1345 J-2.0792 F900
G01 X64.1198 Y117.9000 F900
G00 Z5.0000 F180


;No. 12: Part 11
G00 X63.4250 Y80.1500 Z5.0000 F1500
G00 Z0.5000 F180
G01 Z-2.0000 F300
G01 X57.2250 F900
G01 Y82.5500 F900
G01 X63.4250 F900
G01 Y84.9500 F900
G01 X57.2250 F900
G00 Z5.0000 F180
G00 Z0.5000 F180
G01 Z-2.0000 F300
G01 X56.6250 F900
G01 Y84.9874 F900
G03 X55.7755 Y87.0995 I-3.0027 J0.0192 F900
G03 X57.8676 Y86.2500 I2.0924 J2.1521 F900
G01 X62.7624 F900
G03 X64.8745 Y87.0995 I0.0192 J3.0027 F900
G03 X64.0250 Y85.0074 I2.1521 J-2.0924 F900
G01 Y80.1126 F900
G01 X64.0303 Y79.9149 F900
G03 X64.8745 Y78.0005 I2.9973 J0.1784 F900
G03 X62.7824 Y78.8500 I-2.0924 J-2.1521 F900
G01 X57.8876 F900
G03 X55.7755 Y78.0005 I-0.0192 J-3.0027 F900
G03 X56.6250 Y80.0926 I-2.1521 J2.0924 F900
G01 Y84.9500 F900
G01 X57.2250 F900
G00 Z5.0000 F180
G00 Y80.1500 F1500
G00 Z-1.5000 F180
G01 Z-4.0000 F300
G01 X63.4250 F900
G01 Y82.5500 F900
G01 X57.2250 F900
G01 Y84.9500 F900
G01 X63.4250 F900
G00 Z5.0000 F180
G00 Z-1.5000 F180
G01 Z-4.0000 F300
G01 X64.0250 F900
G01 Y80.1126 F900
G01 X64.0303 Y79.9149 F900
G03 X64.8745 Y78.0005 I2.9973 J0.1784 F900
G03 X62.7824 Y78.8500 I-2.0924 J-2.1521 F900
G01 X57.8876 F900
G03 X55.7755 Y78.0005 I-0.0192 J-3.0027 F900
G03 X56.6250 Y80.0926 I-2.1521 J2.0924 F900
G01 Y84.9874 F900
G03 X55.7755 Y87.0995 I-3.0027 J0.0192 F900
G03 X57.8676 Y86.2500 I2.0924 J2.1521 F900
G01 X62.7624 F900
G03 X64.8745 Y87.0995 I0.0192 J3.0027 F900
G03 X64.0250 Y85.0074 I2.1521 J-2.0924 F900
G01 Y84.9500 F900
G01 X63.4250 F900
G00 Z5.0000 F180
G00 Y80.1500 F1500
G00 Z-3.5000 F180
G01 Z-6.0000 F300
G01 X57.2250 F900
G01 Y82.5500 F900
G01 X63.4250 F900
G01 Y84.9500 F900
G01 X57.2250 F900
G00 Z5.0000 F180
G00 Z-3.5000 F180
G01 Z-6.0000 F300
G01 X56.6250 F900
G01 Y84.9874 F900
G03 X55.7755 Y87.0995 I-3.0027 J0.0192 F900
G03 X57.8676 Y86.2500 I2.0924 J2.1521 F900
G01 X62.7624 F900
G03 X64.8745 Y87.0995 I0.0192 J3.0027 F900
G03 X64.0250 Y85.0074 I2.1521 J-2.0924 F900
G01 Y80.1126 F900
G01 X64.0303 Y79.9149 F900
G03 X64.8745 Y78.0005 I2.9973 J0.1784 F900
G03 X62.7824 Y78.8500 I-2.0924 J-2.1521 F900
G01 X57.8876 F900
G03 X55.7755 Y78.0005 I-0.0192 J-3.0027 F900
G03 X56.6250 Y80.0926 I-2.1521 J2.0924 F900
G01 Y84.9500 F900
G01 X57.2250 F900
G00 Z5.0000 F180
G00 Y80.1500 F1500
G00 Z-5.5000 F180
G01 Z-8.0000 F300
G01 X63.4250 F900
G01 Y82.5500 F900
G01 X57.2250 F900
G01 Y84.9500 F900
G01 X63.4250 F900
G00 Z5.0000 F180
G00 Z-5.5000 F180
G01 Z-8.0000 F300
G01 X64.0250 F900
G01 Y80.1126 F900
G01 X64.0303 Y79.9149 F900
G03 X64.8745 Y78.0005 I2.9973 J0.1784 F900
G03 X62.7824 Y78.8500 I-2.0924 J-2.1521 F900
G01 X57.8876 F900
G03 X55.7755 Y78.0005 I-0.0192 J-3.0027 F900
G03 X56.6250 Y80.0926 I-2.1521 J2.0924 F900
G01 Y84.9874 F900
G03 X55.7755 Y87.0995 I-3.0027 J0.0192 F900
G03 X57.8676 Y86.2500 I2.0924 J2.1521 F900
G01 X62.7624 F900
G03 X64.8745 Y87.0995 I0.0192 J3.0027 F900
G03 X64.0250 Y85.0074 I2.1521 J-2.0924 F900
G01 Y84.9500 F900
G01 X63.4250 F900
G00 Z5.0000 F180
G00 Y80.1500 F1500
G00 Z-7.5000 F180
G01 Z-10.0000 F300
G01 X57.2250 F900
G01 Y82.5500 F900
G01 X63.4250 F900
G01 Y84.9500 F900
G01 X57.2250 F900
G00 Z5.0000 F180
G00 Z-7.5000 F180
G01 Z-10.0000 F300
G01 X56.6250 F900
G01 Y84.9874 F900
G03 X55.7755 Y87.0995 I-3.0027 J0.0192 F900
G03 X57.8676 Y86.2500 I2.0924 J2.1521 F900
G01 X62.7624 F900
G03 X64.8745 Y87.0995 I0.0192 J3.0027 F900
G03 X64.0250 Y85.0074 I2.1521 J-2.0924 F900
G01 Y80.1126 F900
G01 X64.0303 Y79.9149 F900
G03 X64.8745 Y78.0005 I2.9973 J0.1784 F900
G03 X62.7824 Y78.8500 I-2.0924 J-2.1521 F900
G01 X57.8876 F900
G03 X55.7755 Y78.0005 I-0.0192 J-3.0027 F900
G03 X56.6250 Y80.0926 I-2.1521 J2.0924 F900
G01 Y84.9500 F900
G01 X57.2250 F900
G00 Z5.0000 F180
G00 Y80.1500 F1500
G00 Z-9.5000 F180
G01 Z-12.0000 F300
G01 X63.4250 F900
G01 Y82.5500 F900
G01 X57.2250 F900
G01 Y84.9500 F900
G01 X63.4250 F900
G00 Z5.0000 F180
G00 Z-9.5000 F180
G01 Z-12.0000 F300
G01 X64.0250 F900
G01 Y80.1126 F900
G01 X64.0303 Y79.9149 F900
G03 X64.8745 Y78.0005 I2.9973 J0.1784 F900
G03 X62.7824 Y78.8500 I-2.0924 J-2.1521 F900
G01 X57.8876 F900
G03 X55.7755 Y78.0005 I-0.0192 J-3.0027 F900
G03 X56.6250 Y80.0926 I-2.1521 J2.0924 F900
G01 Y84.9874 F900
G03 X55.7755 Y87.0995 I-3.0027 J0.0192 F900
G03 X57.8676 Y86.2500 I2.0924 J2.1521 F900
G01 X62.7624 F900
G03 X64.8745 Y87.0995 I0.0192 J3.0027 F900
G03 X64.0250 Y85.0074 I2.1521 J-2.0924 F900
G01 Y84.9500 F900
G01 X63.4250 F900
G00 Z5.0000 F180
G00 Y80.1500 F1500
G00 Z-11.5000 F180
G01 Z-14.0000 F300
G01 X57.2250 F900
G01 Y82.5500 F900
G01 X63.4250 F900
G01 Y84.9500 F900
G01 X57.2250 F900
G00 Z5.0000 F180
G00 Z-11.5000 F180
G01 Z-14.0000 F300
G01 X56.6250 F900
G01 Y84.9874 F900
G03 X55.7755 Y87.0995 I-3.0027 J0.0192 F900
G03 X57.8676 Y86.2500 I2.0924 J2.1521 F900
G01 X62.7624 F900
G03 X64.8745 Y87.0995 I0.0192 J3.0027 F900
G03 X64.0250 Y85.0074 I2.1521 J-2.0924 F900
G01 Y80.1126 F900
G01 X64.0303 Y79.9149 F900
G03 X64.8745 Y78.0005 I2.9973 J0.1784 F900
G03 X62.7824 Y78.8500 I-2.0924 J-2.1521 F900
G01 X57.8876 F900
G03 X55.7755 Y78.0005 I-0.0192 J-3.0027 F900
G03 X56.6250 Y80.0926 I-2.1521 J2.0924 F900
G01 Y84.9500 F900
G01 X57.2250 F900
G00 Z5.0000 F180
G00 Y80.1500 F1500
G00 Z-13.5000 F180
G01 Z-16.0000 F300
G01 X63.4250 F900
G01 Y82.5500 F900
G01 X57.2250 F900
G01 Y84.9500 F900
G01 X63.4250 F900
G00 Z5.0000 F180
G00 Z-13.5000 F180
G01 Z-16.0000 F300
G01 X64.0250 F900
G01 Y80.1126 F900
G01 X64.0303 Y79.9149 F900
G03 X64.8745 Y78.0005 I2.9973 J0.1784 F900
G03 X62.7824 Y78.8500 I-2.0924 J-2.1521 F900
G01 X57.8876 F900
G03 X55.7755 Y78.0005 I-0.0192 J-3.0027 F900
G03 X56.6250 Y80.0926 I-2.1521 J2.0924 F900
G01 Y84.9874 F900
G03 X55.7755 Y87.0995 I-3.0027 J0.0192 F900
G03 X57.8676 Y86.2500 I2.0924 J2.1521 F900
G01 X62.7624 F900
G03 X64.8745 Y87.0995 I0.0192 J3.0027 F900
G03 X64.0250 Y85.0074 I2.1521 J-2.0924 F900
G01 Y84.9500 F900
G01 X63.4250 F900
G00 Z5.0000 F180


;No. 13: Part 6
G00 X31.6750 Y80.1500 Z5.0000 F1500
G00 Z0.5000 F180
G01 Z-2.0000 F300
G01 X25.4750 F900
G01 Y82.5500 F900
G01 X31.6750 F900
G01 Y84.9500 F900
G01 X25.4750 F900
G00 Z5.0000 F180
G00 Z0.5000 F180
G01 Z-2.0000 F300
G01 X24.8750 F900
G01 Y84.9874 F900
G03 X24.0255 Y87.0995 I-3.0027 J0.0192 F900
G03 X26.1176 Y86.2500 I2.0924 J2.1521 F900
G01 X31.0124 F900
G03 X33.1245 Y87.0995 I0.0192 J3.0027 F900
G03 X32.2750 Y85.0074 I2.1521 J-2.0924 F900
G01 Y80.1126 F900
G01 X32.2803 Y79.9149 F900
G03 X33.1245 Y78.0005 I2.9973 J0.1784 F900
G03 X31.0324 Y78.8500 I-2.0924 J-2.1521 F900
G01 X26.1376 F900
G03 X24.0255 Y78.0005 I-0.0192 J-3.0027 F900
G03 X24.8750 Y80.0926 I-2.1521 J2.0924 F900
G01 Y84.9500 F900
G01 X25.4750 F900
G00 Z5.0000 F180
G00 Y80.1500 F1500
G00 Z-1.5000 F180
G01 Z-4.0000 F300
G01 X31.6750 F900
G01 Y82.5500 F900
G01 X25.4750 F900
G01 Y84.9500 F900
G01 X31.6750 F900
G00 Z5.0000 F180
G00 Z-1.5000 F180
G01 Z-4.0000 F300
G01 X32.2750 F900
G01 Y80.1126 F900
G01 X32.2803 Y79.9149 F900
G03 X33.1245 Y78.0005 I2.9973 J0.1784 F900
G03 X31.0324 Y78.8500 I-2.0924 J-2.1521 F900
G01 X26.1376 F900
G03 X24.0255 Y78.0005 I-0.0192 J-3.0027 F900
G03 X24.8750 Y80.0926 I-2.1521 J2.0924 F900
G01 Y84.9874 F900
G03 X24.0255 Y87.0995 I-3.0027 J0.0192 F900
G03 X26.1176 Y86.2500 I2.0924 J2.1521 F900
G01 X31.0124 F900
G03 X33.1245 Y87.0995 I0.0192 J3.0027 F900
G03 X32.2750 Y85.0074 I2.1521 J-2.0924 F900
G01 Y84.9500 F900
G01 X31.6750 F900
G00 Z5.0000 F180
G00 Y80.1500 F1500
G00 Z-3.5000 F180
G01 Z-6.0000 F300
G01 X25.4750 F900
G01 Y82.5500 F900
G01 X31.6750 F900
G01 Y84.9500 F900
G01 X25.4750 F900
G00 Z5.0000 F180
G00 Z-3.5000 F180
G01 Z-6.0000 F300
G01 X24.8750 F900
G01 Y84.9874 F900
G03 X24.0255 Y87.0995 I-3.0027 J0.0192 F900
G03 X26.1176 Y86.2500 I2.0924 J2.1521 F900
G01 X31.0124 F900
G03 X33.1245 Y87.0995 I0.0192 J3.0027 F900
G03 X32.2750 Y85.0074 I2.1521 J-2.0924 F900
G01 Y80.1126 F900
G01 X32.2803 Y79.9149 F900
G03 X33.1245 Y78.0005 I2.9973 J0.1784 F900
G03 X31.0324 Y78.8500 I-2.0924 J-2.1521 F900
G01 X26.1376 F900
G03 X24.0255 Y78.0005 I-0.0192 J-3.0027 F900
G03 X24.8750 Y80.0926 I-2.1521 J2.0924 F900
G01 Y84.9500 F900
G01 X25.4750 F900
G00 Z5.0000 F180
G00 Y80.1500 F1500
G00 Z-5.5000 F180
G01 Z-8.0000 F300
G01 X31.6750 F900
G01 Y82.5500 F900
G01 X25.4750 F900
G01 Y84.9500 F900
G01 X31.6750 F900
G00 Z5.0000 F180
G00 Z-5.5000 F180
G01 Z-8.0000 F300
G01 X32.2750 F900
G01 Y80.1126 F900
G01 X32.2803 Y79.9149 F900
G03 X33.1245 Y78.0005 I2.9973 J0.1784 F900
G03 X31.0324 Y78.8500 I-2.0924 J-2.1521 F900
G01 X26.1376 F900
G03 X24.0255 Y78.0005 I-0.0192 J-3.0027 F900
G03 X24.8750 Y80.0926 I-2.1521 J2.0924 F900
G01 Y84.9874 F900
G03 X24.0255 Y87.0995 I-3.0027 J0.0192 F900
G03 X26.1176 Y86.2500 I2.0924 J2.1521 F900
G01 X31.0124 F900
G03 X33.1245 Y87.0995 I0.0192 J3.0027 F900
G03 X32.2750 Y85.0074 I2.1521 J-2.0924 F900
G01 Y84.9500 F900
G01 X31.6750 F900
G00 Z5.0000 F180
G00 Y80.1500 F1500
G00 Z-7.5000 F180
G01 Z-10.0000 F300
G01 X25.4750 F900
G01 Y82.5500 F900
G01 X31.6750 F900
G01 Y84.9500 F900
G01 X25.4750 F900
G00 Z5.0000 F180
G00 Z-7.5000 F180
G01 Z-10.0000 F300
G01 X24.8750 F900
G01 Y84.9874 F900
G03 X24.0255 Y87.0995 I-3.0027 J0.0192 F900
G03 X26.1176 Y86.2500 I2.0924 J2.1521 F900
G01 X31.0124 F900
G03 X33.1245 Y87.0995 I0.0192 J3.0027 F900
G03 X32.2750 Y85.0074 I2.1521 J-2.0924 F900
G01 Y80.1126 F900
G01 X32.2803 Y79.9149 F900
G03 X33.1245 Y78.0005 I2.9973 J0.1784 F900
G03 X31.0324 Y78.8500 I-2.0924 J-2.1521 F900
G01 X26.1376 F900
G03 X24.0255 Y78.0005 I-0.0192 J-3.0027 F900
G03 X24.8750 Y80.0926 I-2.1521 J2.0924 F900
G01 Y84.9500 F900
G01 X25.4750 F900
G00 Z5.0000 F180
G00 Y80.1500 F1500
G00 Z-9.5000 F180
G01 Z-12.0000 F300
G01 X31.6750 F900
G01 Y82.5500 F900
G01 X25.4750 F900
G01 Y84.9500 F900
G01 X31.6750 F900
G00 Z5.0000 F180
G00 Z-9.5000 F180
G01 Z-12.0000 F300
G01 X32.2750 F900
G01 Y80.1126 F900
G01 X32.2803 Y79.9149 F900
G03 X33.1245 Y78.0005 I2.9973 J0.1784 F900
G03 X31.0324 Y78.8500 I-2.0924 J-2.1521 F900
G01 X26.1376 F900
G03 X24.0255 Y78.0005 I-0.0192 J-3.0027 F900
G03 X24.8750 Y80.0926 I-2.1521 J2.0924 F900
G01 Y84.9874 F900
G03 X24.0255 Y87.0995 I-3.0027 J0.0192 F900
G03 X26.1176 Y86.2500 I2.0924 J2.1521 F900
G01 X31.0124 F900
G03 X33.1245 Y87.0995 I0.0192 J3.0027 F900
G03 X32.2750 Y85.0074 I2.1521 J-2.0924 F900
G01 Y84.9500 F900
G01 X31.6750 F900
G00 Z5.0000 F180
G00 Y80.1500 F1500
G00 Z-11.5000 F180
G01 Z-14.0000 F300
G01 X25.4750 F900
G01 Y82.5500 F900
G01 X31.6750 F900
G01 Y84.9500 F900
G01 X25.4750 F900
G00 Z5.0000 F180
G00 Z-11.5000 F180
G01 Z-14.0000 F300
G01 X24.8750 F900
G01 Y84.9874 F900
G03 X24.0255 Y87.0995 I-3.0027 J0.0192 F900
G03 X26.1176 Y86.2500 I2.0924 J2.1521 F900
G01 X31.0124 F900
G03 X33.1245 Y87.0995 I0.0192 J3.0027 F900
G03 X32.2750 Y85.0074 I2.1521 J-2.0924 F900
G01 Y80.1126 F900
G01 X32.2803 Y79.9149 F900
G03 X33.1245 Y78.0005 I2.9973 J0.1784 F900
G03 X31.0324 Y78.8500 I-2.0924 J-2.1521 F900
G01 X26.1376 F900
G03 X24.0255 Y78.0005 I-0.0192 J-3.0027 F900
G03 X24.8750 Y80.0926 I-2.1521 J2.0924 F900
G01 Y84.9500 F900
G01 X25.4750 F900
G00 Z5.0000 F180
G00 Y80.1500 F1500
G00 Z-13.5000 F180
G01 Z-16.0000 F300
G01 X31.6750 F900
G01 Y82.5500 F900
G01 X25.4750 F900
G01 Y84.9500 F900
G01 X31.6750 F900
G00 Z5.0000 F180
G00 Z-13.5000 F180
G01 Z-16.0000 F300
G01 X32.2750 F900
G01 Y80.1126 F900
G01 X32.2803 Y79.9149 F900
G03 X33.1245 Y78.0005 I2.9973 J0.1784 F900
G03 X31.0324 Y78.8500 I-2.0924 J-2.1521 F900
G01 X26.1376 F900
G03 X24.0255 Y78.0005 I-0.0192 J-3.0027 F900
G03 X24.8750 Y80.0926 I-2.1521 J2.0924 F900
G01 Y84.9874 F900
G03 X24.0255 Y87.0995 I-3.0027 J0.0192 F900
G03 X26.1176 Y86.2500 I2.0924 J2.1521 F900
G01 X31.0124 F900
G03 X33.1245 Y87.0995 I0.0192 J3.0027 F900
G03 X32.2750 Y85.0074 I2.1521 J-2.0924 F900
G01 Y84.9500 F900
G01 X31.6750 F900
G00 Z5.0000 F180


;No. 14: Part 3
G00 X32.4065 Y110.7000 Z5.0000 F1500
G00 Z0.5000 F180
G01 Z-2.0000 F300
G01 X24.7802 F900
G01 X24.7750 Y113.1000 F900
G01 X32.3750 F900
G01 Y115.5000 F900
G01 X24.7750 F900
G01 X24.7435 Y117.9000 F900
G01 X32.3698 F900
G00 Z5.0000 F180
G00 Z0.5000 F180
G01 Z-2.0000 F300
G01 X32.9973 Y117.8052 F900
G01 X32.9900 Y117.7565 F900
G01 X32.9750 Y117.4570 F900
G01 Y111.1630 F900
G01 X32.9802 Y110.9666 F900
G03 X33.8234 Y109.0515 I3.0002 J0.1778 F900
G03 X31.7324 Y109.9000 I-2.0913 J-2.1531 F900
G01 X25.4376 F900
G03 X23.3264 Y109.0518 I-0.0186 J-3.0053 F900
G03 X24.1750 Y111.1430 I-2.1530 J2.0915 F900
G01 Y117.4370 F900
G03 X23.3266 Y119.5485 I-3.0053 J0.0186 F900
G03 X25.4176 Y118.7000 I2.0913 J2.1531 F900
G01 X31.7124 F900
G03 X33.8236 Y119.5482 I0.0186 J3.0053 F900
G03 X32.9973 Y117.8052 I2.1345 J-2.0792 F900
G01 X32.3698 Y117.9000 F900
G00 Z5.0000 F180
G00 X32.4065 Y110.7000 F1500
G00 Z-1.5000 F180
G01 Z-4.0000 F300
G01 X24.7802 F900
G01 X24.7750 Y113.1000 F900
G01 X32.3750 F900
G01 Y115.5000 F900
G01 X24.7750 F900
G01 X24.7435 Y117.9000 F900
G01 X32.3698 F900
G00 Z5.0000 F180
G00 Z-1.5000 F180
G01 Z-4.0000 F300
G01 X32.9973 Y117.8052 F900
G01 X32.9900 Y117.7565 F900
G01 X32.9750 Y117.4570 F900
G01 Y111.1630 F900
G01 X32.9802 Y110.9666 F900
G03 X33.8234 Y109.0515 I3.0002 J0.1778 F900
G03 X31.7324 Y109.9000 I-2.0913 J-2.1531 F900
G01 X25.4376 F900
G03 X23.3264 Y109.0518 I-0.0186 J-3.0053 F900
G03 X24.1750 Y111.1430 I-2.1530 J2.0915 F900
G01 Y117.4370 F900
G03 X23.3266 Y119.5485 I-3.0053 J0.0186 F900
G03 X25.4176 Y118.7000 I2.0913 J2.1531 F900
G01 X31.7124 F900
G03 X33.8236 Y119.5482 I0.0186 J3.0053 F900
G03 X32.9973 Y117.8052 I2.1345 J-2.0792 F900
G01 X32.3698 Y117.9000 F900
G00 Z5.0000 F180
G00 X32.4065 Y110.7000 F1500
G00 Z-3.5000 F180
G01 Z-6.0000 F300
G01 X24.7802 F900
G01 X24.7750 Y113.1000 F900
G01 X32.3750 F900
G01 Y115.5000 F900
G01 X24.7750 F900
G01 X24.7435 Y117.9000 F900
G01 X32.3698 F900
G00 Z5.0000 F180
G00 Z-3.5000 F180
G01 Z-6.0000 F300
G01 X32.9973 Y117.8052 F900
G01 X32.9900 Y117.7565 F900
G01 X32.9750 Y117.4570 F900
G01 Y111.1630 F900
G01 X32.9802 Y110.9666 F900
G03 X33.8234 Y109.0515 I3.0002 J0.1778 F900
G03 X31.7324 Y109.9000 I-2.0913 J-2.1531 F900
G01 X25.4376 F900
G03 X23.3264 Y109.0518 I-0.0186 J-3.0053 F900
G03 X24.1750 Y111.1430 I-2.1530 J2.0915 F900
G01 Y117.4370 F900
G03 X23.3266 Y119.5485 I-3.0053 J0.0186 F900
G03 X25.4176 Y118.7000 I2.0913 J2.1531 F900
G01 X31.7124 F900
G03 X33.8236 Y119.5482 I0.0186 J3.0053 F900
G03 X32.9973 Y117.8052 I2.1345 J-2.0792 F900
G01 X32.3698 Y117.9000 F900
G00 Z5.0000 F180
G00 X32.4065 Y110.7000 F1500
G00 Z-5.5000 F180
G01 Z-8.0000 F300
G01 X24.7802 F900
G01 X24.7750 Y113.1000 F900
G01 X32.3750 F900
G01 Y115.5000 F900
G01 X24.7750 F900
G01 X24.7435 Y117.9000 F900
G01 X32.3698 F900
G00 Z5.0000 F180
G00 Z-5.5000 F180
G01 Z-8.0000 F300
G01 X32.9973 Y117.8052 F900
G01 X32.9900 Y117.7565 F900
G01 X32.9750 Y117.4570 F900
G01 Y111.1630 F900
G01 X32.9802 Y110.9666 F900
G03 X33.8234 Y109.0515 I3.0002 J0.1778 F900
G03 X31.7324 Y109.9000 I-2.0913 J-2.1531 F900
G01 X25.4376 F900
G03 X23.3264 Y109.0518 I-0.0186 J-3.0053 F900
G03 X24.1750 Y111.1430 I-2.1530 J2.0915 F900
G01 Y117.4370 F900
G03 X23.3266 Y119.5485 I-3.0053 J0.0186 F900
G03 X25.4176 Y118.7000 I2.0913 J2.1531 F900
G01 X31.7124 F900
G03 X33.8236 Y119.5482 I0.0186 J3.0053 F900
G03 X32.9973 Y117.8052 I2.1345 J-2.0792 F900
G01 X32.3698 Y117.9000 F900
G00 Z5.0000 F180
G00 X32.4065 Y110.7000 F1500
G00 Z-7.5000 F180
G01 Z-10.0000 F300
G01 X24.7802 F900
G01 X24.7750 Y113.1000 F900
G01 X32.3750 F900
G01 Y115.5000 F900
G01 X24.7750 F900
G01 X24.7435 Y117.9000 F900
G01 X32.3698 F900
G00 Z5.0000 F180
G00 Z-7.5000 F180
G01 Z-10.0000 F300
G01 X32.9973 Y117.8052 F900
G01 X32.9900 Y117.7565 F900
G01 X32.9750 Y117.4570 F900
G01 Y111.1630 F900
G01 X32.9802 Y110.9666 F900
G03 X33.8234 Y109.0515 I3.0002 J0.1778 F900
G03 X31.7324 Y109.9000 I-2.0913 J-2.1531 F900
G01 X25.4376 F900
G03 X23.3264 Y109.0518 I-0.0186 J-3.0053 F900
G03 X24.1750 Y111.1430 I-2.1530 J2.0915 F900
G01 Y117.4370 F900
G03 X23.3266 Y119.5485 I-3.0053 J0.0186 F900
G03 X25.4176 Y118.7000 I2.0913 J2.1531 F900
G01 X31.7124 F900
G03 X33.8236 Y119.5482 I0.0186 J3.0053 F900
G03 X32.9973 Y117.8052 I2.1345 J-2.0792 F900
G01 X32.3698 Y117.9000 F900
G00 Z5.0000 F180
G00 X32.4065 Y110.7000 F1500
G00 Z-9.5000 F180
G01 Z-12.0000 F300
G01 X24.7802 F900
G01 X24.7750 Y113.1000 F900
G01 X32.3750 F900
G01 Y115.5000 F900
G01 X24.7750 F900
G01 X24.7435 Y117.9000 F900
G01 X32.3698 F900
G00 Z5.0000 F180
G00 Z-9.5000 F180
G01 Z-12.0000 F300
G01 X32.9973 Y117.8052 F900
G01 X32.9900 Y117.7565 F900
G01 X32.9750 Y117.4570 F900
G01 Y111.1630 F900
G01 X32.9802 Y110.9666 F900
G03 X33.8234 Y109.0515 I3.0002 J0.1778 F900
G03 X31.7324 Y109.9000 I-2.0913 J-2.1531 F900
G01 X25.4376 F900
G03 X23.3264 Y109.0518 I-0.0186 J-3.0053 F900
G03 X24.1750 Y111.1430 I-2.1530 J2.0915 F900
G01 Y117.4370 F900
G03 X23.3266 Y119.5485 I-3.0053 J0.0186 F900
G03 X25.4176 Y118.7000 I2.0913 J2.1531 F900
G01 X31.7124 F900
G03 X33.8236 Y119.5482 I0.0186 J3.0053 F900
G03 X32.9973 Y117.8052 I2.1345 J-2.0792 F900
G01 X32.3698 Y117.9000 F900
G00 Z5.0000 F180
G00 X32.4065 Y110.7000 F1500
G00 Z-11.5000 F180
G01 Z-14.0000 F300
G01 X24.7802 F900
G01 X24.7750 Y113.1000 F900
G01 X32.3750 F900
G01 Y115.5000 F900
G01 X24.7750 F900
G01 X24.7435 Y117.9000 F900
G01 X32.3698 F900
G00 Z5.0000 F180
G00 Z-11.5000 F180
G01 Z-14.0000 F300
G01 X32.9973 Y117.8052 F900
G01 X32.9900 Y117.7565 F900
G01 X32.9750 Y117.4570 F900
G01 Y111.1630 F900
G01 X32.9802 Y110.9666 F900
G03 X33.8234 Y109.0515 I3.0002 J0.1778 F900
G03 X31.7324 Y109.9000 I-2.0913 J-2.1531 F900
G01 X25.4376 F900
G03 X23.3264 Y109.0518 I-0.0186 J-3.0053 F900
G03 X24.1750 Y111.1430 I-2.1530 J2.0915 F900
G01 Y117.4370 F900
G03 X23.3266 Y119.5485 I-3.0053 J0.0186 F900
G03 X25.4176 Y118.7000 I2.0913 J2.1531 F900
G01 X31.7124 F900
G03 X33.8236 Y119.5482 I0.0186 J3.0053 F900
G03 X32.9973 Y117.8052 I2.1345 J-2.0792 F900
G01 X32.3698 Y117.9000 F900
G00 Z5.0000 F180
G00 X32.4065 Y110.7000 F1500
G00 Z-13.5000 F180
G01 Z-16.0000 F300
G01 X24.7802 F900
G01 X24.7750 Y113.1000 F900
G01 X32.3750 F900
G01 Y115.5000 F900
G01 X24.7750 F900
G01 X24.7435 Y117.9000 F900
G01 X32.3698 F900
G00 Z5.0000 F180
G00 Z-13.5000 F180
G01 Z-16.0000 F300
G01 X32.9973 Y117.8052 F900
G01 X32.9900 Y117.7565 F900
G01 X32.9750 Y117.4570 F900
G01 Y111.1630 F900
G01 X32.9802 Y110.9666 F900
G03 X33.8234 Y109.0515 I3.0002 J0.1778 F900
G03 X31.7324 Y109.9000 I-2.0913 J-2.1531 F900
G01 X25.4376 F900
G03 X23.3264 Y109.0518 I-0.0186 J-3.0053 F900
G03 X24.1750 Y111.1430 I-2.1530 J2.0915 F900
G01 Y117.4370 F900
G03 X23.3266 Y119.5485 I-3.0053 J0.0186 F900
G03 X25.4176 Y118.7000 I2.0913 J2.1531 F900
G01 X31.7124 F900
G03 X33.8236 Y119.5482 I0.0186 J3.0053 F900
G03 X32.9973 Y117.8052 I2.1345 J-2.0792 F900
G01 X32.3698 Y117.9000 F900
G00 Z5.0000 F180


;No. 15: Part 2
G00 X36.7250 Y140.0500 Z5.0000 F1500
G00 Z0.5000 F180
G01 Z-2.0000 F300
G01 X20.4250 F900
G01 Y142.4500 F900
G01 X36.7250 F900
G01 Y144.8500 F900
G01 X20.4250 F900
G01 Y147.2500 F900
G01 X36.7250 F900
G01 Y149.6500 F900
G01 X20.4250 F900
G01 Y152.0500 F900
G01 X36.7250 F900
G00 Z5.0000 F180
G00 Z0.5000 F180
G01 Z-2.0000 F300
G01 X37.3250 F900
G01 Y138.5630 F900
G01 X37.3302 Y138.3666 F900
G03 X38.1734 Y136.4515 I3.0002 J0.1778 F900
G03 X36.0824 Y137.3000 I-2.0913 J-2.1531 F900
G01 X21.0876 F900
G03 X18.9764 Y136.4518 I-0.0186 J-3.0053 F900
G03 X19.8250 Y138.5430 I-2.1530 J2.0915 F900
G01 Y153.5370 F900
G03 X18.9766 Y155.6485 I-3.0053 J0.0186 F900
G03 X21.0676 Y154.8000 I2.0913 J2.1531 F900
G01 X36.0624 F900
G03 X38.1736 Y155.6482 I0.0186 J3.0053 F900
G03 X37.3250 Y153.5570 I2.1530 J-2.0915 F900
G01 Y152.0500 F900
G01 X36.7250 F900
G00 Z5.0000 F180
G00 Y140.0500 F1500
G00 Z-1.5000 F180
G01 Z-4.0000 F300
G01 X20.4250 F900
G01 Y142.4500 F900
G01 X36.7250 F900
G01 Y144.8500 F900
G01 X20.4250 F900
G01 Y147.2500 F900
G01 X36.7250 F900
G01 Y149.6500 F900
G01 X20.4250 F900
G01 Y152.0500 F900
G01 X36.7250 F900
G00 Z5.0000 F180
G00 Z-1.5000 F180
G01 Z-4.0000 F300
G01 X37.3250 F900
G01 Y138.5630 F900
G01 X37.3302 Y138.3666 F900
G03 X38.1734 Y136.4515 I3.0002 J0.1778 F900
G03 X36.0824 Y137.3000 I-2.0913 J-2.1531 F900
G01 X21.0876 F900
G03 X18.9764 Y136.4518 I-0.0186 J-3.0053 F900
G03 X19.8250 Y138.5430 I-2.1530 J2.0915 F900
G01 Y153.5370 F900
G03 X18.9766 Y155.6485 I-3.0053 J0.0186 F900
G03 X21.0676 Y154.8000 I2.0913 J2.1531 F900
G01 X36.0624 F900
G03 X38.1736 Y155.6482 I0.0186 J3.0053 F900
G03 X37.3250 Y153.5570 I2.1530 J-2.0915 F900
G01 Y152.0500 F900
G01 X36.7250 F900
G00 Z5.0000 F180
G00 Y140.0500 F1500
G00 Z-3.5000 F180
G01 Z-6.0000 F300
G01 X20.4250 F900
G01 Y142.4500 F900
G01 X36.7250 F900
G01 Y144.8500 F900
G01 X20.4250 F900
G01 Y147.2500 F900
G01 X36.7250 F900
G01 Y149.6500 F900
G01 X20.4250 F900
G01 Y152.0500 F900
G01 X36.7250 F900
G00 Z5.0000 F180
G00 Z-3.5000 F180
G01 Z-6.0000 F300
G01 X37.3250 F900
G01 Y138.5630 F900
G01 X37.3302 Y138.3666 F900
G03 X38.1734 Y136.4515 I3.0002 J0.1778 F900
G03 X36.0824 Y137.3000 I-2.0913 J-2.1531 F900
G01 X21.0876 F900
G03 X18.9764 Y136.4518 I-0.0186 J-3.0053 F900
G03 X19.8250 Y138.5430 I-2.1530 J2.0915 F900
G01 Y153.5370 F900
G03 X18.9766 Y155.6485 I-3.0053 J0.0186 F900
G03 X21.0676 Y154.8000 I2.0913 J2.1531 F900
G01 X36.0624 F900
G03 X38.1736 Y155.6482 I0.0186 J3.0053 F900
G03 X37.3250 Y153.5570 I2.1530 J-2.0915 F900
G01 Y152.0500 F900
G01 X36.7250 F900
G00 Z5.0000 F180
G00 Y140.0500 F1500
G00 Z-5.5000 F180
G01 Z-8.0000 F300
G01 X20.4250 F900
G01 Y142.4500 F900
G01 X36.7250 F900
G01 Y144.8500 F900
G01 X20.4250 F900
G01 Y147.2500 F900
G01 X36.7250 F900
G01 Y149.6500 F900
G01 X20.4250 F900
G01 Y152.0500 F900
G01 X36.7250 F900
G00 Z5.0000 F180
G00 Z-5.5000 F180
G01 Z-8.0000 F300
G01 X37.3250 F900
G01 Y138.5630 F900
G01 X37.3302 Y138.3666 F900
G03 X38.1734 Y136.4515 I3.0002 J0.1778 F900
G03 X36.0824 Y137.3000 I-2.0913 J-2.1531 F900
G01 X21.0876 F900
G03 X18.9764 Y136.4518 I-0.0186 J-3.0053 F900
G03 X19.8250 Y138.5430 I-2.1530 J2.0915 F900
G01 Y153.5370 F900
G03 X18.9766 Y155.6485 I-3.0053 J0.0186 F900
G03 X21.0676 Y154.8000 I2.0913 J2.1531 F900
G01 X36.0624 F900
G03 X38.1736 Y155.6482 I0.0186 J3.0053 F900
G03 X37.3250 Y153.5570 I2.1530 J-2.0915 F900
G01 Y152.0500 F900
G01 X36.7250 F900
G00 Z5.0000 F180
G00 Y140.0500 F1500
G00 Z-7.5000 F180
G01 Z-10.0000 F300
G01 X20.4250 F900
G01 Y142.4500 F900
G01 X36.7250 F900
G01 Y144.8500 F900
G01 X20.4250 F900
G01 Y147.2500 F900
G01 X36.7250 F900
G01 Y149.6500 F900
G01 X20.4250 F900
G01 Y152.0500 F900
G01 X36.7250 F900
G00 Z5.0000 F180
G00 Z-7.5000 F180
G01 Z-10.0000 F300
G01 X37.3250 F900
G01 Y138.5630 F900
G01 X37.3302 Y138.3666 F900
G03 X38.1734 Y136.4515 I3.0002 J0.1778 F900
G03 X36.0824 Y137.3000 I-2.0913 J-2.1531 F900
G01 X21.0876 F900
G03 X18.9764 Y136.4518 I-0.0186 J-3.0053 F900
G03 X19.8250 Y138.5430 I-2.1530 J2.0915 F900
G01 Y153.5370 F900
G03 X18.9766 Y155.6485 I-3.0053 J0.0186 F900
G03 X21.0676 Y154.8000 I2.0913 J2.1531 F900
G01 X36.0624 F900
G03 X38.1736 Y155.6482 I0.0186 J3.0053 F900
G03 X37.3250 Y153.5570 I2.1530 J-2.0915 F900
G01 Y152.0500 F900
G01 X36.7250 F900
G00 Z5.0000 F180
G00 Y140.0500 F1500
G00 Z-9.5000 F180
G01 Z-12.0000 F300
G01 X20.4250 F900
G01 Y142.4500 F900
G01 X36.7250 F900
G01 Y144.8500 F900
G01 X20.4250 F900
G01 Y147.2500 F900
G01 X36.7250 F900
G01 Y149.6500 F900
G01 X20.4250 F900
G01 Y152.0500 F900
G01 X36.7250 F900
G00 Z5.0000 F180
G00 Z-9.5000 F180
G01 Z-12.0000 F300
G01 X37.3250 F900
G01 Y138.5630 F900
G01 X37.3302 Y138.3666 F900
G03 X38.1734 Y136.4515 I3.0002 J0.1778 F900
G03 X36.0824 Y137.3000 I-2.0913 J-2.1531 F900
G01 X21.0876 F900
G03 X18.9764 Y136.4518 I-0.0186 J-3.0053 F900
G03 X19.8250 Y138.5430 I-2.1530 J2.0915 F900
G01 Y153.5370 F900
G03 X18.9766 Y155.6485 I-3.0053 J0.0186 F900
G03 X21.0676 Y154.8000 I2.0913 J2.1531 F900
G01 X36.0624 F900
G03 X38.1736 Y155.6482 I0.0186 J3.0053 F900
G03 X37.3250 Y153.5570 I2.1530 J-2.0915 F900
G01 Y152.0500 F900
G01 X36.7250 F900
G00 Z5.0000 F180
G00 Y140.0500 F1500
G00 Z-11.5000 F180
G01 Z-14.0000 F300
G01 X20.4250 F900
G01 Y142.4500 F900
G01 X36.7250 F900
G01 Y144.8500 F900
G01 X20.4250 F900
G01 Y147.2500 F900
G01 X36.7250 F900
G01 Y149.6500 F900
G01 X20.4250 F900
G01 Y152.0500 F900
G01 X36.7250 F900
G00 Z5.0000 F180
G00 Z-11.5000 F180
G01 Z-14.0000 F300
G01 X37.3250 F900
G01 Y138.5630 F900
G01 X37.3302 Y138.3666 F900
G03 X38.1734 Y136.4515 I3.0002 J0.1778 F900
G03 X36.0824 Y137.3000 I-2.0913 J-2.1531 F900
G01 X21.0876 F900
G03 X18.9764 Y136.4518 I-0.0186 J-3.0053 F900
G03 X19.8250 Y138.5430 I-2.1530 J2.0915 F900
G01 Y153.5370 F900
G03 X18.9766 Y155.6485 I-3.0053 J0.0186 F900
G03 X21.0676 Y154.8000 I2.0913 J2.1531 F900
G01 X36.0624 F900
G03 X38.1736 Y155.6482 I0.0186 J3.0053 F900
G03 X37.3250 Y153.5570 I2.1530 J-2.0915 F900
G01 Y152.0500 F900
G01 X36.7250 F900
G00 Z5.0000 F180
G00 Y140.0500 F1500
G00 Z-13.5000 F180
G01 Z-16.0000 F300
G01 X20.4250 F900
G01 Y142.4500 F900
G01 X36.7250 F900
G01 Y144.8500 F900
G01 X20.4250 F900
G01 Y147.2500 F900
G01 X36.7250 F900
G01 Y149.6500 F900
G01 X20.4250 F900
G01 Y152.0500 F900
G01 X36.7250 F900
G00 Z5.0000 F180
G00 Z-13.5000 F180
G01 Z-16.0000 F300
G01 X37.3250 F900
G01 Y138.5630 F900
G01 X37.3302 Y138.3666 F900
G03 X38.1734 Y136.4515 I3.0002 J0.1778 F900
G03 X36.0824 Y137.3000 I-2.0913 J-2.1531 F900
G01 X21.0876 F900
G03 X18.9764 Y136.4518 I-0.0186 J-3.0053 F900
G03 X19.8250 Y138.5430 I-2.1530 J2.0915 F900
G01 Y153.5370 F900
G03 X18.9766 Y155.6485 I-3.0053 J0.0186 F900
G03 X21.0676 Y154.8000 I2.0913 J2.1531 F900
G01 X36.0624 F900
G03 X38.1736 Y155.6482 I0.0186 J3.0053 F900
G03 X37.3250 Y153.5570 I2.1530 J-2.0915 F900
G01 Y152.0500 F900
G01 X36.7250 F900
G00 Z5.0000 F180


;No. 16: Part 17
G00 X115.6750 Y140.0500 Z5.0000 F1500
G00 Z0.5000 F180
G01 Z-2.0000 F300
G01 X131.9750 F900
G01 Y142.4500 F900
G01 X115.6750 F900
G01 Y144.8500 F900
G01 X131.9750 F900
G01 Y147.2500 F900
G01 X115.6750 F900
G01 Y149.6500 F900
G01 X131.9750 F900
G01 Y152.0500 F900
G01 X115.6750 F900
G00 Z5.0000 F180
G00 Z0.5000 F180
G01 Z-2.0000 F300
G01 X115.0750 F900
G01 Y153.5370 F900
G03 X114.2279 Y155.6476 I-3.0080 J0.0180 F900
G03 X116.3180 Y154.8000 I2.0904 J2.1540 F900
G01 X131.3120 F900
G03 X133.4226 Y155.6471 I0.0180 J3.0080 F900
G03 X132.5750 Y153.5570 I2.1540 J-2.0904 F900
G01 Y138.5630 F900
G01 X132.5801 Y138.3680 F900
G03 X133.4221 Y136.4524 I3.0032 J0.1772 F900
G03 X131.3320 Y137.3000 I-2.0904 J-2.1540 F900
G01 X116.3380 F900
G03 X114.2274 Y136.4529 I-0.0180 J-3.0080 F900
G03 X115.0750 Y138.5430 I-2.1540 J2.0904 F900
G01 Y152.0500 F900
G01 X115.6750 F900
G00 Z5.0000 F180
G00 Y140.0500 F1500
G00 Z-1.5000 F180
G01 Z-4.0000 F300
G01 X131.9750 F900
G01 Y142.4500 F900
G01 X115.6750 F900
G01 Y144.8500 F900
G01 X131.9750 F900
G01 Y147.2500 F900
G01 X115.6750 F900
G01 Y149.6500 F900
G01 X131.9750 F900
G01 Y152.0500 F900
G01 X115.6750 F900
G00 Z5.0000 F180
G00 Z-1.5000 F180
G01 Z-4.0000 F300
G01 X115.0750 F900
G01 Y153.5370 F900
G03 X114.2279 Y155.6476 I-3.0080 J0.0180 F900
G03 X116.3180 Y154.8000 I2.0904 J2.1540 F900
G01 X131.3120 F900
G03 X133.4226 Y155.6471 I0.0180 J3.0080 F900
G03 X132.5750 Y153.5570 I2.1540 J-2.0904 F900
G01 Y138.5630 F900
G01 X132.5801 Y138.3680 F900
G03 X133.4221 Y136.4524 I3.0032 J0.1772 F900
G03 X131.3320 Y137.3000 I-2.0904 J-2.1540 F900
G01 X116.3380 F900
G03 X114.2274 Y136.4529 I-0.0180 J-3.0080 F900
G03 X115.0750 Y138.5430 I-2.1540 J2.0904 F900
G01 Y152.0500 F900
G01 X115.6750 F900
G00 Z5.0000 F180
G00 Y140.0500 F1500
G00 Z-3.5000 F180
G01 Z-6.0000 F300
G01 X131.9750 F900
G01 Y142.4500 F900
G01 X115.6750 F900
G01 Y144.8500 F900
G01 X131.9750 F900
G01 Y147.2500 F900
G01 X115.6750 F900
G01 Y149.6500 F900
G01 X131.9750 F900
G01 Y152.0500 F900
G01 X115.6750 F900
G00 Z5.0000 F180
G00 Z-3.5000 F180
G01 Z-6.0000 F300
G01 X115.0750 F900
G01 Y153.5370 F900
G03 X114.2279 Y155.6476 I-3.0080 J0.0180 F900
G03 X116.3180 Y154.8000 I2.0904 J2.1540 F900
G01 X131.3120 F900
G03 X133.4226 Y155.6471 I0.0180 J3.0080 F900
G03 X132.5750 Y153.5570 I2.1540 J-2.0904 F900
G01 Y138.5630 F900
G01 X132.5801 Y138.3680 F900
G03 X133.4221 Y136.4524 I3.0032 J0.1772 F900
G03 X131.3320 Y137.3000 I-2.0904 J-2.1540 F900
G01 X116.3380 F900
G03 X114.2274 Y136.4529 I-0.0180 J-3.0080 F900
G03 X115.0750 Y138.5430 I-2.1540 J2.0904 F900
