;Project drawerfor8mm
;Created by Estlcam version 11 build 11,030
;Machining time about 00:59:05 hours

G90
M03 S24000
G00 X0.0000 Y0.0000 Z0.0000 F1500
G00 Z5.0000 F180


;No. 1: Part 2
G00 X27.5839 Y18.3318 F1500
G00 Z0.5000 F180
G01 Z-2.0000 F300 S24000
G02 X28.4486 Y20.2674 I0.9911 J0.7182 F900
G02 X29.6925 Y18.5508 I0.1264 J-1.2174 F900
G02 X27.5839 Y18.3318 I-1.1175 J0.4992 F900
G01 Z-4.0000 F300
G02 X28.4486 Y20.2674 I0.9911 J0.7182 F900
G02 X29.6925 Y18.5508 I0.1264 J-1.2174 F900
G02 X27.5839 Y18.3318 I-1.1175 J0.4992 F900
G01 Z-6.0000 F300
G02 X28.4486 Y20.2674 I0.9911 J0.7182 F900
G02 X29.6925 Y18.5508 I0.1264 J-1.2174 F900
G02 X27.5839 Y18.3318 I-1.1175 J0.4992 F900
G01 Z-8.0000 F300
G02 X28.4486 Y20.2674 I0.9911 J0.7182 F900
G02 X29.6925 Y18.5508 I0.1264 J-1.2174 F900
G02 X27.5839 Y18.3318 I-1.1175 J0.4992 F900
G01 Z-10.0000 F300
G02 X28.4486 Y20.2674 I0.9911 J0.7182 F900
G02 X29.6925 Y18.5508 I0.1264 J-1.2174 F900
G02 X27.5839 Y18.3318 I-1.1175 J0.4992 F900
G01 Z-12.0000 F300
G02 X28.4486 Y20.2674 I0.9911 J0.7182 F900
G02 X29.6925 Y18.5508 I0.1264 J-1.2174 F900
G02 X27.5839 Y18.3318 I-1.1175 J0.4992 F900
G01 Z-14.0000 F300
G02 X28.4486 Y20.2674 I0.9911 J0.7182 F900
G02 X29.6925 Y18.5508 I0.1264 J-1.2174 F900
G02 X27.5839 Y18.3318 I-1.1175 J0.4992 F900
G01 Z-16.0000 F300
G02 X28.4486 Y20.2674 I0.9911 J0.7182 F900
G02 X29.6925 Y18.5508 I0.1264 J-1.2174 F900
G02 X27.5839 Y18.3318 I-1.1175 J0.4992 F900
G01 Z-18.0000 F300
G02 X28.4486 Y20.2674 I0.9911 J0.7182 F900
G02 X29.6925 Y18.5508 I0.1264 J-1.2174 F900
G02 X27.5839 Y18.3318 I-1.1175 J0.4992 F900
G01 Z-20.0000 F300
G02 X28.4486 Y20.2674 I0.9911 J0.7182 F900
G02 X29.6925 Y18.5508 I0.1264 J-1.2174 F900
G02 X27.5839 Y18.3318 I-1.1175 J0.4992 F900
G01 Z-22.0000 F300
G02 X28.4486 Y20.2674 I0.9911 J0.7182 F900
G02 X29.6925 Y18.5508 I0.1264 J-1.2174 F900
G02 X27.5839 Y18.3318 I-1.1175 J0.4992 F900
G01 Z-24.0000 F300
G02 X28.4486 Y20.2674 I0.9911 J0.7182 F900
G02 X29.6925 Y18.5508 I0.1264 J-1.2174 F900
G02 X27.5839 Y18.3318 I-1.1175 J0.4992 F900
G00 Z5.0000 F180


;No. 2: Part 3
G00 X28.0175 Y49.7104 Z5.0000 F1500
G00 Z0.5000 F180
G01 Z-2.0000 F300
G02 X27.9101 Y51.8276 I0.5575 J1.0896 F900
G02 X29.7974 Y50.8621 I0.6649 J-1.0276 F900
G02 X28.0175 Y49.7104 I-1.2224 J-0.0620 F900
G01 Z-4.0000 F300
G02 X27.9101 Y51.8276 I0.5575 J1.0896 F900
G02 X29.7974 Y50.8621 I0.6649 J-1.0276 F900
G02 X28.0175 Y49.7104 I-1.2224 J-0.0620 F900
G01 Z-6.0000 F300
G02 X27.9101 Y51.8276 I0.5575 J1.0896 F900
G02 X29.7974 Y50.8621 I0.6649 J-1.0276 F900
G02 X28.0175 Y49.7104 I-1.2224 J-0.0620 F900
G01 Z-8.0000 F300
G02 X27.9101 Y51.8276 I0.5575 J1.0896 F900
G02 X29.7974 Y50.8621 I0.6649 J-1.0276 F900
G02 X28.0175 Y49.7104 I-1.2224 J-0.0620 F900
G01 Z-10.0000 F300
G02 X27.9101 Y51.8276 I0.5575 J1.0896 F900
G02 X29.7974 Y50.8621 I0.6649 J-1.0276 F900
G02 X28.0175 Y49.7104 I-1.2224 J-0.0620 F900
G01 Z-12.0000 F300
G02 X27.9101 Y51.8276 I0.5575 J1.0896 F900
G02 X29.7974 Y50.8621 I0.6649 J-1.0276 F900
G02 X28.0175 Y49.7104 I-1.2224 J-0.0620 F900
G01 Z-14.0000 F300
G02 X27.9101 Y51.8276 I0.5575 J1.0896 F900
G02 X29.7974 Y50.8621 I0.6649 J-1.0276 F900
G02 X28.0175 Y49.7104 I-1.2224 J-0.0620 F900
G01 Z-16.0000 F300
G02 X27.9101 Y51.8276 I0.5575 J1.0896 F900
G02 X29.7974 Y50.8621 I0.6649 J-1.0276 F900
G02 X28.0175 Y49.7104 I-1.2224 J-0.0620 F900
G01 Z-18.0000 F300
G02 X27.9101 Y51.8276 I0.5575 J1.0896 F900
G02 X29.7974 Y50.8621 I0.6649 J-1.0276 F900
G02 X28.0175 Y49.7104 I-1.2224 J-0.0620 F900
G01 Z-20.0000 F300
G02 X27.9101 Y51.8276 I0.5575 J1.0896 F900
G02 X29.7974 Y50.8621 I0.6649 J-1.0276 F900
G02 X28.0175 Y49.7104 I-1.2224 J-0.0620 F900
G01 Z-22.0000 F300
G02 X27.9101 Y51.8276 I0.5575 J1.0896 F900
G02 X29.7974 Y50.8621 I0.6649 J-1.0276 F900
G02 X28.0175 Y49.7104 I-1.2224 J-0.0620 F900
G01 Z-24.0000 F300
G02 X27.9101 Y51.8276 I0.5575 J1.0896 F900
G02 X29.7974 Y50.8621 I0.6649 J-1.0276 F900
G02 X28.0175 Y49.7104 I-1.2224 J-0.0620 F900
G00 Z5.0000 F180


;No. 3: Part 8
G00 X59.4149 Y49.9816 Z5.0000 F1500
G00 Z0.5000 F180
G01 Z-2.0000 F300
G02 X60.0714 Y51.9974 I0.9101 J0.8183 F900
G02 X61.4888 Y50.4210 I0.2536 J-1.1974 F900
G02 X59.4149 Y49.9816 I-1.1638 J0.3790 F900
G01 Z-4.0000 F300
G02 X60.0714 Y51.9974 I0.9101 J0.8183 F900
G02 X61.4888 Y50.4210 I0.2536 J-1.1974 F900
G02 X59.4149 Y49.9816 I-1.1638 J0.3790 F900
G01 Z-6.0000 F300
G02 X60.0714 Y51.9974 I0.9101 J0.8183 F900
G02 X61.4888 Y50.4210 I0.2536 J-1.1974 F900
G02 X59.4149 Y49.9816 I-1.1638 J0.3790 F900
G01 Z-8.0000 F300
G02 X60.0714 Y51.9974 I0.9101 J0.8183 F900
G02 X61.4888 Y50.4210 I0.2536 J-1.1974 F900
G02 X59.4149 Y49.9816 I-1.1638 J0.3790 F900
G01 Z-10.0000 F300
G02 X60.0714 Y51.9974 I0.9101 J0.8183 F900
G02 X61.4888 Y50.4210 I0.2536 J-1.1974 F900
G02 X59.4149 Y49.9816 I-1.1638 J0.3790 F900
G01 Z-12.0000 F300
G02 X60.0714 Y51.9974 I0.9101 J0.8183 F900
G02 X61.4888 Y50.4210 I0.2536 J-1.1974 F900
G02 X59.4149 Y49.9816 I-1.1638 J0.3790 F900
G01 Z-14.0000 F300
G02 X60.0714 Y51.9974 I0.9101 J0.8183 F900
G02 X61.4888 Y50.4210 I0.2536 J-1.1974 F900
G02 X59.4149 Y49.9816 I-1.1638 J0.3790 F900
G01 Z-16.0000 F300
G02 X60.0714 Y51.9974 I0.9101 J0.8183 F900
G02 X61.4888 Y50.4210 I0.2536 J-1.1974 F900
G02 X59.4149 Y49.9816 I-1.1638 J0.3790 F900
G01 Z-18.0000 F300
G02 X60.0714 Y51.9974 I0.9101 J0.8183 F900
G02 X61.4888 Y50.4210 I0.2536 J-1.1974 F900
G02 X59.4149 Y49.9816 I-1.1638 J0.3790 F900
G01 Z-20.0000 F300
G02 X60.0714 Y51.9974 I0.9101 J0.8183 F900
G02 X61.4888 Y50.4210 I0.2536 J-1.1974 F900
G02 X59.4149 Y49.9816 I-1.1638 J0.3790 F900
G01 Z-22.0000 F300
G02 X60.0714 Y51.9974 I0.9101 J0.8183 F900
G02 X61.4888 Y50.4210 I0.2536 J-1.1974 F900
G02 X59.4149 Y49.9816 I-1.1638 J0.3790 F900
G01 Z-24.0000 F300
G02 X60.0714 Y51.9974 I0.9101 J0.8183 F900
G02 X61.4888 Y50.4210 I0.2536 J-1.1974 F900
G02 X59.4149 Y49.9816 I-1.1638 J0.3790 F900
G00 Z5.0000 F180


;No. 4: Part 7
G00 X59.1820 Y18.6123 Z5.0000 F1500
G00 Z0.5000 F180
G01 Z-2.0000 F300
G02 X60.5175 Y20.2587 I1.1430 J0.4377 F900
G02 X61.2755 Y18.2789 I-0.1925 J-1.2087 F900
G02 X59.1820 Y18.6123 I-0.9505 J0.7711 F900
G01 Z-4.0000 F300
G02 X60.5175 Y20.2587 I1.1430 J0.4377 F900
G02 X61.2755 Y18.2789 I-0.1925 J-1.2087 F900
G02 X59.1820 Y18.6123 I-0.9505 J0.7711 F900
G01 Z-6.0000 F300
G02 X60.5175 Y20.2587 I1.1430 J0.4377 F900
G02 X61.2755 Y18.2789 I-0.1925 J-1.2087 F900
G02 X59.1820 Y18.6123 I-0.9505 J0.7711 F900
G01 Z-8.0000 F300
G02 X60.5175 Y20.2587 I1.1430 J0.4377 F900
G02 X61.2755 Y18.2789 I-0.1925 J-1.2087 F900
G02 X59.1820 Y18.6123 I-0.9505 J0.7711 F900
G01 Z-10.0000 F300
G02 X60.5175 Y20.2587 I1.1430 J0.4377 F900
G02 X61.2755 Y18.2789 I-0.1925 J-1.2087 F900
G02 X59.1820 Y18.6123 I-0.9505 J0.7711 F900
G01 Z-12.0000 F300
G02 X60.5175 Y20.2587 I1.1430 J0.4377 F900
G02 X61.2755 Y18.2789 I-0.1925 J-1.2087 F900
G02 X59.1820 Y18.6123 I-0.9505 J0.7711 F900
G01 Z-14.0000 F300
G02 X60.5175 Y20.2587 I1.1430 J0.4377 F900
G02 X61.2755 Y18.2789 I-0.1925 J-1.2087 F900
G02 X59.1820 Y18.6123 I-0.9505 J0.7711 F900
G01 Z-16.0000 F300
G02 X60.5175 Y20.2587 I1.1430 J0.4377 F900
G02 X61.2755 Y18.2789 I-0.1925 J-1.2087 F900
G02 X59.1820 Y18.6123 I-0.9505 J0.7711 F900
G01 Z-18.0000 F300
G02 X60.5175 Y20.2587 I1.1430 J0.4377 F900
G02 X61.2755 Y18.2789 I-0.1925 J-1.2087 F900
G02 X59.1820 Y18.6123 I-0.9505 J0.7711 F900
G01 Z-20.0000 F300
G02 X60.5175 Y20.2587 I1.1430 J0.4377 F900
G02 X61.2755 Y18.2789 I-0.1925 J-1.2087 F900
G02 X59.1820 Y18.6123 I-0.9505 J0.7711 F900
G01 Z-22.0000 F300
G02 X60.5175 Y20.2587 I1.1430 J0.4377 F900
G02 X61.2755 Y18.2789 I-0.1925 J-1.2087 F900
G02 X59.1820 Y18.6123 I-0.9505 J0.7711 F900
G01 Z-24.0000 F300
G02 X60.5175 Y20.2587 I1.1430 J0.4377 F900
G02 X61.2755 Y18.2789 I-0.1925 J-1.2087 F900
G02 X59.1820 Y18.6123 I-0.9505 J0.7711 F900
G00 Z5.0000 F180


;No. 5: Part 12
G00 X90.8922 Y18.7354 Z5.0000 F1500
G00 Z0.5000 F180
G01 Z-2.0000 F300
G02 X92.3940 Y20.2316 I1.1828 J0.3146 F900
G02 X92.9389 Y18.1830 I-0.3189 J-1.1816 F900
G02 X90.8922 Y18.7354 I-0.8639 J0.8670 F900
G01 Z-4.0000 F300
G02 X92.3940 Y20.2316 I1.1828 J0.3146 F900
G02 X92.9389 Y18.1830 I-0.3189 J-1.1816 F900
G02 X90.8922 Y18.7354 I-0.8639 J0.8670 F900
G01 Z-6.0000 F300
G02 X92.3940 Y20.2316 I1.1828 J0.3146 F900
G02 X92.9389 Y18.1830 I-0.3189 J-1.1816 F900
G02 X90.8922 Y18.7354 I-0.8639 J0.8670 F900
G01 Z-8.0000 F300
G02 X92.3940 Y20.2316 I1.1828 J0.3146 F900
G02 X92.9389 Y18.1830 I-0.3189 J-1.1816 F900
G02 X90.8922 Y18.7354 I-0.8639 J0.8670 F900
G01 Z-10.0000 F300
G02 X92.3940 Y20.2316 I1.1828 J0.3146 F900
G02 X92.9389 Y18.1830 I-0.3189 J-1.1816 F900
G02 X90.8922 Y18.7354 I-0.8639 J0.8670 F900
G01 Z-12.0000 F300
G02 X92.3940 Y20.2316 I1.1828 J0.3146 F900
G02 X92.9389 Y18.1830 I-0.3189 J-1.1816 F900
G02 X90.8922 Y18.7354 I-0.8639 J0.8670 F900
G01 Z-14.0000 F300
G02 X92.3940 Y20.2316 I1.1828 J0.3146 F900
G02 X92.9389 Y18.1830 I-0.3189 J-1.1816 F900
G02 X90.8922 Y18.7354 I-0.8639 J0.8670 F900
G01 Z-16.0000 F300
G02 X92.3940 Y20.2316 I1.1828 J0.3146 F900
G02 X92.9389 Y18.1830 I-0.3189 J-1.1816 F900
G02 X90.8922 Y18.7354 I-0.8639 J0.8670 F900
G01 Z-18.0000 F300
G02 X92.3940 Y20.2316 I1.1828 J0.3146 F900
G02 X92.9389 Y18.1830 I-0.3189 J-1.1816 F900
G02 X90.8922 Y18.7354 I-0.8639 J0.8670 F900
G01 Z-20.0000 F300
G02 X92.3940 Y20.2316 I1.1828 J0.3146 F900
G02 X92.9389 Y18.1830 I-0.3189 J-1.1816 F900
G02 X90.8922 Y18.7354 I-0.8639 J0.8670 F900
G01 Z-22.0000 F300
G02 X92.3940 Y20.2316 I1.1828 J0.3146 F900
G02 X92.9389 Y18.1830 I-0.3189 J-1.1816 F900
G02 X90.8922 Y18.7354 I-0.8639 J0.8670 F900
G01 Z-24.0000 F300
G02 X92.3940 Y20.2316 I1.1828 J0.3146 F900
G02 X92.9389 Y18.1830 I-0.3189 J-1.1816 F900
G02 X90.8922 Y18.7354 I-0.8639 J0.8670 F900
G00 Z5.0000 F180


;No. 6: Part 13
G00 X91.0476 Y50.1349 Z5.0000 F1500
G00 Z0.5000 F180
G01 Z-2.0000 F300
G02 X92.0127 Y52.0223 I1.0275 J0.6651 F900
G02 X93.1648 Y50.2427 I0.0623 J-1.2224 F900
G02 X91.0476 Y50.1349 I-1.0897 J0.5572 F900
G01 Z-4.0000 F300
G02 X92.0127 Y52.0223 I1.0275 J0.6651 F900
G02 X93.1648 Y50.2427 I0.0623 J-1.2224 F900
G02 X91.0476 Y50.1349 I-1.0897 J0.5572 F900
G01 Z-6.0000 F300
G02 X92.0127 Y52.0223 I1.0275 J0.6651 F900
G02 X93.1648 Y50.2427 I0.0623 J-1.2224 F900
G02 X91.0476 Y50.1349 I-1.0897 J0.5572 F900
G01 Z-8.0000 F300
G02 X92.0127 Y52.0223 I1.0275 J0.6651 F900
G02 X93.1648 Y50.2427 I0.0623 J-1.2224 F900
G02 X91.0476 Y50.1349 I-1.0897 J0.5572 F900
G01 Z-10.0000 F300
G02 X92.0127 Y52.0223 I1.0275 J0.6651 F900
G02 X93.1648 Y50.2427 I0.0623 J-1.2224 F900
G02 X91.0476 Y50.1349 I-1.0897 J0.5572 F900
G01 Z-12.0000 F300
G02 X92.0127 Y52.0223 I1.0275 J0.6651 F900
G02 X93.1648 Y50.2427 I0.0623 J-1.2224 F900
G02 X91.0476 Y50.1349 I-1.0897 J0.5572 F900
G01 Z-14.0000 F300
G02 X92.0127 Y52.0223 I1.0275 J0.6651 F900
G02 X93.1648 Y50.2427 I0.0623 J-1.2224 F900
G02 X91.0476 Y50.1349 I-1.0897 J0.5572 F900
G01 Z-16.0000 F300
G02 X92.0127 Y52.0223 I1.0275 J0.6651 F900
G02 X93.1648 Y50.2427 I0.0623 J-1.2224 F900
G02 X91.0476 Y50.1349 I-1.0897 J0.5572 F900
G01 Z-18.0000 F300
G02 X92.0127 Y52.0223 I1.0275 J0.6651 F900
G02 X93.1648 Y50.2427 I0.0623 J-1.2224 F900
G02 X91.0476 Y50.1349 I-1.0897 J0.5572 F900
G01 Z-20.0000 F300
G02 X92.0127 Y52.0223 I1.0275 J0.6651 F900
G02 X93.1648 Y50.2427 I0.0623 J-1.2224 F900
G02 X91.0476 Y50.1349 I-1.0897 J0.5572 F900
G01 Z-22.0000 F300
G02 X92.0127 Y52.0223 I1.0275 J0.6651 F900
G02 X93.1648 Y50.2427 I0.0623 J-1.2224 F900
G02 X91.0476 Y50.1349 I-1.0897 J0.5572 F900
G01 Z-24.0000 F300
G02 X92.0127 Y52.0223 I1.0275 J0.6651 F900
G02 X93.1648 Y50.2427 I0.0623 J-1.2224 F900
G02 X91.0476 Y50.1349 I-1.0897 J0.5572 F900
G00 Z5.0000 F180


;No. 7: Part 14
G00 X91.2080 Y81.6862 Z5.0000 F1500
G00 Z0.5000 F180
G01 Z-2.0000 F300
G02 X91.7604 Y83.7328 I0.8671 J0.8638 F900
G02 X93.2566 Y82.2311 I0.3146 J-1.1828 F900
G02 X91.2080 Y81.6862 I-1.1816 J0.3190 F900
G01 Z-4.0000 F300
G02 X91.7604 Y83.7328 I0.8671 J0.8638 F900
G02 X93.2566 Y82.2311 I0.3146 J-1.1828 F900
G02 X91.2080 Y81.6862 I-1.1816 J0.3190 F900
G01 Z-6.0000 F300
G02 X91.7604 Y83.7328 I0.8671 J0.8638 F900
G02 X93.2566 Y82.2311 I0.3146 J-1.1828 F900
G02 X91.2080 Y81.6862 I-1.1816 J0.3190 F900
G01 Z-8.0000 F300
G02 X91.7604 Y83.7328 I0.8671 J0.8638 F900
G02 X93.2566 Y82.2311 I0.3146 J-1.1828 F900
G02 X91.2080 Y81.6862 I-1.1816 J0.3190 F900
G01 Z-10.0000 F300
G02 X91.7604 Y83.7328 I0.8671 J0.8638 F900
G02 X93.2566 Y82.2311 I0.3146 J-1.1828 F900
G02 X91.2080 Y81.6862 I-1.1816 J0.3190 F900
G01 Z-12.0000 F300
G02 X91.7604 Y83.7328 I0.8671 J0.8638 F900
G02 X93.2566 Y82.2311 I0.3146 J-1.1828 F900
G02 X91.2080 Y81.6862 I-1.1816 J0.3190 F900
G01 Z-14.0000 F300
G02 X91.7604 Y83.7328 I0.8671 J0.8638 F900
G02 X93.2566 Y82.2311 I0.3146 J-1.1828 F900
G02 X91.2080 Y81.6862 I-1.1816 J0.3190 F900
G01 Z-16.0000 F300
G02 X91.7604 Y83.7328 I0.8671 J0.8638 F900
G02 X93.2566 Y82.2311 I0.3146 J-1.1828 F900
G02 X91.2080 Y81.6862 I-1.1816 J0.3190 F900
G01 Z-18.0000 F300
G02 X91.7604 Y83.7328 I0.8671 J0.8638 F900
G02 X93.2566 Y82.2311 I0.3146 J-1.1828 F900
G02 X91.2080 Y81.6862 I-1.1816 J0.3190 F900
G01 Z-20.0000 F300
G02 X91.7604 Y83.7328 I0.8671 J0.8638 F900
G02 X93.2566 Y82.2311 I0.3146 J-1.1828 F900
G02 X91.2080 Y81.6862 I-1.1816 J0.3190 F900
G01 Z-22.0000 F300
G02 X91.7604 Y83.7328 I0.8671 J0.8638 F900
G02 X93.2566 Y82.2311 I0.3146 J-1.1828 F900
G02 X91.2080 Y81.6862 I-1.1816 J0.3190 F900
G01 Z-24.0000 F300
G02 X91.7604 Y83.7328 I0.8671 J0.8638 F900
G02 X93.2566 Y82.2311 I0.3146 J-1.1828 F900
G02 X91.2080 Y81.6862 I-1.1816 J0.3190 F900
G00 Z5.0000 F180


;No. 8: Part 9
G00 X59.6573 Y81.5242 Z5.0000 F1500
G00 Z0.5000 F180
G01 Z-2.0000 F300
G02 X59.7706 Y83.6411 I0.6678 J1.0257 F900
G02 X61.5472 Y82.4846 I0.5544 J-1.0912 F900
G02 X59.6573 Y81.5242 I-1.2222 J0.0654 F900
G01 Z-4.0000 F300
G02 X59.7706 Y83.6411 I0.6678 J1.0257 F900
G02 X61.5472 Y82.4846 I0.5544 J-1.0912 F900
G02 X59.6573 Y81.5242 I-1.2222 J0.0654 F900
G01 Z-6.0000 F300
G02 X59.7706 Y83.6411 I0.6678 J1.0257 F900
G02 X61.5472 Y82.4846 I0.5544 J-1.0912 F900
G02 X59.6573 Y81.5242 I-1.2222 J0.0654 F900
G01 Z-8.0000 F300
G02 X59.7706 Y83.6411 I0.6678 J1.0257 F900
G02 X61.5472 Y82.4846 I0.5544 J-1.0912 F900
G02 X59.6573 Y81.5242 I-1.2222 J0.0654 F900
G01 Z-10.0000 F300
G02 X59.7706 Y83.6411 I0.6678 J1.0257 F900
G02 X61.5472 Y82.4846 I0.5544 J-1.0912 F900
G02 X59.6573 Y81.5242 I-1.2222 J0.0654 F900
G01 Z-12.0000 F300
G02 X59.7706 Y83.6411 I0.6678 J1.0257 F900
G02 X61.5472 Y82.4846 I0.5544 J-1.0912 F900
G02 X59.6573 Y81.5242 I-1.2222 J0.0654 F900
G01 Z-14.0000 F300
G02 X59.7706 Y83.6411 I0.6678 J1.0257 F900
G02 X61.5472 Y82.4846 I0.5544 J-1.0912 F900
G02 X59.6573 Y81.5242 I-1.2222 J0.0654 F900
G01 Z-16.0000 F300
G02 X59.7706 Y83.6411 I0.6678 J1.0257 F900
G02 X61.5472 Y82.4846 I0.5544 J-1.0912 F900
G02 X59.6573 Y81.5242 I-1.2222 J0.0654 F900
G01 Z-18.0000 F300
G02 X59.7706 Y83.6411 I0.6678 J1.0257 F900
G02 X61.5472 Y82.4846 I0.5544 J-1.0912 F900
G02 X59.6573 Y81.5242 I-1.2222 J0.0654 F900
G01 Z-20.0000 F300
G02 X59.7706 Y83.6411 I0.6678 J1.0257 F900
G02 X61.5472 Y82.4846 I0.5544 J-1.0912 F900
G02 X59.6573 Y81.5242 I-1.2222 J0.0654 F900
G01 Z-22.0000 F300
G02 X59.7706 Y83.6411 I0.6678 J1.0257 F900
G02 X61.5472 Y82.4846 I0.5544 J-1.0912 F900
G02 X59.6573 Y81.5242 I-1.2222 J0.0654 F900
G01 Z-24.0000 F300
G02 X59.7706 Y83.6411 I0.6678 J1.0257 F900
G02 X61.5472 Y82.4846 I0.5544 J-1.0912 F900
G02 X59.6573 Y81.5242 I-1.2222 J0.0654 F900
G00 Z5.0000 F180


;No. 9: Part 4
G00 X28.2565 Y81.3683 Z5.0000 F1500
G00 Z0.5000 F180
G01 Z-2.0000 F300
G02 X27.7108 Y83.4168 I0.3185 J1.1818 F900
G02 X29.7577 Y82.8651 I0.8642 J-0.8667 F900
G02 X28.2565 Y81.3683 I-1.1827 J-0.3150 F900
G01 Z-4.0000 F300
G02 X27.7108 Y83.4168 I0.3185 J1.1818 F900
G02 X29.7577 Y82.8651 I0.8642 J-0.8667 F900
G02 X28.2565 Y81.3683 I-1.1827 J-0.3150 F900
G01 Z-6.0000 F300
G02 X27.7108 Y83.4168 I0.3185 J1.1818 F900
G02 X29.7577 Y82.8651 I0.8642 J-0.8667 F900
G02 X28.2565 Y81.3683 I-1.1827 J-0.3150 F900
G01 Z-8.0000 F300
G02 X27.7108 Y83.4168 I0.3185 J1.1818 F900
G02 X29.7577 Y82.8651 I0.8642 J-0.8667 F900
G02 X28.2565 Y81.3683 I-1.1827 J-0.3150 F900
G01 Z-10.0000 F300
G02 X27.7108 Y83.4168 I0.3185 J1.1818 F900
G02 X29.7577 Y82.8651 I0.8642 J-0.8667 F900
G02 X28.2565 Y81.3683 I-1.1827 J-0.3150 F900
G01 Z-12.0000 F300
G02 X27.7108 Y83.4168 I0.3185 J1.1818 F900
G02 X29.7577 Y82.8651 I0.8642 J-0.8667 F900
G02 X28.2565 Y81.3683 I-1.1827 J-0.3150 F900
G01 Z-14.0000 F300
G02 X27.7108 Y83.4168 I0.3185 J1.1818 F900
G02 X29.7577 Y82.8651 I0.8642 J-0.8667 F900
G02 X28.2565 Y81.3683 I-1.1827 J-0.3150 F900
G01 Z-16.0000 F300
G02 X27.7108 Y83.4168 I0.3185 J1.1818 F900
G02 X29.7577 Y82.8651 I0.8642 J-0.8667 F900
G02 X28.2565 Y81.3683 I-1.1827 J-0.3150 F900
G01 Z-18.0000 F300
G02 X27.7108 Y83.4168 I0.3185 J1.1818 F900
G02 X29.7577 Y82.8651 I0.8642 J-0.8667 F900
G02 X28.2565 Y81.3683 I-1.1827 J-0.3150 F900
G01 Z-20.0000 F300
G02 X27.7108 Y83.4168 I0.3185 J1.1818 F900
G02 X29.7577 Y82.8651 I0.8642 J-0.8667 F900
G02 X28.2565 Y81.3683 I-1.1827 J-0.3150 F900
G01 Z-22.0000 F300
G02 X27.7108 Y83.4168 I0.3185 J1.1818 F900
G02 X29.7577 Y82.8651 I0.8642 J-0.8667 F900
G02 X28.2565 Y81.3683 I-1.1827 J-0.3150 F900
G01 Z-24.0000 F300
G02 X27.7108 Y83.4168 I0.3185 J1.1818 F900
G02 X29.7577 Y82.8651 I0.8642 J-0.8667 F900
G02 X28.2565 Y81.3683 I-1.1827 J-0.3150 F900
G00 Z5.0000 F180


;No. 10: Part 5
G00 X28.3209 Y113.1025 Z5.0000 F1500
G00 Z0.5000 F180
G01 Z-2.0000 F300
G02 X27.6649 Y115.1187 I0.2540 J1.1975 F900
G02 X29.7390 Y114.6787 I0.9100 J-0.8187 F900
G02 X28.3209 Y113.1025 I-1.1641 J-0.3787 F900
G01 Z-4.0000 F300
G02 X27.6649 Y115.1187 I0.2540 J1.1975 F900
G02 X29.7390 Y114.6787 I0.9100 J-0.8187 F900
G02 X28.3209 Y113.1025 I-1.1641 J-0.3787 F900
G01 Z-6.0000 F300
G02 X27.6649 Y115.1187 I0.2540 J1.1975 F900
G02 X29.7390 Y114.6787 I0.9100 J-0.8187 F900
G02 X28.3209 Y113.1025 I-1.1641 J-0.3787 F900
G01 Z-8.0000 F300
G02 X27.6649 Y115.1187 I0.2540 J1.1975 F900
G02 X29.7390 Y114.6787 I0.9100 J-0.8187 F900
G02 X28.3209 Y113.1025 I-1.1641 J-0.3787 F900
G01 Z-10.0000 F300
G02 X27.6649 Y115.1187 I0.2540 J1.1975 F900
G02 X29.7390 Y114.6787 I0.9100 J-0.8187 F900
G02 X28.3209 Y113.1025 I-1.1641 J-0.3787 F900
G01 Z-12.0000 F300
G02 X27.6649 Y115.1187 I0.2540 J1.1975 F900
G02 X29.7390 Y114.6787 I0.9100 J-0.8187 F900
G02 X28.3209 Y113.1025 I-1.1641 J-0.3787 F900
G01 Z-14.0000 F300
G02 X27.6649 Y115.1187 I0.2540 J1.1975 F900
G02 X29.7390 Y114.6787 I0.9100 J-0.8187 F900
G02 X28.3209 Y113.1025 I-1.1641 J-0.3787 F900
G01 Z-16.0000 F300
G02 X27.6649 Y115.1187 I0.2540 J1.1975 F900
G02 X29.7390 Y114.6787 I0.9100 J-0.8187 F900
G02 X28.3209 Y113.1025 I-1.1641 J-0.3787 F900
G01 Z-18.0000 F300
G02 X27.6649 Y115.1187 I0.2540 J1.1975 F900
G02 X29.7390 Y114.6787 I0.9100 J-0.8187 F900
G02 X28.3209 Y113.1025 I-1.1641 J-0.3787 F900
G01 Z-20.0000 F300
G02 X27.6649 Y115.1187 I0.2540 J1.1975 F900
G02 X29.7390 Y114.6787 I0.9100 J-0.8187 F900
G02 X28.3209 Y113.1025 I-1.1641 J-0.3787 F900
G01 Z-22.0000 F300
G02 X27.6649 Y115.1187 I0.2540 J1.1975 F900
G02 X29.7390 Y114.6787 I0.9100 J-0.8187 F900
G02 X28.3209 Y113.1025 I-1.1641 J-0.3787 F900
G01 Z-24.0000 F300
G02 X27.6649 Y115.1187 I0.2540 J1.1975 F900
G02 X29.7390 Y114.6787 I0.9100 J-0.8187 F900
G02 X28.3209 Y113.1025 I-1.1641 J-0.3787 F900
G00 Z5.0000 F180


;No. 11: Part 10
G00 X59.8235 Y113.1832 Z5.0000 F1500
G00 Z0.5000 F180
G01 Z-2.0000 F300
G02 X59.1027 Y114.2377 I0.5025 J1.1172 F900
G01 X59.1011 Y114.3013 F900
G01 X59.1029 Y114.3666 F900
G02 X61.5471 Y114.2334 I1.2221 J-0.0668 F900
G02 X59.8235 Y113.1832 I-1.2223 J0.0667 F900
G01 Z-4.0000 F300
G02 X59.1027 Y114.2377 I0.5025 J1.1172 F900
G01 X59.1011 Y114.3013 F900
G01 X59.1029 Y114.3666 F900
G02 X61.5471 Y114.2334 I1.2221 J-0.0668 F900
G02 X59.8235 Y113.1832 I-1.2223 J0.0667 F900
G01 Z-6.0000 F300
G02 X59.1027 Y114.2377 I0.5025 J1.1172 F900
G01 X59.1011 Y114.3013 F900
G01 X59.1029 Y114.3666 F900
G02 X61.5471 Y114.2334 I1.2221 J-0.0668 F900
G02 X59.8235 Y113.1832 I-1.2223 J0.0667 F900
G01 Z-8.0000 F300
G02 X59.1027 Y114.2377 I0.5025 J1.1172 F900
G01 X59.1011 Y114.3013 F900
G01 X59.1029 Y114.3666 F900
G02 X61.5471 Y114.2334 I1.2221 J-0.0668 F900
G02 X59.8235 Y113.1832 I-1.2223 J0.0667 F900
G01 Z-10.0000 F300
G02 X59.1027 Y114.2377 I0.5025 J1.1172 F900
G01 X59.1011 Y114.3013 F900
G01 X59.1029 Y114.3666 F900
G02 X61.5471 Y114.2334 I1.2221 J-0.0668 F900
G02 X59.8235 Y113.1832 I-1.2223 J0.0667 F900
G01 Z-12.0000 F300
G02 X59.1027 Y114.2377 I0.5025 J1.1172 F900
G01 X59.1011 Y114.3013 F900
G01 X59.1029 Y114.3666 F900
G02 X61.5471 Y114.2334 I1.2221 J-0.0668 F900
G02 X59.8235 Y113.1832 I-1.2223 J0.0667 F900
G01 Z-14.0000 F300
G02 X59.1027 Y114.2377 I0.5025 J1.1172 F900
G01 X59.1011 Y114.3013 F900
G01 X59.1029 Y114.3666 F900
G02 X61.5471 Y114.2334 I1.2221 J-0.0668 F900
G02 X59.8235 Y113.1832 I-1.2223 J0.0667 F900
G01 Z-16.0000 F300
G02 X59.1027 Y114.2377 I0.5025 J1.1172 F900
G01 X59.1011 Y114.3013 F900
G01 X59.1029 Y114.3666 F900
G02 X61.5471 Y114.2334 I1.2221 J-0.0668 F900
G02 X59.8235 Y113.1832 I-1.2223 J0.0667 F900
G01 Z-18.0000 F300
G02 X59.1027 Y114.2377 I0.5025 J1.1172 F900
G01 X59.1011 Y114.3013 F900
G01 X59.1029 Y114.3666 F900
G02 X61.5471 Y114.2334 I1.2221 J-0.0668 F900
G02 X59.8235 Y113.1832 I-1.2223 J0.0667 F900
G01 Z-20.0000 F300
G02 X59.1027 Y114.2377 I0.5025 J1.1172 F900
G01 X59.1011 Y114.3013 F900
G01 X59.1029 Y114.3666 F900
G02 X61.5471 Y114.2334 I1.2221 J-0.0668 F900
G02 X59.8235 Y113.1832 I-1.2223 J0.0667 F900
G01 Z-22.0000 F300
G02 X59.1027 Y114.2377 I0.5025 J1.1172 F900
G01 X59.1011 Y114.3013 F900
G01 X59.1029 Y114.3666 F900
G02 X61.5471 Y114.2334 I1.2221 J-0.0668 F900
G02 X59.8235 Y113.1832 I-1.2223 J0.0667 F900
G01 Z-24.0000 F300
G02 X59.1027 Y114.2377 I0.5025 J1.1172 F900
G01 X59.1011 Y114.3013 F900
G01 X59.1029 Y114.3666 F900
G02 X61.5471 Y114.2334 I1.2221 J-0.0668 F900
G02 X59.8235 Y113.1832 I-1.2223 J0.0667 F900
G00 Z5.0000 F180


;No. 12: Part 15
G00 X91.3557 Y113.3099 Z5.0000 F1500
G00 Z0.5000 F180
G01 Z-2.0000 F300
G02 X90.8527 Y114.2377 I0.7190 J0.9902 F900
G01 X90.8511 Y114.3013 F900
G01 X90.8529 Y114.3666 F900
G02 X93.2971 Y114.2334 I1.2221 J-0.0668 F900
G02 X91.3557 Y113.3099 I-1.2218 J0.0660 F900
G01 Z-4.0000 F300
G02 X90.8527 Y114.2377 I0.7190 J0.9902 F900
G01 X90.8511 Y114.3013 F900
G01 X90.8529 Y114.3666 F900
G02 X93.2971 Y114.2334 I1.2221 J-0.0668 F900
G02 X91.3557 Y113.3099 I-1.2218 J0.0660 F900
G01 Z-6.0000 F300
G02 X90.8527 Y114.2377 I0.7190 J0.9902 F900
G01 X90.8511 Y114.3013 F900
G01 X90.8529 Y114.3666 F900
G02 X93.2971 Y114.2334 I1.2221 J-0.0668 F900
G02 X91.3557 Y113.3099 I-1.2218 J0.0660 F900
G01 Z-8.0000 F300
G02 X90.8527 Y114.2377 I0.7190 J0.9902 F900
G01 X90.8511 Y114.3013 F900
G01 X90.8529 Y114.3666 F900
G02 X93.2971 Y114.2334 I1.2221 J-0.0668 F900
G02 X91.3557 Y113.3099 I-1.2218 J0.0660 F900
G01 Z-10.0000 F300
G02 X90.8527 Y114.2377 I0.7190 J0.9902 F900
G01 X90.8511 Y114.3013 F900
G01 X90.8529 Y114.3666 F900
G02 X93.2971 Y114.2334 I1.2221 J-0.0668 F900
G02 X91.3557 Y113.3099 I-1.2218 J0.0660 F900
G01 Z-12.0000 F300
G02 X90.8527 Y114.2377 I0.7190 J0.9902 F900
G01 X90.8511 Y114.3013 F900
G01 X90.8529 Y114.3666 F900
G02 X93.2971 Y114.2334 I1.2221 J-0.0668 F900
G02 X91.3557 Y113.3099 I-1.2218 J0.0660 F900
G01 Z-14.0000 F300
G02 X90.8527 Y114.2377 I0.7190 J0.9902 F900
G01 X90.8511 Y114.3013 F900
G01 X90.8529 Y114.3666 F900
G02 X93.2971 Y114.2334 I1.2221 J-0.0668 F900
G02 X91.3557 Y113.3099 I-1.2218 J0.0660 F900
G01 Z-16.0000 F300
G02 X90.8527 Y114.2377 I0.7190 J0.9902 F900
G01 X90.8511 Y114.3013 F900
G01 X90.8529 Y114.3666 F900
G02 X93.2971 Y114.2334 I1.2221 J-0.0668 F900
G02 X91.3557 Y113.3099 I-1.2218 J0.0660 F900
G01 Z-18.0000 F300
G02 X90.8527 Y114.2377 I0.7190 J0.9902 F900
G01 X90.8511 Y114.3013 F900
G01 X90.8529 Y114.3666 F900
G02 X93.2971 Y114.2334 I1.2221 J-0.0668 F900
G02 X91.3557 Y113.3099 I-1.2218 J0.0660 F900
G01 Z-20.0000 F300
G02 X90.8527 Y114.2377 I0.7190 J0.9902 F900
G01 X90.8511 Y114.3013 F900
G01 X90.8529 Y114.3666 F900
G02 X93.2971 Y114.2334 I1.2221 J-0.0668 F900
G02 X91.3557 Y113.3099 I-1.2218 J0.0660 F900
G01 Z-22.0000 F300
G02 X90.8527 Y114.2377 I0.7190 J0.9902 F900
G01 X90.8511 Y114.3013 F900
G01 X90.8529 Y114.3666 F900
G02 X93.2971 Y114.2334 I1.2221 J-0.0668 F900
G02 X91.3557 Y113.3099 I-1.2218 J0.0660 F900
G01 Z-24.0000 F300
G02 X90.8527 Y114.2377 I0.7190 J0.9902 F900
G01 X90.8511 Y114.3013 F900
G01 X90.8529 Y114.3666 F900
G02 X93.2971 Y114.2334 I1.2221 J-0.0668 F900
G02 X91.3557 Y113.3099 I-1.2218 J0.0660 F900
G00 Z5.0000 F180


;No. 13: Part 20
G00 X122.9592 Y113.4342 Z5.0000 F1500
G00 Z0.5000 F180
G01 Z-2.0000 F300
G02 X122.6011 Y114.2986 I0.8733 J0.8682 F900
G01 X122.6027 Y114.3596 F900
G02 X125.0467 Y114.2293 I1.2223 J-0.0596 F900
G02 X122.9592 Y113.4342 I-1.2224 J0.0713 F900
G01 Z-4.0000 F300
G02 X122.6011 Y114.2986 I0.8733 J0.8682 F900
G01 X122.6027 Y114.3596 F900
G02 X125.0467 Y114.2293 I1.2223 J-0.0596 F900
G02 X122.9592 Y113.4342 I-1.2224 J0.0713 F900
G01 Z-6.0000 F300
G02 X122.6011 Y114.2986 I0.8733 J0.8682 F900
G01 X122.6027 Y114.3596 F900
G02 X125.0467 Y114.2293 I1.2223 J-0.0596 F900
G02 X122.9592 Y113.4342 I-1.2224 J0.0713 F900
G01 Z-8.0000 F300
G02 X122.6011 Y114.2986 I0.8733 J0.8682 F900
G01 X122.6027 Y114.3596 F900
G02 X125.0467 Y114.2293 I1.2223 J-0.0596 F900
G02 X122.9592 Y113.4342 I-1.2224 J0.0713 F900
G01 Z-10.0000 F300
G02 X122.6011 Y114.2986 I0.8733 J0.8682 F900
G01 X122.6027 Y114.3596 F900
G02 X125.0467 Y114.2293 I1.2223 J-0.0596 F900
G02 X122.9592 Y113.4342 I-1.2224 J0.0713 F900
G01 Z-12.0000 F300
G02 X122.6011 Y114.2986 I0.8733 J0.8682 F900
G01 X122.6027 Y114.3596 F900
G02 X125.0467 Y114.2293 I1.2223 J-0.0596 F900
G02 X122.9592 Y113.4342 I-1.2224 J0.0713 F900
G01 Z-14.0000 F300
G02 X122.6011 Y114.2986 I0.8733 J0.8682 F900
G01 X122.6027 Y114.3596 F900
G02 X125.0467 Y114.2293 I1.2223 J-0.0596 F900
G02 X122.9592 Y113.4342 I-1.2224 J0.0713 F900
G01 Z-16.0000 F300
G02 X122.6011 Y114.2986 I0.8733 J0.8682 F900
G01 X122.6027 Y114.3596 F900
G02 X125.0467 Y114.2293 I1.2223 J-0.0596 F900
G02 X122.9592 Y113.4342 I-1.2224 J0.0713 F900
G01 Z-18.0000 F300
G02 X122.6011 Y114.2986 I0.8733 J0.8682 F900
G01 X122.6027 Y114.3596 F900
G02 X125.0467 Y114.2293 I1.2223 J-0.0596 F900
G02 X122.9592 Y113.4342 I-1.2224 J0.0713 F900
G01 Z-20.0000 F300
G02 X122.6011 Y114.2986 I0.8733 J0.8682 F900
G01 X122.6027 Y114.3596 F900
G02 X125.0467 Y114.2293 I1.2223 J-0.0596 F900
G02 X122.9592 Y113.4342 I-1.2224 J0.0713 F900
G01 Z-22.0000 F300
G02 X122.6011 Y114.2986 I0.8733 J0.8682 F900
G01 X122.6027 Y114.3596 F900
G02 X125.0467 Y114.2293 I1.2223 J-0.0596 F900
G02 X122.9592 Y113.4342 I-1.2224 J0.0713 F900
G01 Z-24.0000 F300
G02 X122.6011 Y114.2986 I0.8733 J0.8682 F900
G01 X122.6027 Y114.3596 F900
G02 X125.0467 Y114.2293 I1.2223 J-0.0596 F900
G02 X122.9592 Y113.4342 I-1.2224 J0.0713 F900
G00 Z5.0000 F180


;No. 14: Part 19
G00 X122.8349 Y81.8307 Z5.0000 F1500
G00 Z0.5000 F180
G01 Z-2.0000 F300
G02 X122.6011 Y82.5486 I0.9927 J0.7203 F900
G01 X122.6027 Y82.6097 F900
G02 X125.0473 Y82.4903 I1.2223 J-0.0596 F900
G02 X122.8349 Y81.8307 I-1.2222 J0.0594 F900
G01 Z-4.0000 F300
G02 X122.6011 Y82.5486 I0.9927 J0.7203 F900
G01 X122.6027 Y82.6097 F900
G02 X125.0473 Y82.4903 I1.2223 J-0.0596 F900
G02 X122.8349 Y81.8307 I-1.2222 J0.0594 F900
G01 Z-6.0000 F300
G02 X122.6011 Y82.5486 I0.9927 J0.7203 F900
G01 X122.6027 Y82.6097 F900
G02 X125.0473 Y82.4903 I1.2223 J-0.0596 F900
G02 X122.8349 Y81.8307 I-1.2222 J0.0594 F900
G01 Z-8.0000 F300
G02 X122.6011 Y82.5486 I0.9927 J0.7203 F900
G01 X122.6027 Y82.6097 F900
G02 X125.0473 Y82.4903 I1.2223 J-0.0596 F900
G02 X122.8349 Y81.8307 I-1.2222 J0.0594 F900
G01 Z-10.0000 F300
G02 X122.6011 Y82.5486 I0.9927 J0.7203 F900
G01 X122.6027 Y82.6097 F900
G02 X125.0473 Y82.4903 I1.2223 J-0.0596 F900
G02 X122.8349 Y81.8307 I-1.2222 J0.0594 F900
G01 Z-12.0000 F300
G02 X122.6011 Y82.5486 I0.9927 J0.7203 F900
G01 X122.6027 Y82.6097 F900
G02 X125.0473 Y82.4903 I1.2223 J-0.0596 F900
G02 X122.8349 Y81.8307 I-1.2222 J0.0594 F900
G01 Z-14.0000 F300
G02 X122.6011 Y82.5486 I0.9927 J0.7203 F900
G01 X122.6027 Y82.6097 F900
G02 X125.0473 Y82.4903 I1.2223 J-0.0596 F900
G02 X122.8349 Y81.8307 I-1.2222 J0.0594 F900
G01 Z-16.0000 F300
G02 X122.6011 Y82.5486 I0.9927 J0.7203 F900
G01 X122.6027 Y82.6097 F900
G02 X125.0473 Y82.4903 I1.2223 J-0.0596 F900
G02 X122.8349 Y81.8307 I-1.2222 J0.0594 F900
G01 Z-18.0000 F300
G02 X122.6011 Y82.5486 I0.9927 J0.7203 F900
G01 X122.6027 Y82.6097 F900
G02 X125.0473 Y82.4903 I1.2223 J-0.0596 F900
G02 X122.8349 Y81.8307 I-1.2222 J0.0594 F900
G01 Z-20.0000 F300
G02 X122.6011 Y82.5486 I0.9927 J0.7203 F900
G01 X122.6027 Y82.6097 F900
G02 X125.0473 Y82.4903 I1.2223 J-0.0596 F900
G02 X122.8349 Y81.8307 I-1.2222 J0.0594 F900
G01 Z-22.0000 F300
G02 X122.6011 Y82.5486 I0.9927 J0.7203 F900
G01 X122.6027 Y82.6097 F900
G02 X125.0473 Y82.4903 I1.2223 J-0.0596 F900
G02 X122.8349 Y81.8307 I-1.2222 J0.0594 F900
G01 Z-24.0000 F300
G02 X122.6011 Y82.5486 I0.9927 J0.7203 F900
G01 X122.6027 Y82.6097 F900
G02 X125.0473 Y82.4903 I1.2223 J-0.0596 F900
G02 X122.8349 Y81.8307 I-1.2222 J0.0594 F900
G00 Z5.0000 F180


;No. 15: Part 18
G00 X122.7094 Y50.2958 Z5.0000 F1500
G00 Z0.5000 F180
G01 Z-2.0000 F300
G02 X122.6033 Y50.7297 I1.1027 J0.4997 F900
G01 X122.6011 Y50.7986 F900
G01 X122.6033 Y50.8703 F900
G02 X125.0473 Y50.7403 I1.2217 J-0.0701 F900
G02 X122.7094 Y50.2958 I-1.2225 J0.0597 F900
G01 Z-4.0000 F300
G02 X122.6033 Y50.7297 I1.1027 J0.4997 F900
G01 X122.6011 Y50.7986 F900
G01 X122.6033 Y50.8703 F900
G02 X125.0473 Y50.7403 I1.2217 J-0.0701 F900
G02 X122.7094 Y50.2958 I-1.2225 J0.0597 F900
G01 Z-6.0000 F300
G02 X122.6033 Y50.7297 I1.1027 J0.4997 F900
G01 X122.6011 Y50.7986 F900
G01 X122.6033 Y50.8703 F900
G02 X125.0473 Y50.7403 I1.2217 J-0.0701 F900
G02 X122.7094 Y50.2958 I-1.2225 J0.0597 F900
G01 Z-8.0000 F300
G02 X122.6033 Y50.7297 I1.1027 J0.4997 F900
G01 X122.6011 Y50.7986 F900
G01 X122.6033 Y50.8703 F900
G02 X125.0473 Y50.7403 I1.2217 J-0.0701 F900
G02 X122.7094 Y50.2958 I-1.2225 J0.0597 F900
G01 Z-10.0000 F300
G02 X122.6033 Y50.7297 I1.1027 J0.4997 F900
G01 X122.6011 Y50.7986 F900
G01 X122.6033 Y50.8703 F900
G02 X125.0473 Y50.7403 I1.2217 J-0.0701 F900
G02 X122.7094 Y50.2958 I-1.2225 J0.0597 F900
G01 Z-12.0000 F300
G02 X122.6033 Y50.7297 I1.1027 J0.4997 F900
G01 X122.6011 Y50.7986 F900
G01 X122.6033 Y50.8703 F900
G02 X125.0473 Y50.7403 I1.2217 J-0.0701 F900
G02 X122.7094 Y50.2958 I-1.2225 J0.0597 F900
G01 Z-14.0000 F300
G02 X122.6033 Y50.7297 I1.1027 J0.4997 F900
G01 X122.6011 Y50.7986 F900
G01 X122.6033 Y50.8703 F900
G02 X125.0473 Y50.7403 I1.2217 J-0.0701 F900
G02 X122.7094 Y50.2958 I-1.2225 J0.0597 F900
G01 Z-16.0000 F300
G02 X122.6033 Y50.7297 I1.1027 J0.4997 F900
G01 X122.6011 Y50.7986 F900
G01 X122.6033 Y50.8703 F900
G02 X125.0473 Y50.7403 I1.2217 J-0.0701 F900
G02 X122.7094 Y50.2958 I-1.2225 J0.0597 F900
G01 Z-18.0000 F300
G02 X122.6033 Y50.7297 I1.1027 J0.4997 F900
G01 X122.6011 Y50.7986 F900
G01 X122.6033 Y50.8703 F900
G02 X125.0473 Y50.7403 I1.2217 J-0.0701 F900
G02 X122.7094 Y50.2958 I-1.2225 J0.0597 F900
G01 Z-20.0000 F300
G02 X122.6033 Y50.7297 I1.1027 J0.4997 F900
G01 X122.6011 Y50.7986 F900
G01 X122.6033 Y50.8703 F900
G02 X125.0473 Y50.7403 I1.2217 J-0.0701 F900
G02 X122.7094 Y50.2958 I-1.2225 J0.0597 F900
G01 Z-22.0000 F300
G02 X122.6033 Y50.7297 I1.1027 J0.4997 F900
G01 X122.6011 Y50.7986 F900
G01 X122.6033 Y50.8703 F900
G02 X125.0473 Y50.7403 I1.2217 J-0.0701 F900
G02 X122.7094 Y50.2958 I-1.2225 J0.0597 F900
G01 Z-24.0000 F300
G02 X122.6033 Y50.7297 I1.1027 J0.4997 F900
G01 X122.6011 Y50.7986 F900
G01 X122.6033 Y50.8703 F900
G02 X125.0473 Y50.7403 I1.2217 J-0.0701 F900
G02 X122.7094 Y50.2958 I-1.2225 J0.0597 F900
G00 Z5.0000 F180


;No. 16: Part 17
G00 X122.6275 Y18.7959 Z5.0000 F1500
G00 Z0.5000 F180
G01 Z-2.0000 F300
G02 X124.2035 Y20.2139 I1.1974 J0.2541 F900
G02 X124.6436 Y18.1400 I-0.3786 J-1.1640 F900
G02 X122.6275 Y18.7959 I-0.8187 J0.9099 F900
G01 Z-4.0000 F300
G02 X124.2035 Y20.2139 I1.1974 J0.2541 F900
G02 X124.6436 Y18.1400 I-0.3786 J-1.1640 F900
G02 X122.6275 Y18.7959 I-0.8187 J0.9099 F900
G01 Z-6.0000 F300
G02 X124.2035 Y20.2139 I1.1974 J0.2541 F900
G02 X124.6436 Y18.1400 I-0.3786 J-1.1640 F900
G02 X122.6275 Y18.7959 I-0.8187 J0.9099 F900
G01 Z-8.0000 F300
G02 X124.2035 Y20.2139 I1.1974 J0.2541 F900
G02 X124.6436 Y18.1400 I-0.3786 J-1.1640 F900
G02 X122.6275 Y18.7959 I-0.8187 J0.9099 F900
G01 Z-10.0000 F300
G02 X124.2035 Y20.2139 I1.1974 J0.2541 F900
G02 X124.6436 Y18.1400 I-0.3786 J-1.1640 F900
G02 X122.6275 Y18.7959 I-0.8187 J0.9099 F900
G01 Z-12.0000 F300
G02 X124.2035 Y20.2139 I1.1974 J0.2541 F900
G02 X124.6436 Y18.1400 I-0.3786 J-1.1640 F900
G02 X122.6275 Y18.7959 I-0.8187 J0.9099 F900
G01 Z-14.0000 F300
G02 X124.2035 Y20.2139 I1.1974 J0.2541 F900
G02 X124.6436 Y18.1400 I-0.3786 J-1.1640 F900
G02 X122.6275 Y18.7959 I-0.8187 J0.9099 F900
G01 Z-16.0000 F300
G02 X124.2035 Y20.2139 I1.1974 J0.2541 F900
G02 X124.6436 Y18.1400 I-0.3786 J-1.1640 F900
G02 X122.6275 Y18.7959 I-0.8187 J0.9099 F900
G01 Z-18.0000 F300
G02 X124.2035 Y20.2139 I1.1974 J0.2541 F900
G02 X124.6436 Y18.1400 I-0.3786 J-1.1640 F900
G02 X122.6275 Y18.7959 I-0.8187 J0.9099 F900
G01 Z-20.0000 F300
G02 X124.2035 Y20.2139 I1.1974 J0.2541 F900
G02 X124.6436 Y18.1400 I-0.3786 J-1.1640 F900
G02 X122.6275 Y18.7959 I-0.8187 J0.9099 F900
G01 Z-22.0000 F300
G02 X124.2035 Y20.2139 I1.1974 J0.2541 F900
G02 X124.6436 Y18.1400 I-0.3786 J-1.1640 F900
G02 X122.6275 Y18.7959 I-0.8187 J0.9099 F900
G01 Z-24.0000 F300
G02 X124.2035 Y20.2139 I1.1974 J0.2541 F900
G02 X124.6436 Y18.1400 I-0.3786 J-1.1640 F900
G02 X122.6275 Y18.7959 I-0.8187 J0.9099 F900
G00 Z5.0000 F180


;No. 17: Part 22
G00 X154.3656 Y18.8617 Z5.0000 F1500
G00 Z0.5000 F180
G01 Z-2.0000 F300
G02 X154.3511 Y19.0486 I1.2851 J0.1941 F900
G01 X154.3527 Y19.1097 F900
G02 X156.7973 Y18.9903 I1.2223 J-0.0596 F900
G02 X154.3656 Y18.8617 I-1.2224 J0.0597 F900
G01 Z-4.0000 F300
G02 X154.3511 Y19.0486 I1.2851 J0.1941 F900
G01 X154.3527 Y19.1097 F900
G02 X156.7973 Y18.9903 I1.2223 J-0.0596 F900
G02 X154.3656 Y18.8617 I-1.2224 J0.0597 F900
G01 Z-6.0000 F300
G02 X154.3511 Y19.0486 I1.2851 J0.1941 F900
G01 X154.3527 Y19.1097 F900
G02 X156.7973 Y18.9903 I1.2223 J-0.0596 F900
G02 X154.3656 Y18.8617 I-1.2224 J0.0597 F900
G01 Z-8.0000 F300
G02 X154.3511 Y19.0486 I1.2851 J0.1941 F900
G01 X154.3527 Y19.1097 F900
G02 X156.7973 Y18.9903 I1.2223 J-0.0596 F900
G02 X154.3656 Y18.8617 I-1.2224 J0.0597 F900
G01 Z-10.0000 F300
G02 X154.3511 Y19.0486 I1.2851 J0.1941 F900
G01 X154.3527 Y19.1097 F900
G02 X156.7973 Y18.9903 I1.2223 J-0.0596 F900
G02 X154.3656 Y18.8617 I-1.2224 J0.0597 F900
G01 Z-12.0000 F300
G02 X154.3511 Y19.0486 I1.2851 J0.1941 F900
G01 X154.3527 Y19.1097 F900
G02 X156.7973 Y18.9903 I1.2223 J-0.0596 F900
G02 X154.3656 Y18.8617 I-1.2224 J0.0597 F900
G01 Z-14.0000 F300
G02 X154.3511 Y19.0486 I1.2851 J0.1941 F900
G01 X154.3527 Y19.1097 F900
G02 X156.7973 Y18.9903 I1.2223 J-0.0596 F900
G02 X154.3656 Y18.8617 I-1.2224 J0.0597 F900
G01 Z-16.0000 F300
G02 X154.3511 Y19.0486 I1.2851 J0.1941 F900
G01 X154.3527 Y19.1097 F900
G02 X156.7973 Y18.9903 I1.2223 J-0.0596 F900
G02 X154.3656 Y18.8617 I-1.2224 J0.0597 F900
G01 Z-18.0000 F300
G02 X154.3511 Y19.0486 I1.2851 J0.1941 F900
G01 X154.3527 Y19.1097 F900
G02 X156.7973 Y18.9903 I1.2223 J-0.0596 F900
G02 X154.3656 Y18.8617 I-1.2224 J0.0597 F900
G01 Z-20.0000 F300
G02 X154.3511 Y19.0486 I1.2851 J0.1941 F900
G01 X154.3527 Y19.1097 F900
G02 X156.7973 Y18.9903 I1.2223 J-0.0596 F900
G02 X154.3656 Y18.8617 I-1.2224 J0.0597 F900
G01 Z-22.0000 F300
G02 X154.3511 Y19.0486 I1.2851 J0.1941 F900
G01 X154.3527 Y19.1097 F900
G02 X156.7973 Y18.9903 I1.2223 J-0.0596 F900
G02 X154.3656 Y18.8617 I-1.2224 J0.0597 F900
G01 Z-24.0000 F300
G02 X154.3511 Y19.0486 I1.2851 J0.1941 F900
G01 X154.3527 Y19.1097 F900
G02 X156.7973 Y18.9903 I1.2223 J-0.0596 F900
G02 X154.3656 Y18.8617 I-1.2224 J0.0597 F900
G00 Z5.0000 F180


;No. 18: Part 23
G00 X154.4315 Y50.3647 Z5.0000 F1500
G00 Z0.5000 F180
G01 Z-2.0000 F300
G02 X154.3511 Y50.7986 I1.1334 J0.4344 F900
G01 X154.3527 Y50.8597 F900
G02 X156.7973 Y50.7403 I1.2223 J-0.0596 F900
G02 X154.4315 Y50.3647 I-1.2221 J0.0594 F900
G01 Z-4.0000 F300
G02 X154.3511 Y50.7986 I1.1334 J0.4344 F900
G01 X154.3527 Y50.8597 F900
G02 X156.7973 Y50.7403 I1.2223 J-0.0596 F900
G02 X154.4315 Y50.3647 I-1.2221 J0.0594 F900
G01 Z-6.0000 F300
G02 X154.3511 Y50.7986 I1.1334 J0.4344 F900
G01 X154.3527 Y50.8597 F900
G02 X156.7973 Y50.7403 I1.2223 J-0.0596 F900
G02 X154.4315 Y50.3647 I-1.2221 J0.0594 F900
G01 Z-8.0000 F300
G02 X154.3511 Y50.7986 I1.1334 J0.4344 F900
G01 X154.3527 Y50.8597 F900
G02 X156.7973 Y50.7403 I1.2223 J-0.0596 F900
G02 X154.4315 Y50.3647 I-1.2221 J0.0594 F900
G01 Z-10.0000 F300
G02 X154.3511 Y50.7986 I1.1334 J0.4344 F900
G01 X154.3527 Y50.8597 F900
G02 X156.7973 Y50.7403 I1.2223 J-0.0596 F900
G02 X154.4315 Y50.3647 I-1.2221 J0.0594 F900
G01 Z-12.0000 F300
G02 X154.3511 Y50.7986 I1.1334 J0.4344 F900
G01 X154.3527 Y50.8597 F900
G02 X156.7973 Y50.7403 I1.2223 J-0.0596 F900
G02 X154.4315 Y50.3647 I-1.2221 J0.0594 F900
G01 Z-14.0000 F300
G02 X154.3511 Y50.7986 I1.1334 J0.4344 F900
G01 X154.3527 Y50.8597 F900
G02 X156.7973 Y50.7403 I1.2223 J-0.0596 F900
G02 X154.4315 Y50.3647 I-1.2221 J0.0594 F900
G01 Z-16.0000 F300
G02 X154.3511 Y50.7986 I1.1334 J0.4344 F900
G01 X154.3527 Y50.8597 F900
G02 X156.7973 Y50.7403 I1.2223 J-0.0596 F900
G02 X154.4315 Y50.3647 I-1.2221 J0.0594 F900
G01 Z-18.0000 F300
G02 X154.3511 Y50.7986 I1.1334 J0.4344 F900
G01 X154.3527 Y50.8597 F900
G02 X156.7973 Y50.7403 I1.2223 J-0.0596 F900
G02 X154.4315 Y50.3647 I-1.2221 J0.0594 F900
G01 Z-20.0000 F300
G02 X154.3511 Y50.7986 I1.1334 J0.4344 F900
G01 X154.3527 Y50.8597 F900
G02 X156.7973 Y50.7403 I1.2223 J-0.0596 F900
G02 X154.4315 Y50.3647 I-1.2221 J0.0594 F900
G01 Z-22.0000 F300
G02 X154.3511 Y50.7986 I1.1334 J0.4344 F900
G01 X154.3527 Y50.8597 F900
G02 X156.7973 Y50.7403 I1.2223 J-0.0596 F900
G02 X154.4315 Y50.3647 I-1.2221 J0.0594 F900
G01 Z-24.0000 F300
G02 X154.3511 Y50.7986 I1.1334 J0.4344 F900
G01 X154.3527 Y50.8597 F900
G02 X156.7973 Y50.7403 I1.2223 J-0.0596 F900
G02 X154.4315 Y50.3647 I-1.2221 J0.0594 F900
G00 Z5.0000 F180


;No. 19: Part 24
G00 X154.5116 Y81.9439 Z5.0000 F1500
G00 Z0.5000 F180
G01 Z-2.0000 F300
G02 X154.3533 Y82.4797 I1.0612 J0.6049 F900
G01 X154.3511 Y82.5486 F900
G01 X154.3527 Y82.6097 F900
G02 X156.7973 Y82.4903 I1.2223 J-0.0596 F900
G02 X154.5116 Y81.9439 I-1.2224 J0.0597 F900
G01 Z-4.0000 F300
G02 X154.3533 Y82.4797 I1.0612 J0.6049 F900
G01 X154.3511 Y82.5486 F900
G01 X154.3527 Y82.6097 F900
G02 X156.7973 Y82.4903 I1.2223 J-0.0596 F900
G02 X154.5116 Y81.9439 I-1.2224 J0.0597 F900
G01 Z-6.0000 F300
G02 X154.3533 Y82.4797 I1.0612 J0.6049 F900
G01 X154.3511 Y82.5486 F900
G01 X154.3527 Y82.6097 F900
G02 X156.7973 Y82.4903 I1.2223 J-0.0596 F900
G02 X154.5116 Y81.9439 I-1.2224 J0.0597 F900
G01 Z-8.0000 F300
G02 X154.3533 Y82.4797 I1.0612 J0.6049 F900
G01 X154.3511 Y82.5486 F900
G01 X154.3527 Y82.6097 F900
G02 X156.7973 Y82.4903 I1.2223 J-0.0596 F900
G02 X154.5116 Y81.9439 I-1.2224 J0.0597 F900
G01 Z-10.0000 F300
G02 X154.3533 Y82.4797 I1.0612 J0.6049 F900
G01 X154.3511 Y82.5486 F900
G01 X154.3527 Y82.6097 F900
G02 X156.7973 Y82.4903 I1.2223 J-0.0596 F900
G02 X154.5116 Y81.9439 I-1.2224 J0.0597 F900
G01 Z-12.0000 F300
G02 X154.3533 Y82.4797 I1.0612 J0.6049 F900
G01 X154.3511 Y82.5486 F900
G01 X154.3527 Y82.6097 F900
G02 X156.7973 Y82.4903 I1.2223 J-0.0596 F900
G02 X154.5116 Y81.9439 I-1.2224 J0.0597 F900
G01 Z-14.0000 F300
G02 X154.3533 Y82.4797 I1.0612 J0.6049 F900
G01 X154.3511 Y82.5486 F900
G01 X154.3527 Y82.6097 F900
G02 X156.7973 Y82.4903 I1.2223 J-0.0596 F900
G02 X154.5116 Y81.9439 I-1.2224 J0.0597 F900
G01 Z-16.0000 F300
G02 X154.3533 Y82.4797 I1.0612 J0.6049 F900
G01 X154.3511 Y82.5486 F900
G01 X154.3527 Y82.6097 F900
G02 X156.7973 Y82.4903 I1.2223 J-0.0596 F900
G02 X154.5116 Y81.9439 I-1.2224 J0.0597 F900
G01 Z-18.0000 F300
G02 X154.3533 Y82.4797 I1.0612 J0.6049 F900
G01 X154.3511 Y82.5486 F900
G01 X154.3527 Y82.6097 F900
G02 X156.7973 Y82.4903 I1.2223 J-0.0596 F900
G02 X154.5116 Y81.9439 I-1.2224 J0.0597 F900
G01 Z-20.0000 F300
G02 X154.3533 Y82.4797 I1.0612 J0.6049 F900
G01 X154.3511 Y82.5486 F900
G01 X154.3527 Y82.6097 F900
G02 X156.7973 Y82.4903 I1.2223 J-0.0596 F900
G02 X154.5116 Y81.9439 I-1.2224 J0.0597 F900
G01 Z-22.0000 F300
G02 X154.3533 Y82.4797 I1.0612 J0.6049 F900
G01 X154.3511 Y82.5486 F900
G01 X154.3527 Y82.6097 F900
G02 X156.7973 Y82.4903 I1.2223 J-0.0596 F900
G02 X154.5116 Y81.9439 I-1.2224 J0.0597 F900
G01 Z-24.0000 F300
G02 X154.3533 Y82.4797 I1.0612 J0.6049 F900
G01 X154.3511 Y82.5486 F900
G01 X154.3527 Y82.6097 F900
G02 X156.7973 Y82.4903 I1.2223 J-0.0596 F900
G02 X154.5116 Y81.9439 I-1.2224 J0.0597 F900
G00 Z5.0000 F180


;No. 20: Part 25
G00 X154.6237 Y113.5303 Z5.0000 F1500
G00 Z0.5000 F180
G01 Z-2.0000 F300
G02 X154.3511 Y114.2986 I0.9503 J0.7697 F900
G01 X154.3527 Y114.3596 F900
G02 X156.7967 Y114.2293 I1.2223 J-0.0596 F900
G02 X154.6237 Y113.5303 I-1.2215 J0.0702 F900
G01 Z-4.0000 F300
G02 X154.3511 Y114.2986 I0.9503 J0.7697 F900
G01 X154.3527 Y114.3596 F900
G02 X156.7967 Y114.2293 I1.2223 J-0.0596 F900
G02 X154.6237 Y113.5303 I-1.2215 J0.0702 F900
G01 Z-6.0000 F300
G02 X154.3511 Y114.2986 I0.9503 J0.7697 F900
G01 X154.3527 Y114.3596 F900
G02 X156.7967 Y114.2293 I1.2223 J-0.0596 F900
G02 X154.6237 Y113.5303 I-1.2215 J0.0702 F900
G01 Z-8.0000 F300
G02 X154.3511 Y114.2986 I0.9503 J0.7697 F900
G01 X154.3527 Y114.3596 F900
G02 X156.7967 Y114.2293 I1.2223 J-0.0596 F900
G02 X154.6237 Y113.5303 I-1.2215 J0.0702 F900
G01 Z-10.0000 F300
G02 X154.3511 Y114.2986 I0.9503 J0.7697 F900
G01 X154.3527 Y114.3596 F900
G02 X156.7967 Y114.2293 I1.2223 J-0.0596 F900
G02 X154.6237 Y113.5303 I-1.2215 J0.0702 F900
G01 Z-12.0000 F300
G02 X154.3511 Y114.2986 I0.9503 J0.7697 F900
G01 X154.3527 Y114.3596 F900
G02 X156.7967 Y114.2293 I1.2223 J-0.0596 F900
G02 X154.6237 Y113.5303 I-1.2215 J0.0702 F900
G01 Z-14.0000 F300
G02 X154.3511 Y114.2986 I0.9503 J0.7697 F900
G01 X154.3527 Y114.3596 F900
G02 X156.7967 Y114.2293 I1.2223 J-0.0596 F900
G02 X154.6237 Y113.5303 I-1.2215 J0.0702 F900
G01 Z-16.0000 F300
G02 X154.3511 Y114.2986 I0.9503 J0.7697 F900
G01 X154.3527 Y114.3596 F900
G02 X156.7967 Y114.2293 I1.2223 J-0.0596 F900
G02 X154.6237 Y113.5303 I-1.2215 J0.0702 F900
G01 Z-18.0000 F300
G02 X154.3511 Y114.2986 I0.9503 J0.7697 F900
G01 X154.3527 Y114.3596 F900
G02 X156.7967 Y114.2293 I1.2223 J-0.0596 F900
G02 X154.6237 Y113.5303 I-1.2215 J0.0702 F900
G01 Z-20.0000 F300
G02 X154.3511 Y114.2986 I0.9503 J0.7697 F900
G01 X154.3527 Y114.3596 F900
G02 X156.7967 Y114.2293 I1.2223 J-0.0596 F900
G02 X154.6237 Y113.5303 I-1.2215 J0.0702 F900
G01 Z-22.0000 F300
G02 X154.3511 Y114.2986 I0.9503 J0.7697 F900
G01 X154.3527 Y114.3596 F900
G02 X156.7967 Y114.2293 I1.2223 J-0.0596 F900
G02 X154.6237 Y113.5303 I-1.2215 J0.0702 F900
G01 Z-24.0000 F300
G02 X154.3511 Y114.2986 I0.9503 J0.7697 F900
G01 X154.3527 Y114.3596 F900
G02 X156.7967 Y114.2293 I1.2223 J-0.0596 F900
G02 X154.6237 Y113.5303 I-1.2215 J0.0702 F900
G00 Z5.0000 F180


;No. 21: Part 26
G00 X154.7092 Y145.1842 Z5.0000 F1500
G00 Z0.5000 F180
G01 Z-2.0000 F300
G02 X154.3511 Y146.0486 I0.8733 J0.8682 F900
G01 X154.3527 Y146.1096 F900
G02 X156.7967 Y145.9793 I1.2223 J-0.0596 F900
G02 X154.7092 Y145.1842 I-1.2224 J0.0714 F900
G01 Z-4.0000 F300
G02 X154.3511 Y146.0486 I0.8733 J0.8682 F900
G01 X154.3527 Y146.1096 F900
G02 X156.7967 Y145.9793 I1.2223 J-0.0596 F900
G02 X154.7092 Y145.1842 I-1.2224 J0.0714 F900
G01 Z-6.0000 F300
G02 X154.3511 Y146.0486 I0.8733 J0.8682 F900
G01 X154.3527 Y146.1096 F900
G02 X156.7967 Y145.9793 I1.2223 J-0.0596 F900
G02 X154.7092 Y145.1842 I-1.2224 J0.0714 F900
G01 Z-8.0000 F300
G02 X154.3511 Y146.0486 I0.8733 J0.8682 F900
G01 X154.3527 Y146.1096 F900
G02 X156.7967 Y145.9793 I1.2223 J-0.0596 F900
G02 X154.7092 Y145.1842 I-1.2224 J0.0714 F900
G01 Z-10.0000 F300
G02 X154.3511 Y146.0486 I0.8733 J0.8682 F900
G01 X154.3527 Y146.1096 F900
G02 X156.7967 Y145.9793 I1.2223 J-0.0596 F900
G02 X154.7092 Y145.1842 I-1.2224 J0.0714 F900
G01 Z-12.0000 F300
G02 X154.3511 Y146.0486 I0.8733 J0.8682 F900
G01 X154.3527 Y146.1096 F900
G02 X156.7967 Y145.9793 I1.2223 J-0.0596 F900
G02 X154.7092 Y145.1842 I-1.2224 J0.0714 F900
G01 Z-14.0000 F300
G02 X154.3511 Y146.0486 I0.8733 J0.8682 F900
G01 X154.3527 Y146.1096 F900
G02 X156.7967 Y145.9793 I1.2223 J-0.0596 F900
G02 X154.7092 Y145.1842 I-1.2224 J0.0714 F900
G01 Z-16.0000 F300
G02 X154.3511 Y146.0486 I0.8733 J0.8682 F900
G01 X154.3527 Y146.1096 F900
G02 X156.7967 Y145.9793 I1.2223 J-0.0596 F900
G02 X154.7092 Y145.1842 I-1.2224 J0.0714 F900
G01 Z-18.0000 F300
G02 X154.3511 Y146.0486 I0.8733 J0.8682 F900
G01 X154.3527 Y146.1096 F900
G02 X156.7967 Y145.9793 I1.2223 J-0.0596 F900
G02 X154.7092 Y145.1842 I-1.2224 J0.0714 F900
G01 Z-20.0000 F300
G02 X154.3511 Y146.0486 I0.8733 J0.8682 F900
G01 X154.3527 Y146.1096 F900
G02 X156.7967 Y145.9793 I1.2223 J-0.0596 F900
G02 X154.7092 Y145.1842 I-1.2224 J0.0714 F900
G01 Z-22.0000 F300
G02 X154.3511 Y146.0486 I0.8733 J0.8682 F900
G01 X154.3527 Y146.1096 F900
G02 X156.7967 Y145.9793 I1.2223 J-0.0596 F900
G02 X154.7092 Y145.1842 I-1.2224 J0.0714 F900
G01 Z-24.0000 F300
G02 X154.3511 Y146.0486 I0.8733 J0.8682 F900
G01 X154.3527 Y146.1096 F900
G02 X156.7967 Y145.9793 I1.2223 J-0.0596 F900
G02 X154.7092 Y145.1842 I-1.2224 J0.0714 F900
G00 Z5.0000 F180


;No. 22: Part 21
G00 X123.1044 Y145.0611 Z5.0000 F1500
G00 Z0.5000 F180
G01 Z-2.0000 F300
G02 X122.6011 Y146.0486 I0.7187 J0.9884 F900
G01 X122.6027 Y146.1096 F900
G02 X125.0473 Y145.9904 I1.2223 J-0.0596 F900
G02 X123.1044 Y145.0611 I-1.2220 J0.0591 F900
G01 Z-4.0000 F300
G02 X122.6011 Y146.0486 I0.7187 J0.9884 F900
G01 X122.6027 Y146.1096 F900
G02 X125.0473 Y145.9904 I1.2223 J-0.0596 F900
G02 X123.1044 Y145.0611 I-1.2220 J0.0591 F900
G01 Z-6.0000 F300
G02 X122.6011 Y146.0486 I0.7187 J0.9884 F900
G01 X122.6027 Y146.1096 F900
G02 X125.0473 Y145.9904 I1.2223 J-0.0596 F900
G02 X123.1044 Y145.0611 I-1.2220 J0.0591 F900
G01 Z-8.0000 F300
G02 X122.6011 Y146.0486 I0.7187 J0.9884 F900
G01 X122.6027 Y146.1096 F900
G02 X125.0473 Y145.9904 I1.2223 J-0.0596 F900
G02 X123.1044 Y145.0611 I-1.2220 J0.0591 F900
G01 Z-10.0000 F300
G02 X122.6011 Y146.0486 I0.7187 J0.9884 F900
G01 X122.6027 Y146.1096 F900
G02 X125.0473 Y145.9904 I1.2223 J-0.0596 F900
G02 X123.1044 Y145.0611 I-1.2220 J0.0591 F900
G01 Z-12.0000 F300
G02 X122.6011 Y146.0486 I0.7187 J0.9884 F900
G01 X122.6027 Y146.1096 F900
G02 X125.0473 Y145.9904 I1.2223 J-0.0596 F900
G02 X123.1044 Y145.0611 I-1.2220 J0.0591 F900
G01 Z-14.0000 F300
G02 X122.6011 Y146.0486 I0.7187 J0.9884 F900
G01 X122.6027 Y146.1096 F900
G02 X125.0473 Y145.9904 I1.2223 J-0.0596 F900
G02 X123.1044 Y145.0611 I-1.2220 J0.0591 F900
G01 Z-16.0000 F300
G02 X122.6011 Y146.0486 I0.7187 J0.9884 F900
G01 X122.6027 Y146.1096 F900
G02 X125.0473 Y145.9904 I1.2223 J-0.0596 F900
G02 X123.1044 Y145.0611 I-1.2220 J0.0591 F900
G01 Z-18.0000 F300
G02 X122.6011 Y146.0486 I0.7187 J0.9884 F900
G01 X122.6027 Y146.1096 F900
G02 X125.0473 Y145.9904 I1.2223 J-0.0596 F900
G02 X123.1044 Y145.0611 I-1.2220 J0.0591 F900
G01 Z-20.0000 F300
G02 X122.6011 Y146.0486 I0.7187 J0.9884 F900
G01 X122.6027 Y146.1096 F900
G02 X125.0473 Y145.9904 I1.2223 J-0.0596 F900
G02 X123.1044 Y145.0611 I-1.2220 J0.0591 F900
G01 Z-22.0000 F300
G02 X122.6011 Y146.0486 I0.7187 J0.9884 F900
G01 X122.6027 Y146.1096 F900
G02 X125.0473 Y145.9904 I1.2223 J-0.0596 F900
G02 X123.1044 Y145.0611 I-1.2220 J0.0591 F900
G01 Z-24.0000 F300
G02 X122.6011 Y146.0486 I0.7187 J0.9884 F900
G01 X122.6027 Y146.1096 F900
G02 X125.0473 Y145.9904 I1.2223 J-0.0596 F900
G02 X123.1044 Y145.0611 I-1.2220 J0.0591 F900
G00 Z5.0000 F180


;No. 23: Part 16
G00 X91.4660 Y144.9883 Z5.0000 F1500
G00 Z0.5000 F180
G01 Z-2.0000 F300
G02 X90.8527 Y145.9877 I0.6105 J1.0626 F900
G01 X90.8511 Y146.0513 F900
G01 X90.8529 Y146.1166 F900
G02 X93.2971 Y145.9834 I1.2221 J-0.0668 F900
G02 X91.4660 Y144.9883 I-1.2218 J0.0660 F900
G01 Z-4.0000 F300
G02 X90.8527 Y145.9877 I0.6105 J1.0626 F900
G01 X90.8511 Y146.0513 F900
G01 X90.8529 Y146.1166 F900
G02 X93.2971 Y145.9834 I1.2221 J-0.0668 F900
G02 X91.4660 Y144.9883 I-1.2218 J0.0660 F900
G01 Z-6.0000 F300
G02 X90.8527 Y145.9877 I0.6105 J1.0626 F900
G01 X90.8511 Y146.0513 F900
G01 X90.8529 Y146.1166 F900
G02 X93.2971 Y145.9834 I1.2221 J-0.0668 F900
G02 X91.4660 Y144.9883 I-1.2218 J0.0660 F900
G01 Z-8.0000 F300
G02 X90.8527 Y145.9877 I0.6105 J1.0626 F900
G01 X90.8511 Y146.0513 F900
G01 X90.8529 Y146.1166 F900
G02 X93.2971 Y145.9834 I1.2221 J-0.0668 F900
G02 X91.4660 Y144.9883 I-1.2218 J0.0660 F900
G01 Z-10.0000 F300
G02 X90.8527 Y145.9877 I0.6105 J1.0626 F900
G01 X90.8511 Y146.0513 F900
G01 X90.8529 Y146.1166 F900
G02 X93.2971 Y145.9834 I1.2221 J-0.0668 F900
G02 X91.4660 Y144.9883 I-1.2218 J0.0660 F900
G01 Z-12.0000 F300
G02 X90.8527 Y145.9877 I0.6105 J1.0626 F900
G01 X90.8511 Y146.0513 F900
G01 X90.8529 Y146.1166 F900
G02 X93.2971 Y145.9834 I1.2221 J-0.0668 F900
G02 X91.4660 Y144.9883 I-1.2218 J0.0660 F900
G01 Z-14.0000 F300
G02 X90.8527 Y145.9877 I0.6105 J1.0626 F900
G01 X90.8511 Y146.0513 F900
G01 X90.8529 Y146.1166 F900
G02 X93.2971 Y145.9834 I1.2221 J-0.0668 F900
G02 X91.4660 Y144.9883 I-1.2218 J0.0660 F900
G01 Z-16.0000 F300
G02 X90.8527 Y145.9877 I0.6105 J1.0626 F900
G01 X90.8511 Y146.0513 F900
G01 X90.8529 Y146.1166 F900
G02 X93.2971 Y145.9834 I1.2221 J-0.0668 F900
G02 X91.4660 Y144.9883 I-1.2218 J0.0660 F900
G01 Z-18.0000 F300
G02 X90.8527 Y145.9877 I0.6105 J1.0626 F900
G01 X90.8511 Y146.0513 F900
G01 X90.8529 Y146.1166 F900
G02 X93.2971 Y145.9834 I1.2221 J-0.0668 F900
G02 X91.4660 Y144.9883 I-1.2218 J0.0660 F900
G01 Z-20.0000 F300
G02 X90.8527 Y145.9877 I0.6105 J1.0626 F900
G01 X90.8511 Y146.0513 F900
G01 X90.8529 Y146.1166 F900
G02 X93.2971 Y145.9834 I1.2221 J-0.0668 F900
G02 X91.4660 Y144.9883 I-1.2218 J0.0660 F900
G01 Z-22.0000 F300
G02 X90.8527 Y145.9877 I0.6105 J1.0626 F900
G01 X90.8511 Y146.0513 F900
G01 X90.8529 Y146.1166 F900
G02 X93.2971 Y145.9834 I1.2221 J-0.0668 F900
G02 X91.4660 Y144.9883 I-1.2218 J0.0660 F900
G01 Z-24.0000 F300
G02 X90.8527 Y145.9877 I0.6105 J1.0626 F900
G01 X90.8511 Y146.0513 F900
G01 X90.8529 Y146.1166 F900
G02 X93.2971 Y145.9834 I1.2221 J-0.0668 F900
G02 X91.4660 Y144.9883 I-1.2218 J0.0660 F900
G00 Z5.0000 F180


;No. 24: Part 11
G00 X59.8772 Y144.9112 Z5.0000 F1500
G00 Z0.5000 F180
G01 Z-2.0000 F300
G02 X59.1027 Y145.9877 I0.4471 J1.1386 F900
G01 X59.1011 Y146.0513 F900
G01 X59.1029 Y146.1166 F900
G02 X61.5471 Y145.9834 I1.2221 J-0.0668 F900
G02 X59.8772 Y144.9112 I-1.2222 J0.0670 F900
G01 Z-4.0000 F300
G02 X59.1027 Y145.9877 I0.4471 J1.1386 F900
G01 X59.1011 Y146.0513 F900
G01 X59.1029 Y146.1166 F900
G02 X61.5471 Y145.9834 I1.2221 J-0.0668 F900
G02 X59.8772 Y144.9112 I-1.2222 J0.0670 F900
G01 Z-6.0000 F300
G02 X59.1027 Y145.9877 I0.4471 J1.1386 F900
G01 X59.1011 Y146.0513 F900
G01 X59.1029 Y146.1166 F900
G02 X61.5471 Y145.9834 I1.2221 J-0.0668 F900
G02 X59.8772 Y144.9112 I-1.2222 J0.0670 F900
G01 Z-8.0000 F300
G02 X59.1027 Y145.9877 I0.4471 J1.1386 F900
G01 X59.1011 Y146.0513 F900
G01 X59.1029 Y146.1166 F900
G02 X61.5471 Y145.9834 I1.2221 J-0.0668 F900
G02 X59.8772 Y144.9112 I-1.2222 J0.0670 F900
G01 Z-10.0000 F300
G02 X59.1027 Y145.9877 I0.4471 J1.1386 F900
G01 X59.1011 Y146.0513 F900
G01 X59.1029 Y146.1166 F900
G02 X61.5471 Y145.9834 I1.2221 J-0.0668 F900
G02 X59.8772 Y144.9112 I-1.2222 J0.0670 F900
G01 Z-12.0000 F300
G02 X59.1027 Y145.9877 I0.4471 J1.1386 F900
G01 X59.1011 Y146.0513 F900
G01 X59.1029 Y146.1166 F900
G02 X61.5471 Y145.9834 I1.2221 J-0.0668 F900
G02 X59.8772 Y144.9112 I-1.2222 J0.0670 F900
G01 Z-14.0000 F300
G02 X59.1027 Y145.9877 I0.4471 J1.1386 F900
G01 X59.1011 Y146.0513 F900
G01 X59.1029 Y146.1166 F900
G02 X61.5471 Y145.9834 I1.2221 J-0.0668 F900
G02 X59.8772 Y144.9112 I-1.2222 J0.0670 F900
G01 Z-16.0000 F300
G02 X59.1027 Y145.9877 I0.4471 J1.1386 F900
G01 X59.1011 Y146.0513 F900
G01 X59.1029 Y146.1166 F900
G02 X61.5471 Y145.9834 I1.2221 J-0.0668 F900
G02 X59.8772 Y144.9112 I-1.2222 J0.0670 F900
G01 Z-18.0000 F300
G02 X59.1027 Y145.9877 I0.4471 J1.1386 F900
G01 X59.1011 Y146.0513 F900
G01 X59.1029 Y146.1166 F900
G02 X61.5471 Y145.9834 I1.2221 J-0.0668 F900
G02 X59.8772 Y144.9112 I-1.2222 J0.0670 F900
G01 Z-20.0000 F300
G02 X59.1027 Y145.9877 I0.4471 J1.1386 F900
G01 X59.1011 Y146.0513 F900
G01 X59.1029 Y146.1166 F900
G02 X61.5471 Y145.9834 I1.2221 J-0.0668 F900
G02 X59.8772 Y144.9112 I-1.2222 J0.0670 F900
G01 Z-22.0000 F300
G02 X59.1027 Y145.9877 I0.4471 J1.1386 F900
G01 X59.1011 Y146.0513 F900
G01 X59.1029 Y146.1166 F900
G02 X61.5471 Y145.9834 I1.2221 J-0.0668 F900
G02 X59.8772 Y144.9112 I-1.2222 J0.0670 F900
G01 Z-24.0000 F300
G02 X59.1027 Y145.9877 I0.4471 J1.1386 F900
G01 X59.1011 Y146.0513 F900
G01 X59.1029 Y146.1166 F900
G02 X61.5471 Y145.9834 I1.2221 J-0.0668 F900
G02 X59.8772 Y144.9112 I-1.2222 J0.0670 F900
G00 Z5.0000 F180


;No. 25: Part 6
G00 X28.3780 Y144.8420 Z5.0000 F1500
G00 Z0.5000 F180
G01 Z-2.0000 F300
G02 X27.6274 Y146.8246 I0.1970 J1.2080 F900
G02 X29.7198 Y146.4834 I0.9476 J-0.7746 F900
G02 X28.3780 Y144.8420 I-1.1447 J-0.4334 F900
G01 Z-4.0000 F300
G02 X27.6274 Y146.8246 I0.1970 J1.2080 F900
G02 X29.7198 Y146.4834 I0.9476 J-0.7746 F900
G02 X28.3780 Y144.8420 I-1.1447 J-0.4334 F900
G01 Z-6.0000 F300
G02 X27.6274 Y146.8246 I0.1970 J1.2080 F900
G02 X29.7198 Y146.4834 I0.9476 J-0.7746 F900
G02 X28.3780 Y144.8420 I-1.1447 J-0.4334 F900
G01 Z-8.0000 F300
G02 X27.6274 Y146.8246 I0.1970 J1.2080 F900
G02 X29.7198 Y146.4834 I0.9476 J-0.7746 F900
G02 X28.3780 Y144.8420 I-1.1447 J-0.4334 F900
G01 Z-10.0000 F300
G02 X27.6274 Y146.8246 I0.1970 J1.2080 F900
G02 X29.7198 Y146.4834 I0.9476 J-0.7746 F900
G02 X28.3780 Y144.8420 I-1.1447 J-0.4334 F900
G01 Z-12.0000 F300
G02 X27.6274 Y146.8246 I0.1970 J1.2080 F900
G02 X29.7198 Y146.4834 I0.9476 J-0.7746 F900
G02 X28.3780 Y144.8420 I-1.1447 J-0.4334 F900
G01 Z-14.0000 F300
G02 X27.6274 Y146.8246 I0.1970 J1.2080 F900
G02 X29.7198 Y146.4834 I0.9476 J-0.7746 F900
G02 X28.3780 Y144.8420 I-1.1447 J-0.4334 F900
G01 Z-16.0000 F300
G02 X27.6274 Y146.8246 I0.1970 J1.2080 F900
G02 X29.7198 Y146.4834 I0.9476 J-0.7746 F900
G02 X28.3780 Y144.8420 I-1.1447 J-0.4334 F900
G01 Z-18.0000 F300
G02 X27.6274 Y146.8246 I0.1970 J1.2080 F900
G02 X29.7198 Y146.4834 I0.9476 J-0.7746 F900
G02 X28.3780 Y144.8420 I-1.1447 J-0.4334 F900
G01 Z-20.0000 F300
G02 X27.6274 Y146.8246 I0.1970 J1.2080 F900
G02 X29.7198 Y146.4834 I0.9476 J-0.7746 F900
G02 X28.3780 Y144.8420 I-1.1447 J-0.4334 F900
G01 Z-22.0000 F300
G02 X27.6274 Y146.8246 I0.1970 J1.2080 F900
G02 X29.7198 Y146.4834 I0.9476 J-0.7746 F900
G02 X28.3780 Y144.8420 I-1.1447 J-0.4334 F900
G01 Z-24.0000 F300
G02 X27.6274 Y146.8246 I0.1970 J1.2080 F900
G02 X29.7198 Y146.4834 I0.9476 J-0.7746 F900
G02 X28.3780 Y144.8420 I-1.1447 J-0.4334 F900
G00 Z5.0000 F180


;No. 26: Part 31
G00 X186.4176 Y145.2284 Z5.0000 F1500
G00 Z0.5000 F180
G01 Z-2.0000 F300
G02 X186.1011 Y146.0486 I0.9091 J0.8221 F900
G02 X186.1274 Y146.3036 I1.2895 J-0.0042 F900
G02 X188.5075 Y145.7339 I1.1975 J-0.2537 F900
G02 X186.4176 Y145.2284 I-1.1825 J0.3159 F900
G01 Z-4.0000 F300
G02 X186.1011 Y146.0486 I0.9091 J0.8221 F900
G02 X186.1274 Y146.3036 I1.2895 J-0.0042 F900
G02 X188.5075 Y145.7339 I1.1975 J-0.2537 F900
G02 X186.4176 Y145.2284 I-1.1825 J0.3159 F900
G01 Z-6.0000 F300
G02 X186.1011 Y146.0486 I0.9091 J0.8221 F900
G02 X186.1274 Y146.3036 I1.2895 J-0.0042 F900
G02 X188.5075 Y145.7339 I1.1975 J-0.2537 F900
G02 X186.4176 Y145.2284 I-1.1825 J0.3159 F900
G01 Z-8.0000 F300
G02 X186.1011 Y146.0486 I0.9091 J0.8221 F900
G02 X186.1274 Y146.3036 I1.2895 J-0.0042 F900
G02 X188.5075 Y145.7339 I1.1975 J-0.2537 F900
G02 X186.4176 Y145.2284 I-1.1825 J0.3159 F900
G01 Z-10.0000 F300
G02 X186.1011 Y146.0486 I0.9091 J0.8221 F900
G02 X186.1274 Y146.3036 I1.2895 J-0.0042 F900
G02 X188.5075 Y145.7339 I1.1975 J-0.2537 F900
G02 X186.4176 Y145.2284 I-1.1825 J0.3159 F900
G01 Z-12.0000 F300
G02 X186.1011 Y146.0486 I0.9091 J0.8221 F900
G02 X186.1274 Y146.3036 I1.2895 J-0.0042 F900
G02 X188.5075 Y145.7339 I1.1975 J-0.2537 F900
G02 X186.4176 Y145.2284 I-1.1825 J0.3159 F900
G01 Z-14.0000 F300
G02 X186.1011 Y146.0486 I0.9091 J0.8221 F900
G02 X186.1274 Y146.3036 I1.2895 J-0.0042 F900
G02 X188.5075 Y145.7339 I1.1975 J-0.2537 F900
G02 X186.4176 Y145.2284 I-1.1825 J0.3159 F900
G01 Z-16.0000 F300
G02 X186.1011 Y146.0486 I0.9091 J0.8221 F900
G02 X186.1274 Y146.3036 I1.2895 J-0.0042 F900
G02 X188.5075 Y145.7339 I1.1975 J-0.2537 F900
G02 X186.4176 Y145.2284 I-1.1825 J0.3159 F900
G01 Z-18.0000 F300
G02 X186.1011 Y146.0486 I0.9091 J0.8221 F900
G02 X186.1274 Y146.3036 I1.2895 J-0.0042 F900
G02 X188.5075 Y145.7339 I1.1975 J-0.2537 F900
G02 X186.4176 Y145.2284 I-1.1825 J0.3159 F900
G01 Z-20.0000 F300
G02 X186.1011 Y146.0486 I0.9091 J0.8221 F900
G02 X186.1274 Y146.3036 I1.2895 J-0.0042 F900
G02 X188.5075 Y145.7339 I1.1975 J-0.2537 F900
G02 X186.4176 Y145.2284 I-1.1825 J0.3159 F900
G01 Z-22.0000 F300
G02 X186.1011 Y146.0486 I0.9091 J0.8221 F900
G02 X186.1274 Y146.3036 I1.2895 J-0.0042 F900
G02 X188.5075 Y145.7339 I1.1975 J-0.2537 F900
G02 X186.4176 Y145.2284 I-1.1825 J0.3159 F900
G01 Z-24.0000 F300
G02 X186.1011 Y146.0486 I0.9091 J0.8221 F900
G02 X186.1274 Y146.3036 I1.2895 J-0.0042 F900
G02 X188.5075 Y145.7339 I1.1975 J-0.2537 F900
G02 X186.4176 Y145.2284 I-1.1825 J0.3159 F900
G00 Z5.0000 F180


;No. 27: Part 30
G00 X186.2970 Y113.6365 Z5.0000 F1500
G00 Z0.5000 F180
G01 Z-2.0000 F300
G02 X186.1011 Y114.2986 I1.0216 J0.6623 F900
G01 X186.1033 Y114.3707 F900
G02 X188.5467 Y114.2293 I1.2217 J-0.0707 F900
G02 X186.2970 Y113.6365 I-1.2215 J0.0702 F900
G01 Z-4.0000 F300
G02 X186.1011 Y114.2986 I1.0216 J0.6623 F900
G01 X186.1033 Y114.3707 F900
G02 X188.5467 Y114.2293 I1.2217 J-0.0707 F900
G02 X186.2970 Y113.6365 I-1.2215 J0.0702 F900
G01 Z-6.0000 F300
G02 X186.1011 Y114.2986 I1.0216 J0.6623 F900
G01 X186.1033 Y114.3707 F900
G02 X188.5467 Y114.2293 I1.2217 J-0.0707 F900
G02 X186.2970 Y113.6365 I-1.2215 J0.0702 F900
G01 Z-8.0000 F300
G02 X186.1011 Y114.2986 I1.0216 J0.6623 F900
G01 X186.1033 Y114.3707 F900
G02 X188.5467 Y114.2293 I1.2217 J-0.0707 F900
G02 X186.2970 Y113.6365 I-1.2215 J0.0702 F900
G01 Z-10.0000 F300
G02 X186.1011 Y114.2986 I1.0216 J0.6623 F900
G01 X186.1033 Y114.3707 F900
G02 X188.5467 Y114.2293 I1.2217 J-0.0707 F900
G02 X186.2970 Y113.6365 I-1.2215 J0.0702 F900
G01 Z-12.0000 F300
G02 X186.1011 Y114.2986 I1.0216 J0.6623 F900
G01 X186.1033 Y114.3707 F900
G02 X188.5467 Y114.2293 I1.2217 J-0.0707 F900
G02 X186.2970 Y113.6365 I-1.2215 J0.0702 F900
G01 Z-14.0000 F300
G02 X186.1011 Y114.2986 I1.0216 J0.6623 F900
G01 X186.1033 Y114.3707 F900
G02 X188.5467 Y114.2293 I1.2217 J-0.0707 F900
G02 X186.2970 Y113.6365 I-1.2215 J0.0702 F900
G01 Z-16.0000 F300
G02 X186.1011 Y114.2986 I1.0216 J0.6623 F900
G01 X186.1033 Y114.3707 F900
G02 X188.5467 Y114.2293 I1.2217 J-0.0707 F900
G02 X186.2970 Y113.6365 I-1.2215 J0.0702 F900
G01 Z-18.0000 F300
G02 X186.1011 Y114.2986 I1.0216 J0.6623 F900
G01 X186.1033 Y114.3707 F900
G02 X188.5467 Y114.2293 I1.2217 J-0.0707 F900
G02 X186.2970 Y113.6365 I-1.2215 J0.0702 F900
G01 Z-20.0000 F300
G02 X186.1011 Y114.2986 I1.0216 J0.6623 F900
G01 X186.1033 Y114.3707 F900
G02 X188.5467 Y114.2293 I1.2217 J-0.0707 F900
G02 X186.2970 Y113.6365 I-1.2215 J0.0702 F900
G01 Z-22.0000 F300
G02 X186.1011 Y114.2986 I1.0216 J0.6623 F900
G01 X186.1033 Y114.3707 F900
G02 X188.5467 Y114.2293 I1.2217 J-0.0707 F900
G02 X186.2970 Y113.6365 I-1.2215 J0.0702 F900
G01 Z-24.0000 F300
G02 X186.1011 Y114.2986 I1.0216 J0.6623 F900
G01 X186.1033 Y114.3707 F900
G02 X188.5467 Y114.2293 I1.2217 J-0.0707 F900
G02 X186.2970 Y113.6365 I-1.2215 J0.0702 F900
G00 Z5.0000 F180


;No. 28: Part 29
G00 X186.2334 Y81.9957 Z5.0000 F1500
G00 Z0.5000 F180
G01 Z-2.0000 F300
G02 X186.1011 Y82.5486 I1.0894 J0.5530 F900
G01 X186.1027 Y82.6097 F900
G02 X188.5473 Y82.4903 I1.2223 J-0.0596 F900
G02 X186.2334 Y81.9957 I-1.2226 J0.0598 F900
G01 Z-4.0000 F300
G02 X186.1011 Y82.5486 I1.0894 J0.5530 F900
G01 X186.1027 Y82.6097 F900
G02 X188.5473 Y82.4903 I1.2223 J-0.0596 F900
G02 X186.2334 Y81.9957 I-1.2226 J0.0598 F900
G01 Z-6.0000 F300
G02 X186.1011 Y82.5486 I1.0894 J0.5530 F900
G01 X186.1027 Y82.6097 F900
G02 X188.5473 Y82.4903 I1.2223 J-0.0596 F900
G02 X186.2334 Y81.9957 I-1.2226 J0.0598 F900
G01 Z-8.0000 F300
G02 X186.1011 Y82.5486 I1.0894 J0.5530 F900
G01 X186.1027 Y82.6097 F900
G02 X188.5473 Y82.4903 I1.2223 J-0.0596 F900
G02 X186.2334 Y81.9957 I-1.2226 J0.0598 F900
G01 Z-10.0000 F300
G02 X186.1011 Y82.5486 I1.0894 J0.5530 F900
G01 X186.1027 Y82.6097 F900
G02 X188.5473 Y82.4903 I1.2223 J-0.0596 F900
G02 X186.2334 Y81.9957 I-1.2226 J0.0598 F900
G01 Z-12.0000 F300
G02 X186.1011 Y82.5486 I1.0894 J0.5530 F900
G01 X186.1027 Y82.6097 F900
G02 X188.5473 Y82.4903 I1.2223 J-0.0596 F900
G02 X186.2334 Y81.9957 I-1.2226 J0.0598 F900
G01 Z-14.0000 F300
G02 X186.1011 Y82.5486 I1.0894 J0.5530 F900
G01 X186.1027 Y82.6097 F900
G02 X188.5473 Y82.4903 I1.2223 J-0.0596 F900
G02 X186.2334 Y81.9957 I-1.2226 J0.0598 F900
G01 Z-16.0000 F300
G02 X186.1011 Y82.5486 I1.0894 J0.5530 F900
G01 X186.1027 Y82.6097 F900
G02 X188.5473 Y82.4903 I1.2223 J-0.0596 F900
G02 X186.2334 Y81.9957 I-1.2226 J0.0598 F900
G01 Z-18.0000 F300
G02 X186.1011 Y82.5486 I1.0894 J0.5530 F900
G01 X186.1027 Y82.6097 F900
G02 X188.5473 Y82.4903 I1.2223 J-0.0596 F900
G02 X186.2334 Y81.9957 I-1.2226 J0.0598 F900
G01 Z-20.0000 F300
G02 X186.1011 Y82.5486 I1.0894 J0.5530 F900
G01 X186.1027 Y82.6097 F900
G02 X188.5473 Y82.4903 I1.2223 J-0.0596 F900
G02 X186.2334 Y81.9957 I-1.2226 J0.0598 F900
G01 Z-22.0000 F300
G02 X186.1011 Y82.5486 I1.0894 J0.5530 F900
G01 X186.1027 Y82.6097 F900
G02 X188.5473 Y82.4903 I1.2223 J-0.0596 F900
G02 X186.2334 Y81.9957 I-1.2226 J0.0598 F900
G01 Z-24.0000 F300
G02 X186.1011 Y82.5486 I1.0894 J0.5530 F900
G01 X186.1027 Y82.6097 F900
G02 X188.5473 Y82.4903 I1.2223 J-0.0596 F900
G02 X186.2334 Y81.9957 I-1.2226 J0.0598 F900
G00 Z5.0000 F180


;No. 29: Part 28
G00 X186.1600 Y50.4253 Z5.0000 F1500
G00 Z0.5000 F180
G01 Z-2.0000 F300
G02 X187.5834 Y51.9964 I1.1652 J0.3747 F900
G02 X188.2324 Y49.9782 I-0.2581 J-1.1965 F900
G02 X186.1600 Y50.4253 I-0.9071 J0.8218 F900
G01 Z-4.0000 F300
G02 X187.5834 Y51.9964 I1.1652 J0.3747 F900
G02 X188.2324 Y49.9782 I-0.2581 J-1.1965 F900
G02 X186.1600 Y50.4253 I-0.9071 J0.8218 F900
G01 Z-6.0000 F300
G02 X187.5834 Y51.9964 I1.1652 J0.3747 F900
G02 X188.2324 Y49.9782 I-0.2581 J-1.1965 F900
G02 X186.1600 Y50.4253 I-0.9071 J0.8218 F900
G01 Z-8.0000 F300
G02 X187.5834 Y51.9964 I1.1652 J0.3747 F900
G02 X188.2324 Y49.9782 I-0.2581 J-1.1965 F900
G02 X186.1600 Y50.4253 I-0.9071 J0.8218 F900
G01 Z-10.0000 F300
G02 X187.5834 Y51.9964 I1.1652 J0.3747 F900
G02 X188.2324 Y49.9782 I-0.2581 J-1.1965 F900
G02 X186.1600 Y50.4253 I-0.9071 J0.8218 F900
G01 Z-12.0000 F300
G02 X187.5834 Y51.9964 I1.1652 J0.3747 F900
G02 X188.2324 Y49.9782 I-0.2581 J-1.1965 F900
G02 X186.1600 Y50.4253 I-0.9071 J0.8218 F900
G01 Z-14.0000 F300
G02 X187.5834 Y51.9964 I1.1652 J0.3747 F900
G02 X188.2324 Y49.9782 I-0.2581 J-1.1965 F900
G02 X186.1600 Y50.4253 I-0.9071 J0.8218 F900
G01 Z-16.0000 F300
G02 X187.5834 Y51.9964 I1.1652 J0.3747 F900
G02 X188.2324 Y49.9782 I-0.2581 J-1.1965 F900
G02 X186.1600 Y50.4253 I-0.9071 J0.8218 F900
G01 Z-18.0000 F300
G02 X187.5834 Y51.9964 I1.1652 J0.3747 F900
G02 X188.2324 Y49.9782 I-0.2581 J-1.1965 F900
G02 X186.1600 Y50.4253 I-0.9071 J0.8218 F900
G01 Z-20.0000 F300
G02 X187.5834 Y51.9964 I1.1652 J0.3747 F900
G02 X188.2324 Y49.9782 I-0.2581 J-1.1965 F900
G02 X186.1600 Y50.4253 I-0.9071 J0.8218 F900
G01 Z-22.0000 F300
G02 X187.5834 Y51.9964 I1.1652 J0.3747 F900
G02 X188.2324 Y49.9782 I-0.2581 J-1.1965 F900
G02 X186.1600 Y50.4253 I-0.9071 J0.8218 F900
G01 Z-24.0000 F300
G02 X187.5834 Y51.9964 I1.1652 J0.3747 F900
G02 X188.2324 Y49.9782 I-0.2581 J-1.1965 F900
G02 X186.1600 Y50.4253 I-0.9071 J0.8218 F900
G00 Z5.0000 F180


;No. 30: Part 27
G00 X186.1156 Y18.8617 Z5.0000 F1500
G00 Z0.5000 F180
G01 Z-2.0000 F300
G02 X186.1011 Y19.0486 I1.2851 J0.1941 F900
G01 X186.1027 Y19.1097 F900
G02 X188.5473 Y18.9903 I1.2223 J-0.0596 F900
G02 X186.1156 Y18.8617 I-1.2224 J0.0597 F900
G01 Z-4.0000 F300
G02 X186.1011 Y19.0486 I1.2851 J0.1941 F900
G01 X186.1027 Y19.1097 F900
G02 X188.5473 Y18.9903 I1.2223 J-0.0596 F900
G02 X186.1156 Y18.8617 I-1.2224 J0.0597 F900
G01 Z-6.0000 F300
G02 X186.1011 Y19.0486 I1.2851 J0.1941 F900
G01 X186.1027 Y19.1097 F900
G02 X188.5473 Y18.9903 I1.2223 J-0.0596 F900
G02 X186.1156 Y18.8617 I-1.2224 J0.0597 F900
G01 Z-8.0000 F300
G02 X186.1011 Y19.0486 I1.2851 J0.1941 F900
G01 X186.1027 Y19.1097 F900
G02 X188.5473 Y18.9903 I1.2223 J-0.0596 F900
G02 X186.1156 Y18.8617 I-1.2224 J0.0597 F900
G01 Z-10.0000 F300
G02 X186.1011 Y19.0486 I1.2851 J0.1941 F900
G01 X186.1027 Y19.1097 F900
G02 X188.5473 Y18.9903 I1.2223 J-0.0596 F900
G02 X186.1156 Y18.8617 I-1.2224 J0.0597 F900
G01 Z-12.0000 F300
G02 X186.1011 Y19.0486 I1.2851 J0.1941 F900
G01 X186.1027 Y19.1097 F900
G02 X188.5473 Y18.9903 I1.2223 J-0.0596 F900
G02 X186.1156 Y18.8617 I-1.2224 J0.0597 F900
G01 Z-14.0000 F300
G02 X186.1011 Y19.0486 I1.2851 J0.1941 F900
G01 X186.1027 Y19.1097 F900
G02 X188.5473 Y18.9903 I1.2223 J-0.0596 F900
G02 X186.1156 Y18.8617 I-1.2224 J0.0597 F900
G01 Z-16.0000 F300
G02 X186.1011 Y19.0486 I1.2851 J0.1941 F900
G01 X186.1027 Y19.1097 F900
G02 X188.5473 Y18.9903 I1.2223 J-0.0596 F900
G02 X186.1156 Y18.8617 I-1.2224 J0.0597 F900
G01 Z-18.0000 F300
G02 X186.1011 Y19.0486 I1.2851 J0.1941 F900
G01 X186.1027 Y19.1097 F900
G02 X188.5473 Y18.9903 I1.2223 J-0.0596 F900
G02 X186.1156 Y18.8617 I-1.2224 J0.0597 F900
G01 Z-20.0000 F300
G02 X186.1011 Y19.0486 I1.2851 J0.1941 F900
G01 X186.1027 Y19.1097 F900
G02 X188.5473 Y18.9903 I1.2223 J-0.0596 F900
G02 X186.1156 Y18.8617 I-1.2224 J0.0597 F900
G01 Z-22.0000 F300
G02 X186.1011 Y19.0486 I1.2851 J0.1941 F900
G01 X186.1027 Y19.1097 F900
G02 X188.5473 Y18.9903 I1.2223 J-0.0596 F900
G02 X186.1156 Y18.8617 I-1.2224 J0.0597 F900
G01 Z-24.0000 F300
G02 X186.1011 Y19.0486 I1.2851 J0.1941 F900
G01 X186.1027 Y19.1097 F900
G02 X188.5473 Y18.9903 I1.2223 J-0.0596 F900
G02 X186.1156 Y18.8617 I-1.2224 J0.0597 F900
G00 Z5.0000 F180


;No. 31: Part 32
G00 X217.8656 Y18.8617 Z5.0000 F1500
G00 Z0.5000 F180
G01 Z-2.0000 F300
G02 X217.8511 Y19.0486 I1.2851 J0.1941 F900
G01 X217.8527 Y19.1097 F900
G02 X220.2973 Y18.9903 I1.2223 J-0.0596 F900
G02 X217.8656 Y18.8617 I-1.2224 J0.0597 F900
G01 Z-4.0000 F300
G02 X217.8511 Y19.0486 I1.2851 J0.1941 F900
G01 X217.8527 Y19.1097 F900
G02 X220.2973 Y18.9903 I1.2223 J-0.0596 F900
G02 X217.8656 Y18.8617 I-1.2224 J0.0597 F900
G01 Z-6.0000 F300
G02 X217.8511 Y19.0486 I1.2851 J0.1941 F900
G01 X217.8527 Y19.1097 F900
G02 X220.2973 Y18.9903 I1.2223 J-0.0596 F900
G02 X217.8656 Y18.8617 I-1.2224 J0.0597 F900
G01 Z-8.0000 F300
G02 X217.8511 Y19.0486 I1.2851 J0.1941 F900
G01 X217.8527 Y19.1097 F900
G02 X220.2973 Y18.9903 I1.2223 J-0.0596 F900
G02 X217.8656 Y18.8617 I-1.2224 J0.0597 F900
G01 Z-10.0000 F300
G02 X217.8511 Y19.0486 I1.2851 J0.1941 F900
G01 X217.8527 Y19.1097 F900
G02 X220.2973 Y18.9903 I1.2223 J-0.0596 F900
G02 X217.8656 Y18.8617 I-1.2224 J0.0597 F900
G01 Z-12.0000 F300
G02 X217.8511 Y19.0486 I1.2851 J0.1941 F900
G01 X217.8527 Y19.1097 F900
G02 X220.2973 Y18.9903 I1.2223 J-0.0596 F900
G02 X217.8656 Y18.8617 I-1.2224 J0.0597 F900
G01 Z-14.0000 F300
G02 X217.8511 Y19.0486 I1.2851 J0.1941 F900
G01 X217.8527 Y19.1097 F900
G02 X220.2973 Y18.9903 I1.2223 J-0.0596 F900
G02 X217.8656 Y18.8617 I-1.2224 J0.0597 F900
G01 Z-16.0000 F300
G02 X217.8511 Y19.0486 I1.2851 J0.1941 F900
G01 X217.8527 Y19.1097 F900
G02 X220.2973 Y18.9903 I1.2223 J-0.0596 F900
G02 X217.8656 Y18.8617 I-1.2224 J0.0597 F900
G01 Z-18.0000 F300
G02 X217.8511 Y19.0486 I1.2851 J0.1941 F900
G01 X217.8527 Y19.1097 F900
G02 X220.2973 Y18.9903 I1.2223 J-0.0596 F900
G02 X217.8656 Y18.8617 I-1.2224 J0.0597 F900
G01 Z-20.0000 F300
G02 X217.8511 Y19.0486 I1.2851 J0.1941 F900
G01 X217.8527 Y19.1097 F900
G02 X220.2973 Y18.9903 I1.2223 J-0.0596 F900
G02 X217.8656 Y18.8617 I-1.2224 J0.0597 F900
G01 Z-22.0000 F300
G02 X217.8511 Y19.0486 I1.2851 J0.1941 F900
G01 X217.8527 Y19.1097 F900
G02 X220.2973 Y18.9903 I1.2223 J-0.0596 F900
G02 X217.8656 Y18.8617 I-1.2224 J0.0597 F900
G01 Z-24.0000 F300
G02 X217.8511 Y19.0486 I1.2851 J0.1941 F900
G01 X217.8527 Y19.1097 F900
G02 X220.2973 Y18.9903 I1.2223 J-0.0596 F900
G02 X217.8656 Y18.8617 I-1.2224 J0.0597 F900
G00 Z5.0000 F180


;No. 32: Part 33
G00 X217.8912 Y50.4892 Z5.0000 F1500
G00 Z0.5000 F180
G01 Z-2.0000 F300
G02 X219.3977 Y51.9807 I1.1838 J0.3109 F900
G02 X219.9362 Y49.9303 I-0.3227 J-1.1807 F900
G02 X217.8912 Y50.4892 I-0.8611 J0.8698 F900
G01 Z-4.0000 F300
G02 X219.3977 Y51.9807 I1.1838 J0.3109 F900
G02 X219.9362 Y49.9303 I-0.3227 J-1.1807 F900
G02 X217.8912 Y50.4892 I-0.8611 J0.8698 F900
G01 Z-6.0000 F300
G02 X219.3977 Y51.9807 I1.1838 J0.3109 F900
G02 X219.9362 Y49.9303 I-0.3227 J-1.1807 F900
G02 X217.8912 Y50.4892 I-0.8611 J0.8698 F900
G01 Z-8.0000 F300
G02 X219.3977 Y51.9807 I1.1838 J0.3109 F900
G02 X219.9362 Y49.9303 I-0.3227 J-1.1807 F900
G02 X217.8912 Y50.4892 I-0.8611 J0.8698 F900
G01 Z-10.0000 F300
G02 X219.3977 Y51.9807 I1.1838 J0.3109 F900
G02 X219.9362 Y49.9303 I-0.3227 J-1.1807 F900
G02 X217.8912 Y50.4892 I-0.8611 J0.8698 F900
G01 Z-12.0000 F300
G02 X219.3977 Y51.9807 I1.1838 J0.3109 F900
G02 X219.9362 Y49.9303 I-0.3227 J-1.1807 F900
G02 X217.8912 Y50.4892 I-0.8611 J0.8698 F900
G01 Z-14.0000 F300
G02 X219.3977 Y51.9807 I1.1838 J0.3109 F900
G02 X219.9362 Y49.9303 I-0.3227 J-1.1807 F900
G02 X217.8912 Y50.4892 I-0.8611 J0.8698 F900
G01 Z-16.0000 F300
G02 X219.3977 Y51.9807 I1.1838 J0.3109 F900
G02 X219.9362 Y49.9303 I-0.3227 J-1.1807 F900
G02 X217.8912 Y50.4892 I-0.8611 J0.8698 F900
G01 Z-18.0000 F300
G02 X219.3977 Y51.9807 I1.1838 J0.3109 F900
G02 X219.9362 Y49.9303 I-0.3227 J-1.1807 F900
G02 X217.8912 Y50.4892 I-0.8611 J0.8698 F900
G01 Z-20.0000 F300
G02 X219.3977 Y51.9807 I1.1838 J0.3109 F900
G02 X219.9362 Y49.9303 I-0.3227 J-1.1807 F900
G02 X217.8912 Y50.4892 I-0.8611 J0.8698 F900
G01 Z-22.0000 F300
G02 X219.3977 Y51.9807 I1.1838 J0.3109 F900
G02 X219.9362 Y49.9303 I-0.3227 J-1.1807 F900
G02 X217.8912 Y50.4892 I-0.8611 J0.8698 F900
G01 Z-24.0000 F300
G02 X219.3977 Y51.9807 I1.1838 J0.3109 F900
G02 X219.9362 Y49.9303 I-0.3227 J-1.1807 F900
G02 X217.8912 Y50.4892 I-0.8611 J0.8698 F900
G00 Z5.0000 F180


;No. 33: Part 34
G00 X217.9594 Y82.0458 Z5.0000 F1500
G00 Z0.5000 F180
G01 Z-2.0000 F300
G02 X217.8533 Y82.4797 I1.1027 J0.4997 F900
G01 X217.8511 Y82.5486 F900
G01 X217.8533 Y82.6203 F900
G02 X220.2973 Y82.4903 I1.2217 J-0.0701 F900
G02 X217.9594 Y82.0458 I-1.2225 J0.0597 F900
G01 Z-4.0000 F300
G02 X217.8533 Y82.4797 I1.1027 J0.4997 F900
G01 X217.8511 Y82.5486 F900
G01 X217.8533 Y82.6203 F900
G02 X220.2973 Y82.4903 I1.2217 J-0.0701 F900
G02 X217.9594 Y82.0458 I-1.2225 J0.0597 F900
G01 Z-6.0000 F300
G02 X217.8533 Y82.4797 I1.1027 J0.4997 F900
G01 X217.8511 Y82.5486 F900
G01 X217.8533 Y82.6203 F900
G02 X220.2973 Y82.4903 I1.2217 J-0.0701 F900
G02 X217.9594 Y82.0458 I-1.2225 J0.0597 F900
G01 Z-8.0000 F300
G02 X217.8533 Y82.4797 I1.1027 J0.4997 F900
G01 X217.8511 Y82.5486 F900
G01 X217.8533 Y82.6203 F900
G02 X220.2973 Y82.4903 I1.2217 J-0.0701 F900
G02 X217.9594 Y82.0458 I-1.2225 J0.0597 F900
G01 Z-10.0000 F300
G02 X217.8533 Y82.4797 I1.1027 J0.4997 F900
G01 X217.8511 Y82.5486 F900
G01 X217.8533 Y82.6203 F900
G02 X220.2973 Y82.4903 I1.2217 J-0.0701 F900
G02 X217.9594 Y82.0458 I-1.2225 J0.0597 F900
G01 Z-12.0000 F300
G02 X217.8533 Y82.4797 I1.1027 J0.4997 F900
G01 X217.8511 Y82.5486 F900
G01 X217.8533 Y82.6203 F900
G02 X220.2973 Y82.4903 I1.2217 J-0.0701 F900
G02 X217.9594 Y82.0458 I-1.2225 J0.0597 F900
G01 Z-14.0000 F300
G02 X217.8533 Y82.4797 I1.1027 J0.4997 F900
G01 X217.8511 Y82.5486 F900
G01 X217.8533 Y82.6203 F900
G02 X220.2973 Y82.4903 I1.2217 J-0.0701 F900
G02 X217.9594 Y82.0458 I-1.2225 J0.0597 F900
G01 Z-16.0000 F300
G02 X217.8533 Y82.4797 I1.1027 J0.4997 F900
G01 X217.8511 Y82.5486 F900
G01 X217.8533 Y82.6203 F900
G02 X220.2973 Y82.4903 I1.2217 J-0.0701 F900
G02 X217.9594 Y82.0458 I-1.2225 J0.0597 F900
G01 Z-18.0000 F300
G02 X217.8533 Y82.4797 I1.1027 J0.4997 F900
G01 X217.8511 Y82.5486 F900
G01 X217.8533 Y82.6203 F900
G02 X220.2973 Y82.4903 I1.2217 J-0.0701 F900
G02 X217.9594 Y82.0458 I-1.2225 J0.0597 F900
G01 Z-20.0000 F300
G02 X217.8533 Y82.4797 I1.1027 J0.4997 F900
G01 X217.8511 Y82.5486 F900
G01 X217.8533 Y82.6203 F900
G02 X220.2973 Y82.4903 I1.2217 J-0.0701 F900
G02 X217.9594 Y82.0458 I-1.2225 J0.0597 F900
G01 Z-22.0000 F300
G02 X217.8533 Y82.4797 I1.1027 J0.4997 F900
G01 X217.8511 Y82.5486 F900
G01 X217.8533 Y82.6203 F900
G02 X220.2973 Y82.4903 I1.2217 J-0.0701 F900
G02 X217.9594 Y82.0458 I-1.2225 J0.0597 F900
G01 Z-24.0000 F300
G02 X217.8533 Y82.4797 I1.1027 J0.4997 F900
G01 X217.8511 Y82.5486 F900
G01 X217.8533 Y82.6203 F900
G02 X220.2973 Y82.4903 I1.2217 J-0.0701 F900
G02 X217.9594 Y82.0458 I-1.2225 J0.0597 F900
G00 Z5.0000 F180


;No. 34: Part 35
G00 X218.0103 Y113.6967 Z5.0000 F1500
G00 Z0.5000 F180
G01 Z-2.0000 F300
G02 X217.8533 Y114.2293 I1.0546 J0.6003 F900
G01 X217.8511 Y114.2986 F900
G01 X217.8527 Y114.3596 F900
G02 X220.2973 Y114.2404 I1.2223 J-0.0596 F900
G02 X218.0103 Y113.6967 I-1.2222 J0.0590 F900
G01 Z-4.0000 F300
G02 X217.8533 Y114.2293 I1.0546 J0.6003 F900
G01 X217.8511 Y114.2986 F900
G01 X217.8527 Y114.3596 F900
G02 X220.2973 Y114.2404 I1.2223 J-0.0596 F900
G02 X218.0103 Y113.6967 I-1.2222 J0.0590 F900
G01 Z-6.0000 F300
G02 X217.8533 Y114.2293 I1.0546 J0.6003 F900
G01 X217.8511 Y114.2986 F900
G01 X217.8527 Y114.3596 F900
G02 X220.2973 Y114.2404 I1.2223 J-0.0596 F900
G02 X218.0103 Y113.6967 I-1.2222 J0.0590 F900
G01 Z-8.0000 F300
G02 X217.8533 Y114.2293 I1.0546 J0.6003 F900
G01 X217.8511 Y114.2986 F900
G01 X217.8527 Y114.3596 F900
G02 X220.2973 Y114.2404 I1.2223 J-0.0596 F900
G02 X218.0103 Y113.6967 I-1.2222 J0.0590 F900
G01 Z-10.0000 F300
G02 X217.8533 Y114.2293 I1.0546 J0.6003 F900
G01 X217.8511 Y114.2986 F900
G01 X217.8527 Y114.3596 F900
G02 X220.2973 Y114.2404 I1.2223 J-0.0596 F900
G02 X218.0103 Y113.6967 I-1.2222 J0.0590 F900
G01 Z-12.0000 F300
G02 X217.8533 Y114.2293 I1.0546 J0.6003 F900
G01 X217.8511 Y114.2986 F900
G01 X217.8527 Y114.3596 F900
G02 X220.2973 Y114.2404 I1.2223 J-0.0596 F900
G02 X218.0103 Y113.6967 I-1.2222 J0.0590 F900
G01 Z-14.0000 F300
G02 X217.8533 Y114.2293 I1.0546 J0.6003 F900
G01 X217.8511 Y114.2986 F900
G01 X217.8527 Y114.3596 F900
G02 X220.2973 Y114.2404 I1.2223 J-0.0596 F900
G02 X218.0103 Y113.6967 I-1.2222 J0.0590 F900
G01 Z-16.0000 F300
G02 X217.8533 Y114.2293 I1.0546 J0.6003 F900
G01 X217.8511 Y114.2986 F900
G01 X217.8527 Y114.3596 F900
G02 X220.2973 Y114.2404 I1.2223 J-0.0596 F900
G02 X218.0103 Y113.6967 I-1.2222 J0.0590 F900
G01 Z-18.0000 F300
G02 X217.8533 Y114.2293 I1.0546 J0.6003 F900
G01 X217.8511 Y114.2986 F900
G01 X217.8527 Y114.3596 F900
G02 X220.2973 Y114.2404 I1.2223 J-0.0596 F900
G02 X218.0103 Y113.6967 I-1.2222 J0.0590 F900
G01 Z-20.0000 F300
G02 X217.8533 Y114.2293 I1.0546 J0.6003 F900
G01 X217.8511 Y114.2986 F900
G01 X217.8527 Y114.3596 F900
G02 X220.2973 Y114.2404 I1.2223 J-0.0596 F900
G02 X218.0103 Y113.6967 I-1.2222 J0.0590 F900
G01 Z-22.0000 F300
G02 X217.8533 Y114.2293 I1.0546 J0.6003 F900
G01 X217.8511 Y114.2986 F900
G01 X217.8527 Y114.3596 F900
G02 X220.2973 Y114.2404 I1.2223 J-0.0596 F900
G02 X218.0103 Y113.6967 I-1.2222 J0.0590 F900
G01 Z-24.0000 F300
G02 X217.8533 Y114.2293 I1.0546 J0.6003 F900
G01 X217.8511 Y114.2986 F900
G01 X217.8527 Y114.3596 F900
G02 X220.2973 Y114.2404 I1.2223 J-0.0596 F900
G02 X218.0103 Y113.6967 I-1.2222 J0.0590 F900
G00 Z5.0000 F180


;No. 35: Part 36
G00 X218.0846 Y145.3314 Z5.0000 F1500
G00 Z0.5000 F180
G01 Z-2.0000 F300
G02 X217.8511 Y146.0486 I0.9886 J0.7186 F900
G01 X217.8527 Y146.1096 F900
G02 X220.2967 Y145.9793 I1.2223 J-0.0596 F900
G02 X218.0846 Y145.3314 I-1.2215 J0.0702 F900
G01 Z-4.0000 F300
G02 X217.8511 Y146.0486 I0.9886 J0.7186 F900
G01 X217.8527 Y146.1096 F900
G02 X220.2967 Y145.9793 I1.2223 J-0.0596 F900
G02 X218.0846 Y145.3314 I-1.2215 J0.0702 F900
G01 Z-6.0000 F300
G02 X217.8511 Y146.0486 I0.9886 J0.7186 F900
G01 X217.8527 Y146.1096 F900
G02 X220.2967 Y145.9793 I1.2223 J-0.0596 F900
G02 X218.0846 Y145.3314 I-1.2215 J0.0702 F900
G01 Z-8.0000 F300
G02 X217.8511 Y146.0486 I0.9886 J0.7186 F900
G01 X217.8527 Y146.1096 F900
G02 X220.2967 Y145.9793 I1.2223 J-0.0596 F900
G02 X218.0846 Y145.3314 I-1.2215 J0.0702 F900
G01 Z-10.0000 F300
G02 X217.8511 Y146.0486 I0.9886 J0.7186 F900
G01 X217.8527 Y146.1096 F900
G02 X220.2967 Y145.9793 I1.2223 J-0.0596 F900
G02 X218.0846 Y145.3314 I-1.2215 J0.0702 F900
G01 Z-12.0000 F300
G02 X217.8511 Y146.0486 I0.9886 J0.7186 F900
G01 X217.8527 Y146.1096 F900
G02 X220.2967 Y145.9793 I1.2223 J-0.0596 F900
G02 X218.0846 Y145.3314 I-1.2215 J0.0702 F900
G01 Z-14.0000 F300
G02 X217.8511 Y146.0486 I0.9886 J0.7186 F900
G01 X217.8527 Y146.1096 F900
G02 X220.2967 Y145.9793 I1.2223 J-0.0596 F900
G02 X218.0846 Y145.3314 I-1.2215 J0.0702 F900
G01 Z-16.0000 F300
G02 X217.8511 Y146.0486 I0.9886 J0.7186 F900
G01 X217.8527 Y146.1096 F900
G02 X220.2967 Y145.9793 I1.2223 J-0.0596 F900
G02 X218.0846 Y145.3314 I-1.2215 J0.0702 F900
G01 Z-18.0000 F300
G02 X217.8511 Y146.0486 I0.9886 J0.7186 F900
G01 X217.8527 Y146.1096 F900
G02 X220.2967 Y145.9793 I1.2223 J-0.0596 F900
G02 X218.0846 Y145.3314 I-1.2215 J0.0702 F900
G01 Z-20.0000 F300
G02 X217.8511 Y146.0486 I0.9886 J0.7186 F900
G01 X217.8527 Y146.1096 F900
G02 X220.2967 Y145.9793 I1.2223 J-0.0596 F900
G02 X218.0846 Y145.3314 I-1.2215 J0.0702 F900
G01 Z-22.0000 F300
G02 X217.8511 Y146.0486 I0.9886 J0.7186 F900
G01 X217.8527 Y146.1096 F900
G02 X220.2967 Y145.9793 I1.2223 J-0.0596 F900
G02 X218.0846 Y145.3314 I-1.2215 J0.0702 F900
G01 Z-24.0000 F300
G02 X217.8511 Y146.0486 I0.9886 J0.7186 F900
G01 X217.8527 Y146.1096 F900
G02 X220.2967 Y145.9793 I1.2223 J-0.0596 F900
G02 X218.0846 Y145.3314 I-1.2215 J0.0702 F900
G00 Z5.0000 F180


;No. 36: Part 41
G00 X249.7970 Y145.3865 Z5.0000 F1500
G00 Z0.5000 F180
G01 Z-2.0000 F300
G02 X249.6011 Y146.0486 I1.0216 J0.6623 F900
G01 X249.6033 Y146.1207 F900
G02 X252.0467 Y145.9793 I1.2217 J-0.0707 F900
G02 X249.7970 Y145.3865 I-1.2215 J0.0702 F900
G01 Z-4.0000 F300
G02 X249.6011 Y146.0486 I1.0216 J0.6623 F900
G01 X249.6033 Y146.1207 F900
G02 X252.0467 Y145.9793 I1.2217 J-0.0707 F900
G02 X249.7970 Y145.3865 I-1.2215 J0.0702 F900
G01 Z-6.0000 F300
G02 X249.6011 Y146.0486 I1.0216 J0.6623 F900
G01 X249.6033 Y146.1207 F900
G02 X252.0467 Y145.9793 I1.2217 J-0.0707 F900
G02 X249.7970 Y145.3865 I-1.2215 J0.0702 F900
G01 Z-8.0000 F300
G02 X249.6011 Y146.0486 I1.0216 J0.6623 F900
G01 X249.6033 Y146.1207 F900
G02 X252.0467 Y145.9793 I1.2217 J-0.0707 F900
G02 X249.7970 Y145.3865 I-1.2215 J0.0702 F900
G01 Z-10.0000 F300
G02 X249.6011 Y146.0486 I1.0216 J0.6623 F900
G01 X249.6033 Y146.1207 F900
G02 X252.0467 Y145.9793 I1.2217 J-0.0707 F900
G02 X249.7970 Y145.3865 I-1.2215 J0.0702 F900
G01 Z-12.0000 F300
G02 X249.6011 Y146.0486 I1.0216 J0.6623 F900
G01 X249.6033 Y146.1207 F900
G02 X252.0467 Y145.9793 I1.2217 J-0.0707 F900
G02 X249.7970 Y145.3865 I-1.2215 J0.0702 F900
G01 Z-14.0000 F300
G02 X249.6011 Y146.0486 I1.0216 J0.6623 F900
G01 X249.6033 Y146.1207 F900
G02 X252.0467 Y145.9793 I1.2217 J-0.0707 F900
G02 X249.7970 Y145.3865 I-1.2215 J0.0702 F900
G01 Z-16.0000 F300
G02 X249.6011 Y146.0486 I1.0216 J0.6623 F900
G01 X249.6033 Y146.1207 F900
G02 X252.0467 Y145.9793 I1.2217 J-0.0707 F900
G02 X249.7970 Y145.3865 I-1.2215 J0.0702 F900
G01 Z-18.0000 F300
G02 X249.6011 Y146.0486 I1.0216 J0.6623 F900
G01 X249.6033 Y146.1207 F900
G02 X252.0467 Y145.9793 I1.2217 J-0.0707 F900
G02 X249.7970 Y145.3865 I-1.2215 J0.0702 F900
G01 Z-20.0000 F300
G02 X249.6011 Y146.0486 I1.0216 J0.6623 F900
G01 X249.6033 Y146.1207 F900
G02 X252.0467 Y145.9793 I1.2217 J-0.0707 F900
G02 X249.7970 Y145.3865 I-1.2215 J0.0702 F900
G01 Z-22.0000 F300
G02 X249.6011 Y146.0486 I1.0216 J0.6623 F900
G01 X249.6033 Y146.1207 F900
G02 X252.0467 Y145.9793 I1.2217 J-0.0707 F900
G02 X249.7970 Y145.3865 I-1.2215 J0.0702 F900
G01 Z-24.0000 F300
G02 X249.6011 Y146.0486 I1.0216 J0.6623 F900
G01 X249.6033 Y146.1207 F900
G02 X252.0467 Y145.9793 I1.2217 J-0.0707 F900
G02 X249.7970 Y145.3865 I-1.2215 J0.0702 F900
G00 Z5.0000 F180


;No. 37: Part 40
G00 X249.7334 Y113.7459 Z5.0000 F1500
G00 Z0.5000 F180
G01 Z-2.0000 F300
G02 X249.6033 Y114.2293 I1.0889 J0.5522 F900
G01 X249.6011 Y114.2986 F900
G01 X249.6027 Y114.3596 F900
G02 X252.0473 Y114.2404 I1.2223 J-0.0596 F900
G02 X249.7334 Y113.7459 I-1.2225 J0.0596 F900
G01 Z-4.0000 F300
G02 X249.6033 Y114.2293 I1.0889 J0.5522 F900
G01 X249.6011 Y114.2986 F900
G01 X249.6027 Y114.3596 F900
G02 X252.0473 Y114.2404 I1.2223 J-0.0596 F900
G02 X249.7334 Y113.7459 I-1.2225 J0.0596 F900
G01 Z-6.0000 F300
G02 X249.6033 Y114.2293 I1.0889 J0.5522 F900
G01 X249.6011 Y114.2986 F900
G01 X249.6027 Y114.3596 F900
G02 X252.0473 Y114.2404 I1.2223 J-0.0596 F900
G02 X249.7334 Y113.7459 I-1.2225 J0.0596 F900
G01 Z-8.0000 F300
G02 X249.6033 Y114.2293 I1.0889 J0.5522 F900
G01 X249.6011 Y114.2986 F900
G01 X249.6027 Y114.3596 F900
G02 X252.0473 Y114.2404 I1.2223 J-0.0596 F900
G02 X249.7334 Y113.7459 I-1.2225 J0.0596 F900
G01 Z-10.0000 F300
G02 X249.6033 Y114.2293 I1.0889 J0.5522 F900
G01 X249.6011 Y114.2986 F900
G01 X249.6027 Y114.3596 F900
G02 X252.0473 Y114.2404 I1.2223 J-0.0596 F900
G02 X249.7334 Y113.7459 I-1.2225 J0.0596 F900
G01 Z-12.0000 F300
G02 X249.6033 Y114.2293 I1.0889 J0.5522 F900
G01 X249.6011 Y114.2986 F900
G01 X249.6027 Y114.3596 F900
G02 X252.0473 Y114.2404 I1.2223 J-0.0596 F900
G02 X249.7334 Y113.7459 I-1.2225 J0.0596 F900
G01 Z-14.0000 F300
G02 X249.6033 Y114.2293 I1.0889 J0.5522 F900
G01 X249.6011 Y114.2986 F900
G01 X249.6027 Y114.3596 F900
G02 X252.0473 Y114.2404 I1.2223 J-0.0596 F900
G02 X249.7334 Y113.7459 I-1.2225 J0.0596 F900
G01 Z-16.0000 F300
G02 X249.6033 Y114.2293 I1.0889 J0.5522 F900
G01 X249.6011 Y114.2986 F900
G01 X249.6027 Y114.3596 F900
G02 X252.0473 Y114.2404 I1.2223 J-0.0596 F900
G02 X249.7334 Y113.7459 I-1.2225 J0.0596 F900
G01 Z-18.0000 F300
G02 X249.6033 Y114.2293 I1.0889 J0.5522 F900
G01 X249.6011 Y114.2986 F900
G01 X249.6027 Y114.3596 F900
G02 X252.0473 Y114.2404 I1.2223 J-0.0596 F900
G02 X249.7334 Y113.7459 I-1.2225 J0.0596 F900
G01 Z-20.0000 F300
G02 X249.6033 Y114.2293 I1.0889 J0.5522 F900
G01 X249.6011 Y114.2986 F900
G01 X249.6027 Y114.3596 F900
G02 X252.0473 Y114.2404 I1.2223 J-0.0596 F900
G02 X249.7334 Y113.7459 I-1.2225 J0.0596 F900
G01 Z-22.0000 F300
G02 X249.6033 Y114.2293 I1.0889 J0.5522 F900
G01 X249.6011 Y114.2986 F900
G01 X249.6027 Y114.3596 F900
G02 X252.0473 Y114.2404 I1.2223 J-0.0596 F900
G02 X249.7334 Y113.7459 I-1.2225 J0.0596 F900
G01 Z-24.0000 F300
G02 X249.6033 Y114.2293 I1.0889 J0.5522 F900
G01 X249.6011 Y114.2986 F900
G01 X249.6027 Y114.3596 F900
G02 X252.0473 Y114.2404 I1.2223 J-0.0596 F900
G02 X249.7334 Y113.7459 I-1.2225 J0.0596 F900
G00 Z5.0000 F180


;No. 38: Part 39
G00 X249.6815 Y82.1147 Z5.0000 F1500
G00 Z0.5000 F180
G01 Z-2.0000 F300
G02 X249.6011 Y82.5486 I1.1334 J0.4344 F900
G01 X249.6027 Y82.6097 F900
G02 X252.0473 Y82.4903 I1.2223 J-0.0596 F900
G02 X249.6815 Y82.1147 I-1.2221 J0.0594 F900
G01 Z-4.0000 F300
G02 X249.6011 Y82.5486 I1.1334 J0.4344 F900
G01 X249.6027 Y82.6097 F900
G02 X252.0473 Y82.4903 I1.2223 J-0.0596 F900
G02 X249.6815 Y82.1147 I-1.2221 J0.0594 F900
G01 Z-6.0000 F300
G02 X249.6011 Y82.5486 I1.1334 J0.4344 F900
G01 X249.6027 Y82.6097 F900
G02 X252.0473 Y82.4903 I1.2223 J-0.0596 F900
G02 X249.6815 Y82.1147 I-1.2221 J0.0594 F900
G01 Z-8.0000 F300
G02 X249.6011 Y82.5486 I1.1334 J0.4344 F900
G01 X249.6027 Y82.6097 F900
G02 X252.0473 Y82.4903 I1.2223 J-0.0596 F900
G02 X249.6815 Y82.1147 I-1.2221 J0.0594 F900
G01 Z-10.0000 F300
G02 X249.6011 Y82.5486 I1.1334 J0.4344 F900
G01 X249.6027 Y82.6097 F900
G02 X252.0473 Y82.4903 I1.2223 J-0.0596 F900
G02 X249.6815 Y82.1147 I-1.2221 J0.0594 F900
G01 Z-12.0000 F300
G02 X249.6011 Y82.5486 I1.1334 J0.4344 F900
G01 X249.6027 Y82.6097 F900
G02 X252.0473 Y82.4903 I1.2223 J-0.0596 F900
G02 X249.6815 Y82.1147 I-1.2221 J0.0594 F900
G01 Z-14.0000 F300
G02 X249.6011 Y82.5486 I1.1334 J0.4344 F900
G01 X249.6027 Y82.6097 F900
G02 X252.0473 Y82.4903 I1.2223 J-0.0596 F900
G02 X249.6815 Y82.1147 I-1.2221 J0.0594 F900
G01 Z-16.0000 F300
G02 X249.6011 Y82.5486 I1.1334 J0.4344 F900
G01 X249.6027 Y82.6097 F900
G02 X252.0473 Y82.4903 I1.2223 J-0.0596 F900
G02 X249.6815 Y82.1147 I-1.2221 J0.0594 F900
G01 Z-18.0000 F300
G02 X249.6011 Y82.5486 I1.1334 J0.4344 F900
G01 X249.6027 Y82.6097 F900
G02 X252.0473 Y82.4903 I1.2223 J-0.0596 F900
G02 X249.6815 Y82.1147 I-1.2221 J0.0594 F900
G01 Z-20.0000 F300
G02 X249.6011 Y82.5486 I1.1334 J0.4344 F900
G01 X249.6027 Y82.6097 F900
G02 X252.0473 Y82.4903 I1.2223 J-0.0596 F900
G02 X249.6815 Y82.1147 I-1.2221 J0.0594 F900
G01 Z-22.0000 F300
G02 X249.6011 Y82.5486 I1.1334 J0.4344 F900
G01 X249.6027 Y82.6097 F900
G02 X252.0473 Y82.4903 I1.2223 J-0.0596 F900
G02 X249.6815 Y82.1147 I-1.2221 J0.0594 F900
G01 Z-24.0000 F300
G02 X249.6011 Y82.5486 I1.1334 J0.4344 F900
G01 X249.6027 Y82.6097 F900
G02 X252.0473 Y82.4903 I1.2223 J-0.0596 F900
G02 X249.6815 Y82.1147 I-1.2221 J0.0594 F900
G00 Z5.0000 F180


;No. 39: Part 38
G00 X249.6412 Y50.4892 Z5.0000 F1500
G00 Z0.5000 F180
G01 Z-2.0000 F300
G02 X251.1477 Y51.9807 I1.1838 J0.3109 F900
G02 X251.6862 Y49.9303 I-0.3227 J-1.1807 F900
G02 X249.6412 Y50.4892 I-0.8611 J0.8698 F900
G01 Z-4.0000 F300
G02 X251.1477 Y51.9807 I1.1838 J0.3109 F900
G02 X251.6862 Y49.9303 I-0.3227 J-1.1807 F900
G02 X249.6412 Y50.4892 I-0.8611 J0.8698 F900
G01 Z-6.0000 F300
G02 X251.1477 Y51.9807 I1.1838 J0.3109 F900
G02 X251.6862 Y49.9303 I-0.3227 J-1.1807 F900
G02 X249.6412 Y50.4892 I-0.8611 J0.8698 F900
G01 Z-8.0000 F300
G02 X251.1477 Y51.9807 I1.1838 J0.3109 F900
G02 X251.6862 Y49.9303 I-0.3227 J-1.1807 F900
G02 X249.6412 Y50.4892 I-0.8611 J0.8698 F900
G01 Z-10.0000 F300
G02 X251.1477 Y51.9807 I1.1838 J0.3109 F900
G02 X251.6862 Y49.9303 I-0.3227 J-1.1807 F900
G02 X249.6412 Y50.4892 I-0.8611 J0.8698 F900
G01 Z-12.0000 F300
G02 X251.1477 Y51.9807 I1.1838 J0.3109 F900
G02 X251.6862 Y49.9303 I-0.3227 J-1.1807 F900
G02 X249.6412 Y50.4892 I-0.8611 J0.8698 F900
G01 Z-14.0000 F300
G02 X251.1477 Y51.9807 I1.1838 J0.3109 F900
G02 X251.6862 Y49.9303 I-0.3227 J-1.1807 F900
G02 X249.6412 Y50.4892 I-0.8611 J0.8698 F900
G01 Z-16.0000 F300
G02 X251.1477 Y51.9807 I1.1838 J0.3109 F900
G02 X251.6862 Y49.9303 I-0.3227 J-1.1807 F900
G02 X249.6412 Y50.4892 I-0.8611 J0.8698 F900
G01 Z-18.0000 F300
G02 X251.1477 Y51.9807 I1.1838 J0.3109 F900
G02 X251.6862 Y49.9303 I-0.3227 J-1.1807 F900
G02 X249.6412 Y50.4892 I-0.8611 J0.8698 F900
G01 Z-20.0000 F300
G02 X251.1477 Y51.9807 I1.1838 J0.3109 F900
G02 X251.6862 Y49.9303 I-0.3227 J-1.1807 F900
G02 X249.6412 Y50.4892 I-0.8611 J0.8698 F900
G01 Z-22.0000 F300
G02 X251.1477 Y51.9807 I1.1838 J0.3109 F900
G02 X251.6862 Y49.9303 I-0.3227 J-1.1807 F900
G02 X249.6412 Y50.4892 I-0.8611 J0.8698 F900
G01 Z-24.0000 F300
G02 X251.1477 Y51.9807 I1.1838 J0.3109 F900
G02 X251.6862 Y49.9303 I-0.3227 J-1.1807 F900
G02 X249.6412 Y50.4892 I-0.8611 J0.8698 F900
G00 Z5.0000 F180


;No. 40: Part 37
G00 X249.6080 Y18.9188 Z5.0000 F1500
G00 Z0.5000 F180
G01 Z-2.0000 F300
G02 X251.3197 Y20.1695 I1.2169 J0.1312 F900
G02 X251.5470 Y18.0617 I-0.4948 J-1.1195 F900
G02 X249.6080 Y18.9188 I-0.7221 J0.9883 F900
G01 Z-4.0000 F300
G02 X251.3197 Y20.1695 I1.2169 J0.1312 F900
G02 X251.5470 Y18.0617 I-0.4948 J-1.1195 F900
G02 X249.6080 Y18.9188 I-0.7221 J0.9883 F900
G01 Z-6.0000 F300
G02 X251.3197 Y20.1695 I1.2169 J0.1312 F900
G02 X251.5470 Y18.0617 I-0.4948 J-1.1195 F900
G02 X249.6080 Y18.9188 I-0.7221 J0.9883 F900
G01 Z-8.0000 F300
G02 X251.3197 Y20.1695 I1.2169 J0.1312 F900
G02 X251.5470 Y18.0617 I-0.4948 J-1.1195 F900
G02 X249.6080 Y18.9188 I-0.7221 J0.9883 F900
G01 Z-10.0000 F300
G02 X251.3197 Y20.1695 I1.2169 J0.1312 F900
G02 X251.5470 Y18.0617 I-0.4948 J-1.1195 F900
G02 X249.6080 Y18.9188 I-0.7221 J0.9883 F900
G01 Z-12.0000 F300
G02 X251.3197 Y20.1695 I1.2169 J0.1312 F900
G02 X251.5470 Y18.0617 I-0.4948 J-1.1195 F900
G02 X249.6080 Y18.9188 I-0.7221 J0.9883 F900
G01 Z-14.0000 F300
G02 X251.3197 Y20.1695 I1.2169 J0.1312 F900
G02 X251.5470 Y18.0617 I-0.4948 J-1.1195 F900
G02 X249.6080 Y18.9188 I-0.7221 J0.9883 F900
G01 Z-16.0000 F300
G02 X251.3197 Y20.1695 I1.2169 J0.1312 F900
G02 X251.5470 Y18.0617 I-0.4948 J-1.1195 F900
G02 X249.6080 Y18.9188 I-0.7221 J0.9883 F900
G01 Z-18.0000 F300
G02 X251.3197 Y20.1695 I1.2169 J0.1312 F900
G02 X251.5470 Y18.0617 I-0.4948 J-1.1195 F900
G02 X249.6080 Y18.9188 I-0.7221 J0.9883 F900
G01 Z-20.0000 F300
G02 X251.3197 Y20.1695 I1.2169 J0.1312 F900
G02 X251.5470 Y18.0617 I-0.4948 J-1.1195 F900
G02 X249.6080 Y18.9188 I-0.7221 J0.9883 F900
G01 Z-22.0000 F300
G02 X251.3197 Y20.1695 I1.2169 J0.1312 F900
G02 X251.5470 Y18.0617 I-0.4948 J-1.1195 F900
G02 X249.6080 Y18.9188 I-0.7221 J0.9883 F900
G01 Z-24.0000 F300
G02 X251.3197 Y20.1695 I1.2169 J0.1312 F900
G02 X251.5470 Y18.0617 I-0.4948 J-1.1195 F900
G02 X249.6080 Y18.9188 I-0.7221 J0.9883 F900
G00 Z5.0000 F180


;No. 41: Part 42
G00 X281.3580 Y18.9188 Z5.0000 F1500
G00 Z0.5000 F180
G01 Z-2.0000 F300
G02 X283.0697 Y20.1695 I1.2169 J0.1312 F900
G02 X283.2970 Y18.0617 I-0.4948 J-1.1195 F900
G02 X281.3580 Y18.9188 I-0.7221 J0.9883 F900
G01 Z-4.0000 F300
G02 X283.0697 Y20.1695 I1.2169 J0.1312 F900
G02 X283.2970 Y18.0617 I-0.4948 J-1.1195 F900
G02 X281.3580 Y18.9188 I-0.7221 J0.9883 F900
G01 Z-6.0000 F300
G02 X283.0697 Y20.1695 I1.2169 J0.1312 F900
G02 X283.2970 Y18.0617 I-0.4948 J-1.1195 F900
G02 X281.3580 Y18.9188 I-0.7221 J0.9883 F900
G01 Z-8.0000 F300
G02 X283.0697 Y20.1695 I1.2169 J0.1312 F900
G02 X283.2970 Y18.0617 I-0.4948 J-1.1195 F900
G02 X281.3580 Y18.9188 I-0.7221 J0.9883 F900
G01 Z-10.0000 F300
G02 X283.0697 Y20.1695 I1.2169 J0.1312 F900
G02 X283.2970 Y18.0617 I-0.4948 J-1.1195 F900
G02 X281.3580 Y18.9188 I-0.7221 J0.9883 F900
G01 Z-12.0000 F300
G02 X283.0697 Y20.1695 I1.2169 J0.1312 F900
G02 X283.2970 Y18.0617 I-0.4948 J-1.1195 F900
G02 X281.3580 Y18.9188 I-0.7221 J0.9883 F900
G01 Z-14.0000 F300
G02 X283.0697 Y20.1695 I1.2169 J0.1312 F900
G02 X283.2970 Y18.0617 I-0.4948 J-1.1195 F900
G02 X281.3580 Y18.9188 I-0.7221 J0.9883 F900
G01 Z-16.0000 F300
G02 X283.0697 Y20.1695 I1.2169 J0.1312 F900
G02 X283.2970 Y18.0617 I-0.4948 J-1.1195 F900
G02 X281.3580 Y18.9188 I-0.7221 J0.9883 F900
G01 Z-18.0000 F300
G02 X283.0697 Y20.1695 I1.2169 J0.1312 F900
G02 X283.2970 Y18.0617 I-0.4948 J-1.1195 F900
G02 X281.3580 Y18.9188 I-0.7221 J0.9883 F900
G01 Z-20.0000 F300
G02 X283.0697 Y20.1695 I1.2169 J0.1312 F900
G02 X283.2970 Y18.0617 I-0.4948 J-1.1195 F900
G02 X281.3580 Y18.9188 I-0.7221 J0.9883 F900
G01 Z-22.0000 F300
G02 X283.0697 Y20.1695 I1.2169 J0.1312 F900
G02 X283.2970 Y18.0617 I-0.4948 J-1.1195 F900
G02 X281.3580 Y18.9188 I-0.7221 J0.9883 F900
G01 Z-24.0000 F300
G02 X283.0697 Y20.1695 I1.2169 J0.1312 F900
G02 X283.2970 Y18.0617 I-0.4948 J-1.1195 F900
G02 X281.3580 Y18.9188 I-0.7221 J0.9883 F900
G00 Z5.0000 F180


;No. 42: Part 43
G00 X281.3775 Y50.5459 Z5.0000 F1500
G00 Z0.5000 F180
G01 Z-2.0000 F300
G02 X282.9535 Y51.9639 I1.1974 J0.2541 F900
G02 X283.3936 Y49.8900 I-0.3786 J-1.1640 F900
G02 X281.3775 Y50.5459 I-0.8187 J0.9099 F900
G01 Z-4.0000 F300
G02 X282.9535 Y51.9639 I1.1974 J0.2541 F900
G02 X283.3936 Y49.8900 I-0.3786 J-1.1640 F900
G02 X281.3775 Y50.5459 I-0.8187 J0.9099 F900
G01 Z-6.0000 F300
G02 X282.9535 Y51.9639 I1.1974 J0.2541 F900
G02 X283.3936 Y49.8900 I-0.3786 J-1.1640 F900
G02 X281.3775 Y50.5459 I-0.8187 J0.9099 F900
G01 Z-8.0000 F300
G02 X282.9535 Y51.9639 I1.1974 J0.2541 F900
G02 X283.3936 Y49.8900 I-0.3786 J-1.1640 F900
G02 X281.3775 Y50.5459 I-0.8187 J0.9099 F900
G01 Z-10.0000 F300
G02 X282.9535 Y51.9639 I1.1974 J0.2541 F900
G02 X283.3936 Y49.8900 I-0.3786 J-1.1640 F900
G02 X281.3775 Y50.5459 I-0.8187 J0.9099 F900
G01 Z-12.0000 F300
G02 X282.9535 Y51.9639 I1.1974 J0.2541 F900
G02 X283.3936 Y49.8900 I-0.3786 J-1.1640 F900
G02 X281.3775 Y50.5459 I-0.8187 J0.9099 F900
G01 Z-14.0000 F300
G02 X282.9535 Y51.9639 I1.1974 J0.2541 F900
G02 X283.3936 Y49.8900 I-0.3786 J-1.1640 F900
G02 X281.3775 Y50.5459 I-0.8187 J0.9099 F900
G01 Z-16.0000 F300
G02 X282.9535 Y51.9639 I1.1974 J0.2541 F900
G02 X283.3936 Y49.8900 I-0.3786 J-1.1640 F900
G02 X281.3775 Y50.5459 I-0.8187 J0.9099 F900
G01 Z-18.0000 F300
G02 X282.9535 Y51.9639 I1.1974 J0.2541 F900
G02 X283.3936 Y49.8900 I-0.3786 J-1.1640 F900
G02 X281.3775 Y50.5459 I-0.8187 J0.9099 F900
G01 Z-20.0000 F300
G02 X282.9535 Y51.9639 I1.1974 J0.2541 F900
G02 X283.3936 Y49.8900 I-0.3786 J-1.1640 F900
G02 X281.3775 Y50.5459 I-0.8187 J0.9099 F900
G01 Z-22.0000 F300
G02 X282.9535 Y51.9639 I1.1974 J0.2541 F900
G02 X283.3936 Y49.8900 I-0.3786 J-1.1640 F900
G02 X281.3775 Y50.5459 I-0.8187 J0.9099 F900
G01 Z-24.0000 F300
G02 X282.9535 Y51.9639 I1.1974 J0.2541 F900
G02 X283.3936 Y49.8900 I-0.3786 J-1.1640 F900
G02 X281.3775 Y50.5459 I-0.8187 J0.9099 F900
G00 Z5.0000 F180


;No. 43: Part 44
G00 X281.4100 Y82.1753 Z5.0000 F1500
G00 Z0.5000 F180
G01 Z-2.0000 F300
G02 X282.8334 Y83.7464 I1.1652 J0.3747 F900
G02 X283.4824 Y81.7282 I-0.2581 J-1.1965 F900
G02 X281.4100 Y82.1753 I-0.9071 J0.8218 F900
G01 Z-4.0000 F300
G02 X282.8334 Y83.7464 I1.1652 J0.3747 F900
G02 X283.4824 Y81.7282 I-0.2581 J-1.1965 F900
G02 X281.4100 Y82.1753 I-0.9071 J0.8218 F900
G01 Z-6.0000 F300
G02 X282.8334 Y83.7464 I1.1652 J0.3747 F900
G02 X283.4824 Y81.7282 I-0.2581 J-1.1965 F900
G02 X281.4100 Y82.1753 I-0.9071 J0.8218 F900
G01 Z-8.0000 F300
G02 X282.8334 Y83.7464 I1.1652 J0.3747 F900
G02 X283.4824 Y81.7282 I-0.2581 J-1.1965 F900
G02 X281.4100 Y82.1753 I-0.9071 J0.8218 F900
G01 Z-10.0000 F300
G02 X282.8334 Y83.7464 I1.1652 J0.3747 F900
G02 X283.4824 Y81.7282 I-0.2581 J-1.1965 F900
G02 X281.4100 Y82.1753 I-0.9071 J0.8218 F900
G01 Z-12.0000 F300
G02 X282.8334 Y83.7464 I1.1652 J0.3747 F900
G02 X283.4824 Y81.7282 I-0.2581 J-1.1965 F900
G02 X281.4100 Y82.1753 I-0.9071 J0.8218 F900
G01 Z-14.0000 F300
G02 X282.8334 Y83.7464 I1.1652 J0.3747 F900
G02 X283.4824 Y81.7282 I-0.2581 J-1.1965 F900
G02 X281.4100 Y82.1753 I-0.9071 J0.8218 F900
G01 Z-16.0000 F300
G02 X282.8334 Y83.7464 I1.1652 J0.3747 F900
G02 X283.4824 Y81.7282 I-0.2581 J-1.1965 F900
G02 X281.4100 Y82.1753 I-0.9071 J0.8218 F900
G01 Z-18.0000 F300
G02 X282.8334 Y83.7464 I1.1652 J0.3747 F900
G02 X283.4824 Y81.7282 I-0.2581 J-1.1965 F900
G02 X281.4100 Y82.1753 I-0.9071 J0.8218 F900
G01 Z-20.0000 F300
G02 X282.8334 Y83.7464 I1.1652 J0.3747 F900
G02 X283.4824 Y81.7282 I-0.2581 J-1.1965 F900
G02 X281.4100 Y82.1753 I-0.9071 J0.8218 F900
G01 Z-22.0000 F300
G02 X282.8334 Y83.7464 I1.1652 J0.3747 F900
G02 X283.4824 Y81.7282 I-0.2581 J-1.1965 F900
G02 X281.4100 Y82.1753 I-0.9071 J0.8218 F900
G01 Z-24.0000 F300
G02 X282.8334 Y83.7464 I1.1652 J0.3747 F900
G02 X283.4824 Y81.7282 I-0.2581 J-1.1965 F900
G02 X281.4100 Y82.1753 I-0.9071 J0.8218 F900
G00 Z5.0000 F180


;No. 44: Part 45
G00 X281.4586 Y113.7982 Z5.0000 F1500
G00 Z0.5000 F180
G01 Z-2.0000 F300
G02 X281.3533 Y114.2293 I1.0981 J0.4966 F900
G01 X281.3511 Y114.2986 F900
G01 X281.3527 Y114.3596 F900
G02 X283.7967 Y114.2293 I1.2223 J-0.0596 F900
G02 X281.4586 Y113.7982 I-1.2218 J0.0705 F900
G01 Z-4.0000 F300
G02 X281.3533 Y114.2293 I1.0981 J0.4966 F900
G01 X281.3511 Y114.2986 F900
G01 X281.3527 Y114.3596 F900
G02 X283.7967 Y114.2293 I1.2223 J-0.0596 F900
G02 X281.4586 Y113.7982 I-1.2218 J0.0705 F900
G01 Z-6.0000 F300
G02 X281.3533 Y114.2293 I1.0981 J0.4966 F900
G01 X281.3511 Y114.2986 F900
G01 X281.3527 Y114.3596 F900
G02 X283.7967 Y114.2293 I1.2223 J-0.0596 F900
G02 X281.4586 Y113.7982 I-1.2218 J0.0705 F900
G01 Z-8.0000 F300
G02 X281.3533 Y114.2293 I1.0981 J0.4966 F900
G01 X281.3511 Y114.2986 F900
G01 X281.3527 Y114.3596 F900
G02 X283.7967 Y114.2293 I1.2223 J-0.0596 F900
G02 X281.4586 Y113.7982 I-1.2218 J0.0705 F900
G01 Z-10.0000 F300
G02 X281.3533 Y114.2293 I1.0981 J0.4966 F900
G01 X281.3511 Y114.2986 F900
G01 X281.3527 Y114.3596 F900
G02 X283.7967 Y114.2293 I1.2223 J-0.0596 F900
G02 X281.4586 Y113.7982 I-1.2218 J0.0705 F900
G01 Z-12.0000 F300
G02 X281.3533 Y114.2293 I1.0981 J0.4966 F900
G01 X281.3511 Y114.2986 F900
G01 X281.3527 Y114.3596 F900
G02 X283.7967 Y114.2293 I1.2223 J-0.0596 F900
G02 X281.4586 Y113.7982 I-1.2218 J0.0705 F900
G01 Z-14.0000 F300
G02 X281.3533 Y114.2293 I1.0981 J0.4966 F900
G01 X281.3511 Y114.2986 F900
G01 X281.3527 Y114.3596 F900
G02 X283.7967 Y114.2293 I1.2223 J-0.0596 F900
G02 X281.4586 Y113.7982 I-1.2218 J0.0705 F900
G01 Z-16.0000 F300
G02 X281.3533 Y114.2293 I1.0981 J0.4966 F900
G01 X281.3511 Y114.2986 F900
G01 X281.3527 Y114.3596 F900
G02 X283.7967 Y114.2293 I1.2223 J-0.0596 F900
G02 X281.4586 Y113.7982 I-1.2218 J0.0705 F900
G01 Z-18.0000 F300
G02 X281.3533 Y114.2293 I1.0981 J0.4966 F900
G01 X281.3511 Y114.2986 F900
G01 X281.3527 Y114.3596 F900
G02 X283.7967 Y114.2293 I1.2223 J-0.0596 F900
G02 X281.4586 Y113.7982 I-1.2218 J0.0705 F900
G01 Z-20.0000 F300
G02 X281.3533 Y114.2293 I1.0981 J0.4966 F900
G01 X281.3511 Y114.2986 F900
G01 X281.3527 Y114.3596 F900
G02 X283.7967 Y114.2293 I1.2223 J-0.0596 F900
G02 X281.4586 Y113.7982 I-1.2218 J0.0705 F900
G01 Z-22.0000 F300
G02 X281.3533 Y114.2293 I1.0981 J0.4966 F900
G01 X281.3511 Y114.2986 F900
G01 X281.3527 Y114.3596 F900
G02 X283.7967 Y114.2293 I1.2223 J-0.0596 F900
G02 X281.4586 Y113.7982 I-1.2218 J0.0705 F900
G01 Z-24.0000 F300
G02 X281.3533 Y114.2293 I1.0981 J0.4966 F900
G01 X281.3511 Y114.2986 F900
G01 X281.3527 Y114.3596 F900
G02 X283.7967 Y114.2293 I1.2223 J-0.0596 F900
G02 X281.4586 Y113.7982 I-1.2218 J0.0705 F900
G00 Z5.0000 F180


;No. 45: Part 46
G00 X281.5103 Y145.4467 Z5.0000 F1500
G00 Z0.5000 F180
G01 Z-2.0000 F300
