;Project drawerfor6mm
;Created by Estlcam version 11 build 11,030
;Machining time about 01:08:04 hours

G90
M03 S24000
G00 X0.0000 Y0.0000 Z0.0000 F1500
G00 Z5.0000 F180


;No. 1: Part 2
G00 X28.3930 Y18.9195 F1500
G00 Z0.5000 F180
G01 Z-2.0000 F300 S24000
G02 X28.5531 Y19.2729 I0.1820 J0.1304 F900
G02 X28.7790 Y18.9575 I0.0219 J-0.2229 F900
G02 X28.3930 Y18.9195 I-0.2040 J0.0924 F900
G01 Z-4.0000 F300
G02 X28.5531 Y19.2729 I0.1820 J0.1304 F900
G02 X28.7790 Y18.9575 I0.0219 J-0.2229 F900
G02 X28.3930 Y18.9195 I-0.2040 J0.0924 F900
G01 Z-6.0000 F300
G02 X28.5531 Y19.2729 I0.1820 J0.1304 F900
G02 X28.7790 Y18.9575 I0.0219 J-0.2229 F900
G02 X28.3930 Y18.9195 I-0.2040 J0.0924 F900
G01 Z-8.0000 F300
G02 X28.5531 Y19.2729 I0.1820 J0.1304 F900
G02 X28.7790 Y18.9575 I0.0219 J-0.2229 F900
G02 X28.3930 Y18.9195 I-0.2040 J0.0924 F900
G01 Z-10.0000 F300
G02 X28.5531 Y19.2729 I0.1820 J0.1304 F900
G02 X28.7790 Y18.9575 I0.0219 J-0.2229 F900
G02 X28.3930 Y18.9195 I-0.2040 J0.0924 F900
G01 Z-12.0000 F300
G02 X28.5531 Y19.2729 I0.1820 J0.1304 F900
G02 X28.7790 Y18.9575 I0.0219 J-0.2229 F900
G02 X28.3930 Y18.9195 I-0.2040 J0.0924 F900
G01 Z-14.0000 F300
G02 X28.5531 Y19.2729 I0.1820 J0.1304 F900
G02 X28.7790 Y18.9575 I0.0219 J-0.2229 F900
G02 X28.3930 Y18.9195 I-0.2040 J0.0924 F900
G01 Z-16.0000 F300
G02 X28.5531 Y19.2729 I0.1820 J0.1304 F900
G02 X28.7790 Y18.9575 I0.0219 J-0.2229 F900
G02 X28.3930 Y18.9195 I-0.2040 J0.0924 F900
G01 Z-18.0000 F300
G02 X28.5531 Y19.2729 I0.1820 J0.1304 F900
G02 X28.7790 Y18.9575 I0.0219 J-0.2229 F900
G02 X28.3930 Y18.9195 I-0.2040 J0.0924 F900
G01 Z-20.0000 F300
G02 X28.5531 Y19.2729 I0.1820 J0.1304 F900
G02 X28.7790 Y18.9575 I0.0219 J-0.2229 F900
G02 X28.3930 Y18.9195 I-0.2040 J0.0924 F900
G01 Z-22.0000 F300
G02 X28.5531 Y19.2729 I0.1820 J0.1304 F900
G02 X28.7790 Y18.9575 I0.0219 J-0.2229 F900
G02 X28.3930 Y18.9195 I-0.2040 J0.0924 F900
G01 Z-24.0000 F300
G02 X28.5531 Y19.2729 I0.1820 J0.1304 F900
G02 X28.7790 Y18.9575 I0.0219 J-0.2229 F900
G02 X28.3930 Y18.9195 I-0.2040 J0.0924 F900
G00 Z5.0000 F180


;No. 2: Part 3
G00 X28.4724 Y50.6009 Z5.0000 F1500
G00 Z0.5000 F180
G01 Z-2.0000 F300
G02 X28.4539 Y50.9884 I0.1026 J0.1991 F900
G02 X28.7987 Y50.8107 I0.1211 J-0.1884 F900
G02 X28.4724 Y50.6009 I-0.2237 J-0.0107 F900
G01 Z-4.0000 F300
G02 X28.4539 Y50.9884 I0.1026 J0.1991 F900
G02 X28.7987 Y50.8107 I0.1211 J-0.1884 F900
G02 X28.4724 Y50.6009 I-0.2237 J-0.0107 F900
G01 Z-6.0000 F300
G02 X28.4539 Y50.9884 I0.1026 J0.1991 F900
G02 X28.7987 Y50.8107 I0.1211 J-0.1884 F900
G02 X28.4724 Y50.6009 I-0.2237 J-0.0107 F900
G01 Z-8.0000 F300
G02 X28.4539 Y50.9884 I0.1026 J0.1991 F900
G02 X28.7987 Y50.8107 I0.1211 J-0.1884 F900
G02 X28.4724 Y50.6009 I-0.2237 J-0.0107 F900
G01 Z-10.0000 F300
G02 X28.4539 Y50.9884 I0.1026 J0.1991 F900
G02 X28.7987 Y50.8107 I0.1211 J-0.1884 F900
G02 X28.4724 Y50.6009 I-0.2237 J-0.0107 F900
G01 Z-12.0000 F300
G02 X28.4539 Y50.9884 I0.1026 J0.1991 F900
G02 X28.7987 Y50.8107 I0.1211 J-0.1884 F900
G02 X28.4724 Y50.6009 I-0.2237 J-0.0107 F900
G01 Z-14.0000 F300
G02 X28.4539 Y50.9884 I0.1026 J0.1991 F900
G02 X28.7987 Y50.8107 I0.1211 J-0.1884 F900
G02 X28.4724 Y50.6009 I-0.2237 J-0.0107 F900
G01 Z-16.0000 F300
G02 X28.4539 Y50.9884 I0.1026 J0.1991 F900
G02 X28.7987 Y50.8107 I0.1211 J-0.1884 F900
G02 X28.4724 Y50.6009 I-0.2237 J-0.0107 F900
G01 Z-18.0000 F300
G02 X28.4539 Y50.9884 I0.1026 J0.1991 F900
G02 X28.7987 Y50.8107 I0.1211 J-0.1884 F900
G02 X28.4724 Y50.6009 I-0.2237 J-0.0107 F900
G01 Z-20.0000 F300
G02 X28.4539 Y50.9884 I0.1026 J0.1991 F900
G02 X28.7987 Y50.8107 I0.1211 J-0.1884 F900
G02 X28.4724 Y50.6009 I-0.2237 J-0.0107 F900
G01 Z-22.0000 F300
G02 X28.4539 Y50.9884 I0.1026 J0.1991 F900
G02 X28.7987 Y50.8107 I0.1211 J-0.1884 F900
G02 X28.4724 Y50.6009 I-0.2237 J-0.0107 F900
G01 Z-24.0000 F300
G02 X28.4539 Y50.9884 I0.1026 J0.1991 F900
G02 X28.7987 Y50.8107 I0.1211 J-0.1884 F900
G02 X28.4724 Y50.6009 I-0.2237 J-0.0107 F900
G00 Z5.0000 F180


;No. 3: Part 8
G00 X60.1582 Y50.6505 Z5.0000 F1500
G00 Z0.5000 F180
G01 Z-2.0000 F300
G02 X60.2789 Y51.0192 I0.1667 J0.1495 F900
G02 X60.5378 Y50.7303 I0.0461 J-0.2191 F900
G02 X60.1582 Y50.6505 I-0.2128 J0.0697 F900
G01 Z-4.0000 F300
G02 X60.2789 Y51.0192 I0.1667 J0.1495 F900
G02 X60.5378 Y50.7303 I0.0461 J-0.2191 F900
G02 X60.1582 Y50.6505 I-0.2128 J0.0697 F900
G01 Z-6.0000 F300
G02 X60.2789 Y51.0192 I0.1667 J0.1495 F900
G02 X60.5378 Y50.7303 I0.0461 J-0.2191 F900
G02 X60.1582 Y50.6505 I-0.2128 J0.0697 F900
G01 Z-8.0000 F300
G02 X60.2789 Y51.0192 I0.1667 J0.1495 F900
G02 X60.5378 Y50.7303 I0.0461 J-0.2191 F900
G02 X60.1582 Y50.6505 I-0.2128 J0.0697 F900
G01 Z-10.0000 F300
G02 X60.2789 Y51.0192 I0.1667 J0.1495 F900
G02 X60.5378 Y50.7303 I0.0461 J-0.2191 F900
G02 X60.1582 Y50.6505 I-0.2128 J0.0697 F900
G01 Z-12.0000 F300
G02 X60.2789 Y51.0192 I0.1667 J0.1495 F900
G02 X60.5378 Y50.7303 I0.0461 J-0.2191 F900
G02 X60.1582 Y50.6505 I-0.2128 J0.0697 F900
G01 Z-14.0000 F300
G02 X60.2789 Y51.0192 I0.1667 J0.1495 F900
G02 X60.5378 Y50.7303 I0.0461 J-0.2191 F900
G02 X60.1582 Y50.6505 I-0.2128 J0.0697 F900
G01 Z-16.0000 F300
G02 X60.2789 Y51.0192 I0.1667 J0.1495 F900
G02 X60.5378 Y50.7303 I0.0461 J-0.2191 F900
G02 X60.1582 Y50.6505 I-0.2128 J0.0697 F900
G01 Z-18.0000 F300
G02 X60.2789 Y51.0192 I0.1667 J0.1495 F900
G02 X60.5378 Y50.7303 I0.0461 J-0.2191 F900
G02 X60.1582 Y50.6505 I-0.2128 J0.0697 F900
G01 Z-20.0000 F300
G02 X60.2789 Y51.0192 I0.1667 J0.1495 F900
G02 X60.5378 Y50.7303 I0.0461 J-0.2191 F900
G02 X60.1582 Y50.6505 I-0.2128 J0.0697 F900
G01 Z-22.0000 F300
G02 X60.2789 Y51.0192 I0.1667 J0.1495 F900
G02 X60.5378 Y50.7303 I0.0461 J-0.2191 F900
G02 X60.1582 Y50.6505 I-0.2128 J0.0697 F900
G01 Z-24.0000 F300
G02 X60.2789 Y51.0192 I0.1667 J0.1495 F900
G02 X60.5378 Y50.7303 I0.0461 J-0.2191 F900
G02 X60.1582 Y50.6505 I-0.2128 J0.0697 F900
G00 Z5.0000 F180


;No. 4: Part 7
G00 X60.1158 Y18.9701 Z5.0000 F1500
G00 Z0.5000 F180
G01 Z-2.0000 F300
G02 X60.3603 Y19.2711 I0.2092 J0.0799 F900
G02 X60.4987 Y18.9088 I-0.0354 J-0.2211 F900
G02 X60.1158 Y18.9701 I-0.1738 J0.1412 F900
G01 Z-4.0000 F300
G02 X60.3603 Y19.2711 I0.2092 J0.0799 F900
G02 X60.4987 Y18.9088 I-0.0354 J-0.2211 F900
G02 X60.1158 Y18.9701 I-0.1738 J0.1412 F900
G01 Z-6.0000 F300
G02 X60.3603 Y19.2711 I0.2092 J0.0799 F900
G02 X60.4987 Y18.9088 I-0.0354 J-0.2211 F900
G02 X60.1158 Y18.9701 I-0.1738 J0.1412 F900
G01 Z-8.0000 F300
G02 X60.3603 Y19.2711 I0.2092 J0.0799 F900
G02 X60.4987 Y18.9088 I-0.0354 J-0.2211 F900
G02 X60.1158 Y18.9701 I-0.1738 J0.1412 F900
G01 Z-10.0000 F300
G02 X60.3603 Y19.2711 I0.2092 J0.0799 F900
G02 X60.4987 Y18.9088 I-0.0354 J-0.2211 F900
G02 X60.1158 Y18.9701 I-0.1738 J0.1412 F900
G01 Z-12.0000 F300
G02 X60.3603 Y19.2711 I0.2092 J0.0799 F900
G02 X60.4987 Y18.9088 I-0.0354 J-0.2211 F900
G02 X60.1158 Y18.9701 I-0.1738 J0.1412 F900
G01 Z-14.0000 F300
G02 X60.3603 Y19.2711 I0.2092 J0.0799 F900
G02 X60.4987 Y18.9088 I-0.0354 J-0.2211 F900
G02 X60.1158 Y18.9701 I-0.1738 J0.1412 F900
G01 Z-16.0000 F300
G02 X60.3603 Y19.2711 I0.2092 J0.0799 F900
G02 X60.4987 Y18.9088 I-0.0354 J-0.2211 F900
G02 X60.1158 Y18.9701 I-0.1738 J0.1412 F900
G01 Z-18.0000 F300
G02 X60.3603 Y19.2711 I0.2092 J0.0799 F900
G02 X60.4987 Y18.9088 I-0.0354 J-0.2211 F900
G02 X60.1158 Y18.9701 I-0.1738 J0.1412 F900
G01 Z-20.0000 F300
G02 X60.3603 Y19.2711 I0.2092 J0.0799 F900
G02 X60.4987 Y18.9088 I-0.0354 J-0.2211 F900
G02 X60.1158 Y18.9701 I-0.1738 J0.1412 F900
G01 Z-22.0000 F300
G02 X60.3603 Y19.2711 I0.2092 J0.0799 F900
G02 X60.4987 Y18.9088 I-0.0354 J-0.2211 F900
G02 X60.1158 Y18.9701 I-0.1738 J0.1412 F900
G01 Z-24.0000 F300
G02 X60.3603 Y19.2711 I0.2092 J0.0799 F900
G02 X60.4987 Y18.9088 I-0.0354 J-0.2211 F900
G02 X60.1158 Y18.9701 I-0.1738 J0.1412 F900
G00 Z5.0000 F180


;No. 5: Part 12
G00 X92.4504 Y21.7250 Z5.0000 F1500
G00 Z0.5000 F180
G01 Z-2.0000 F300
G01 X155.1954 F900
G01 X155.1958 Y24.1250 F900
G01 X92.4508 F900
G01 X92.4511 Y26.5250 F900
G01 X155.1961 F900
G01 X155.1965 Y28.9250 F900
G01 X92.4515 F900
G01 X92.4519 Y31.3250 F900
G01 X155.1969 F900
G01 X155.1973 Y33.7250 F900
G01 X92.4523 F900
G01 X92.4527 Y36.1250 F900
G01 X155.1977 F900
G01 X155.1981 Y38.5250 F900
G01 X92.4531 F900
G01 X92.4535 Y40.9250 F900
G01 X155.1985 F900
G01 X155.1989 Y43.3250 F900
G01 X92.4539 F900
G01 X92.4542 Y45.7250 F900
G01 X155.1992 F900
G01 X155.1996 Y48.1250 F900
G01 X92.4546 F900
G00 Z5.0000 F180
G00 Z0.5000 F180
G01 Z-2.0000 F300
G01 X91.8500 F900
G01 Y50.7618 F900
G01 X91.8525 Y50.8255 F900
G02 X92.1150 Y51.0250 I0.2292 J-0.0292 F900
G01 X155.5369 F900
G02 X155.6982 Y50.9870 I0.0272 J-0.2464 F900
G01 X155.6880 Y50.9933 F900
G02 X155.7636 Y50.9211 I-0.1176 J-0.1986 F900
G01 X155.7693 Y50.9109 F900
G02 X155.8000 Y50.7600 I-0.2326 J-0.1259 F900
G01 X155.7999 Y19.0811 F900
G01 X155.7983 Y19.0329 F900
G02 X155.7856 Y18.9740 I-0.2012 J0.0124 F900
G02 X155.5350 Y18.8250 I-0.2191 J0.0833 F900
G01 X92.1132 F900
G02 X91.8521 Y19.0290 I-0.0319 J0.2283 F900
G01 X91.8500 Y19.0900 F900
G01 Y48.1250 F900
G01 X92.4546 F900
G00 Z5.0000 F180
G00 X92.4504 Y21.7250 F1500
G00 Z-1.5000 F180
G01 Z-4.0000 F300
G01 X155.1954 F900
G01 X155.1958 Y24.1250 F900
G01 X92.4508 F900
G01 X92.4511 Y26.5250 F900
G01 X155.1961 F900
G01 X155.1965 Y28.9250 F900
G01 X92.4515 F900
G01 X92.4519 Y31.3250 F900
G01 X155.1969 F900
G01 X155.1973 Y33.7250 F900
G01 X92.4523 F900
G01 X92.4527 Y36.1250 F900
G01 X155.1977 F900
G01 X155.1981 Y38.5250 F900
G01 X92.4531 F900
G01 X92.4535 Y40.9250 F900
G01 X155.1985 F900
G01 X155.1989 Y43.3250 F900
G01 X92.4539 F900
G01 X92.4542 Y45.7250 F900
G01 X155.1992 F900
G01 X155.1996 Y48.1250 F900
G01 X92.4546 F900
G00 Z5.0000 F180
G00 Z-1.5000 F180
G01 Z-4.0000 F300
G01 X91.8500 F900
G01 Y50.7618 F900
G01 X91.8525 Y50.8255 F900
G02 X92.1150 Y51.0250 I0.2292 J-0.0292 F900
G01 X155.5369 F900
G02 X155.6982 Y50.9870 I0.0272 J-0.2464 F900
G01 X155.6880 Y50.9933 F900
G02 X155.7636 Y50.9211 I-0.1176 J-0.1986 F900
G01 X155.7693 Y50.9109 F900
G02 X155.8000 Y50.7600 I-0.2326 J-0.1259 F900
G01 X155.7999 Y19.0811 F900
G01 X155.7983 Y19.0329 F900
G02 X155.7856 Y18.9740 I-0.2012 J0.0124 F900
G02 X155.5350 Y18.8250 I-0.2191 J0.0833 F900
G01 X92.1132 F900
G02 X91.8521 Y19.0290 I-0.0319 J0.2283 F900
G01 X91.8500 Y19.0900 F900
G01 Y48.1250 F900
G01 X92.4546 F900
G00 Z5.0000 F180
G00 X92.4504 Y21.7250 F1500
G00 Z-3.5000 F180
G01 Z-6.0000 F300
G01 X155.1954 F900
G01 X155.1958 Y24.1250 F900
G01 X92.4508 F900
G01 X92.4511 Y26.5250 F900
G01 X155.1961 F900
G01 X155.1965 Y28.9250 F900
G01 X92.4515 F900
G01 X92.4519 Y31.3250 F900
G01 X155.1969 F900
G01 X155.1973 Y33.7250 F900
G01 X92.4523 F900
G01 X92.4527 Y36.1250 F900
G01 X155.1977 F900
G01 X155.1981 Y38.5250 F900
G01 X92.4531 F900
G01 X92.4535 Y40.9250 F900
G01 X155.1985 F900
G01 X155.1989 Y43.3250 F900
G01 X92.4539 F900
G01 X92.4542 Y45.7250 F900
G01 X155.1992 F900
G01 X155.1996 Y48.1250 F900
G01 X92.4546 F900
G00 Z5.0000 F180
G00 Z-3.5000 F180
G01 Z-6.0000 F300
G01 X91.8500 F900
G01 Y50.7618 F900
G01 X91.8525 Y50.8255 F900
G02 X92.1150 Y51.0250 I0.2292 J-0.0292 F900
G01 X155.5369 F900
G02 X155.6982 Y50.9870 I0.0272 J-0.2464 F900
G01 X155.6880 Y50.9933 F900
G02 X155.7636 Y50.9211 I-0.1176 J-0.1986 F900
G01 X155.7693 Y50.9109 F900
G02 X155.8000 Y50.7600 I-0.2326 J-0.1259 F900
G01 X155.7999 Y19.0811 F900
G01 X155.7983 Y19.0329 F900
G02 X155.7856 Y18.9740 I-0.2012 J0.0124 F900
G02 X155.5350 Y18.8250 I-0.2191 J0.0833 F900
G01 X92.1132 F900
G02 X91.8521 Y19.0290 I-0.0319 J0.2283 F900
G01 X91.8500 Y19.0900 F900
G01 Y48.1250 F900
G01 X92.4546 F900
G00 Z5.0000 F180
G00 X92.4504 Y21.7250 F1500
G00 Z-5.5000 F180
G01 Z-8.0000 F300
G01 X155.1954 F900
G01 X155.1958 Y24.1250 F900
G01 X92.4508 F900
G01 X92.4511 Y26.5250 F900
G01 X155.1961 F900
G01 X155.1965 Y28.9250 F900
G01 X92.4515 F900
G01 X92.4519 Y31.3250 F900
G01 X155.1969 F900
G01 X155.1973 Y33.7250 F900
G01 X92.4523 F900
G01 X92.4527 Y36.1250 F900
G01 X155.1977 F900
G01 X155.1981 Y38.5250 F900
G01 X92.4531 F900
G01 X92.4535 Y40.9250 F900
G01 X155.1985 F900
G01 X155.1989 Y43.3250 F900
G01 X92.4539 F900
G01 X92.4542 Y45.7250 F900
G01 X155.1992 F900
G01 X155.1996 Y48.1250 F900
G01 X92.4546 F900
G00 Z5.0000 F180
G00 Z-5.5000 F180
G01 Z-8.0000 F300
G01 X91.8500 F900
G01 Y50.7618 F900
G01 X91.8525 Y50.8255 F900
G02 X92.1150 Y51.0250 I0.2292 J-0.0292 F900
G01 X155.5369 F900
G02 X155.6982 Y50.9870 I0.0272 J-0.2464 F900
G01 X155.6880 Y50.9933 F900
G02 X155.7636 Y50.9211 I-0.1176 J-0.1986 F900
G01 X155.7693 Y50.9109 F900
G02 X155.8000 Y50.7600 I-0.2326 J-0.1259 F900
G01 X155.7999 Y19.0811 F900
G01 X155.7983 Y19.0329 F900
G02 X155.7856 Y18.9740 I-0.2012 J0.0124 F900
G02 X155.5350 Y18.8250 I-0.2191 J0.0833 F900
G01 X92.1132 F900
G02 X91.8521 Y19.0290 I-0.0319 J0.2283 F900
G01 X91.8500 Y19.0900 F900
G01 Y48.1250 F900
G01 X92.4546 F900
G00 Z5.0000 F180
G00 X92.4504 Y21.7250 F1500
G00 Z-7.5000 F180
G01 Z-10.0000 F300
G01 X155.1954 F900
G01 X155.1958 Y24.1250 F900
G01 X92.4508 F900
G01 X92.4511 Y26.5250 F900
G01 X155.1961 F900
G01 X155.1965 Y28.9250 F900
G01 X92.4515 F900
G01 X92.4519 Y31.3250 F900
G01 X155.1969 F900
G01 X155.1973 Y33.7250 F900
G01 X92.4523 F900
G01 X92.4527 Y36.1250 F900
G01 X155.1977 F900
G01 X155.1981 Y38.5250 F900
G01 X92.4531 F900
G01 X92.4535 Y40.9250 F900
G01 X155.1985 F900
G01 X155.1989 Y43.3250 F900
G01 X92.4539 F900
G01 X92.4542 Y45.7250 F900
G01 X155.1992 F900
G01 X155.1996 Y48.1250 F900
G01 X92.4546 F900
G00 Z5.0000 F180
G00 Z-7.5000 F180
G01 Z-10.0000 F300
G01 X91.8500 F900
G01 Y50.7618 F900
G01 X91.8525 Y50.8255 F900
G02 X92.1150 Y51.0250 I0.2292 J-0.0292 F900
G01 X155.5369 F900
G02 X155.6982 Y50.9870 I0.0272 J-0.2464 F900
G01 X155.6880 Y50.9933 F900
G02 X155.7636 Y50.9211 I-0.1176 J-0.1986 F900
G01 X155.7693 Y50.9109 F900
G02 X155.8000 Y50.7600 I-0.2326 J-0.1259 F900
G01 X155.7999 Y19.0811 F900
G01 X155.7983 Y19.0329 F900
G02 X155.7856 Y18.9740 I-0.2012 J0.0124 F900
G02 X155.5350 Y18.8250 I-0.2191 J0.0833 F900
G01 X92.1132 F900
G02 X91.8521 Y19.0290 I-0.0319 J0.2283 F900
G01 X91.8500 Y19.0900 F900
G01 Y48.1250 F900
G01 X92.4546 F900
G00 Z5.0000 F180
G00 X92.4504 Y21.7250 F1500
G00 Z-9.5000 F180
G01 Z-12.0000 F300
G01 X155.1954 F900
G01 X155.1958 Y24.1250 F900
G01 X92.4508 F900
G01 X92.4511 Y26.5250 F900
G01 X155.1961 F900
G01 X155.1965 Y28.9250 F900
G01 X92.4515 F900
G01 X92.4519 Y31.3250 F900
G01 X155.1969 F900
G01 X155.1973 Y33.7250 F900
G01 X92.4523 F900
G01 X92.4527 Y36.1250 F900
G01 X155.1977 F900
G01 X155.1981 Y38.5250 F900
G01 X92.4531 F900
G01 X92.4535 Y40.9250 F900
G01 X155.1985 F900
G01 X155.1989 Y43.3250 F900
G01 X92.4539 F900
G01 X92.4542 Y45.7250 F900
G01 X155.1992 F900
G01 X155.1996 Y48.1250 F900
G01 X92.4546 F900
G00 Z5.0000 F180
G00 Z-9.5000 F180
G01 Z-12.0000 F300
G01 X91.8500 F900
G01 Y50.7618 F900
G01 X91.8525 Y50.8255 F900
G02 X92.1150 Y51.0250 I0.2292 J-0.0292 F900
G01 X155.5369 F900
G02 X155.6982 Y50.9870 I0.0272 J-0.2464 F900
G01 X155.6880 Y50.9933 F900
G02 X155.7636 Y50.9211 I-0.1176 J-0.1986 F900
G01 X155.7693 Y50.9109 F900
G02 X155.8000 Y50.7600 I-0.2326 J-0.1259 F900
G01 X155.7999 Y19.0811 F900
G01 X155.7983 Y19.0329 F900
G02 X155.7856 Y18.9740 I-0.2012 J0.0124 F900
G02 X155.5350 Y18.8250 I-0.2191 J0.0833 F900
G01 X92.1132 F900
G02 X91.8521 Y19.0290 I-0.0319 J0.2283 F900
G01 X91.8500 Y19.0900 F900
G01 Y48.1250 F900
G01 X92.4546 F900
G00 Z5.0000 F180


;No. 6: Part 13
G00 X91.9161 Y82.3923 Z5.0000 F1500
G00 Z0.5000 F180
G01 Z-2.0000 F300
G02 X92.0178 Y82.7665 I0.1589 J0.1578 F900
G02 X92.2911 Y82.4913 I0.0572 J-0.2165 F900
G02 X91.9161 Y82.3923 I-0.2161 J0.0587 F900
G01 Z-4.0000 F300
G02 X92.0178 Y82.7665 I0.1589 J0.1578 F900
G02 X92.2911 Y82.4913 I0.0572 J-0.2165 F900
G02 X91.9161 Y82.3923 I-0.2161 J0.0587 F900
G01 Z-6.0000 F300
G02 X92.0178 Y82.7665 I0.1589 J0.1578 F900
G02 X92.2911 Y82.4913 I0.0572 J-0.2165 F900
G02 X91.9161 Y82.3923 I-0.2161 J0.0587 F900
G01 Z-8.0000 F300
G02 X92.0178 Y82.7665 I0.1589 J0.1578 F900
G02 X92.2911 Y82.4913 I0.0572 J-0.2165 F900
G02 X91.9161 Y82.3923 I-0.2161 J0.0587 F900
G01 Z-10.0000 F300
G02 X92.0178 Y82.7665 I0.1589 J0.1578 F900
G02 X92.2911 Y82.4913 I0.0572 J-0.2165 F900
G02 X91.9161 Y82.3923 I-0.2161 J0.0587 F900
G01 Z-12.0000 F300
G02 X92.0178 Y82.7665 I0.1589 J0.1578 F900
G02 X92.2911 Y82.4913 I0.0572 J-0.2165 F900
G02 X91.9161 Y82.3923 I-0.2161 J0.0587 F900
G01 Z-14.0000 F300
G02 X92.0178 Y82.7665 I0.1589 J0.1578 F900
G02 X92.2911 Y82.4913 I0.0572 J-0.2165 F900
G02 X91.9161 Y82.3923 I-0.2161 J0.0587 F900
G01 Z-16.0000 F300
G02 X92.0178 Y82.7665 I0.1589 J0.1578 F900
G02 X92.2911 Y82.4913 I0.0572 J-0.2165 F900
G02 X91.9161 Y82.3923 I-0.2161 J0.0587 F900
G01 Z-18.0000 F300
G02 X92.0178 Y82.7665 I0.1589 J0.1578 F900
G02 X92.2911 Y82.4913 I0.0572 J-0.2165 F900
G02 X91.9161 Y82.3923 I-0.2161 J0.0587 F900
G01 Z-20.0000 F300
G02 X92.0178 Y82.7665 I0.1589 J0.1578 F900
G02 X92.2911 Y82.4913 I0.0572 J-0.2165 F900
G02 X91.9161 Y82.3923 I-0.2161 J0.0587 F900
G01 Z-22.0000 F300
G02 X92.0178 Y82.7665 I0.1589 J0.1578 F900
G02 X92.2911 Y82.4913 I0.0572 J-0.2165 F900
G02 X91.9161 Y82.3923 I-0.2161 J0.0587 F900
G01 Z-24.0000 F300
G02 X92.0178 Y82.7665 I0.1589 J0.1578 F900
G02 X92.2911 Y82.4913 I0.0572 J-0.2165 F900
G02 X91.9161 Y82.3923 I-0.2161 J0.0587 F900
G00 Z5.0000 F180


;No. 7: Part 9
G00 X60.2018 Y82.3630 Z5.0000 F1500
G00 Z0.5000 F180
G01 Z-2.0000 F300
G02 X60.2247 Y82.7502 I0.1232 J0.1870 F900
G02 X60.5485 Y82.5368 I0.1003 J-0.2002 F900
G02 X60.2018 Y82.3630 I-0.2236 J0.0132 F900
G01 Z-4.0000 F300
G02 X60.2247 Y82.7502 I0.1232 J0.1870 F900
G02 X60.5485 Y82.5368 I0.1003 J-0.2002 F900
G02 X60.2018 Y82.3630 I-0.2236 J0.0132 F900
G01 Z-6.0000 F300
G02 X60.2247 Y82.7502 I0.1232 J0.1870 F900
G02 X60.5485 Y82.5368 I0.1003 J-0.2002 F900
G02 X60.2018 Y82.3630 I-0.2236 J0.0132 F900
G01 Z-8.0000 F300
G02 X60.2247 Y82.7502 I0.1232 J0.1870 F900
G02 X60.5485 Y82.5368 I0.1003 J-0.2002 F900
G02 X60.2018 Y82.3630 I-0.2236 J0.0132 F900
G01 Z-10.0000 F300
G02 X60.2247 Y82.7502 I0.1232 J0.1870 F900
G02 X60.5485 Y82.5368 I0.1003 J-0.2002 F900
G02 X60.2018 Y82.3630 I-0.2236 J0.0132 F900
G01 Z-12.0000 F300
G02 X60.2247 Y82.7502 I0.1232 J0.1870 F900
G02 X60.5485 Y82.5368 I0.1003 J-0.2002 F900
G02 X60.2018 Y82.3630 I-0.2236 J0.0132 F900
G01 Z-14.0000 F300
G02 X60.2247 Y82.7502 I0.1232 J0.1870 F900
G02 X60.5485 Y82.5368 I0.1003 J-0.2002 F900
G02 X60.2018 Y82.3630 I-0.2236 J0.0132 F900
G01 Z-16.0000 F300
G02 X60.2247 Y82.7502 I0.1232 J0.1870 F900
G02 X60.5485 Y82.5368 I0.1003 J-0.2002 F900
G02 X60.2018 Y82.3630 I-0.2236 J0.0132 F900
G01 Z-18.0000 F300
G02 X60.2247 Y82.7502 I0.1232 J0.1870 F900
G02 X60.5485 Y82.5368 I0.1003 J-0.2002 F900
G02 X60.2018 Y82.3630 I-0.2236 J0.0132 F900
G01 Z-20.0000 F300
G02 X60.2247 Y82.7502 I0.1232 J0.1870 F900
G02 X60.5485 Y82.5368 I0.1003 J-0.2002 F900
G02 X60.2018 Y82.3630 I-0.2236 J0.0132 F900
G01 Z-22.0000 F300
G02 X60.2247 Y82.7502 I0.1232 J0.1870 F900
G02 X60.5485 Y82.5368 I0.1003 J-0.2002 F900
G02 X60.2018 Y82.3630 I-0.2236 J0.0132 F900
G01 Z-24.0000 F300
G02 X60.2247 Y82.7502 I0.1232 J0.1870 F900
G02 X60.5485 Y82.5368 I0.1003 J-0.2002 F900
G02 X60.2018 Y82.3630 I-0.2236 J0.0132 F900
G00 Z5.0000 F180


;No. 8: Part 4
G00 X28.5164 Y82.3338 Z5.0000 F1500
G00 Z0.5000 F180
G01 Z-2.0000 F300
G02 X28.4171 Y82.7088 I0.0586 J0.2161 F900
G02 X28.7915 Y82.6073 I0.1579 J-0.1588 F900
G02 X28.5164 Y82.3338 I-0.2165 J-0.0573 F900
G01 Z-4.0000 F300
G02 X28.4171 Y82.7088 I0.0586 J0.2161 F900
G02 X28.7915 Y82.6073 I0.1579 J-0.1588 F900
G02 X28.5164 Y82.3338 I-0.2165 J-0.0573 F900
G01 Z-6.0000 F300
G02 X28.4171 Y82.7088 I0.0586 J0.2161 F900
G02 X28.7915 Y82.6073 I0.1579 J-0.1588 F900
G02 X28.5164 Y82.3338 I-0.2165 J-0.0573 F900
G01 Z-8.0000 F300
G02 X28.4171 Y82.7088 I0.0586 J0.2161 F900
G02 X28.7915 Y82.6073 I0.1579 J-0.1588 F900
G02 X28.5164 Y82.3338 I-0.2165 J-0.0573 F900
G01 Z-10.0000 F300
G02 X28.4171 Y82.7088 I0.0586 J0.2161 F900
G02 X28.7915 Y82.6073 I0.1579 J-0.1588 F900
G02 X28.5164 Y82.3338 I-0.2165 J-0.0573 F900
G01 Z-12.0000 F300
G02 X28.4171 Y82.7088 I0.0586 J0.2161 F900
G02 X28.7915 Y82.6073 I0.1579 J-0.1588 F900
G02 X28.5164 Y82.3338 I-0.2165 J-0.0573 F900
G01 Z-14.0000 F300
G02 X28.4171 Y82.7088 I0.0586 J0.2161 F900
G02 X28.7915 Y82.6073 I0.1579 J-0.1588 F900
G02 X28.5164 Y82.3338 I-0.2165 J-0.0573 F900
G01 Z-16.0000 F300
G02 X28.4171 Y82.7088 I0.0586 J0.2161 F900
G02 X28.7915 Y82.6073 I0.1579 J-0.1588 F900
G02 X28.5164 Y82.3338 I-0.2165 J-0.0573 F900
G01 Z-18.0000 F300
G02 X28.4171 Y82.7088 I0.0586 J0.2161 F900
G02 X28.7915 Y82.6073 I0.1579 J-0.1588 F900
G02 X28.5164 Y82.3338 I-0.2165 J-0.0573 F900
G01 Z-20.0000 F300
G02 X28.4171 Y82.7088 I0.0586 J0.2161 F900
G02 X28.7915 Y82.6073 I0.1579 J-0.1588 F900
G02 X28.5164 Y82.3338 I-0.2165 J-0.0573 F900
G01 Z-22.0000 F300
G02 X28.4171 Y82.7088 I0.0586 J0.2161 F900
G02 X28.7915 Y82.6073 I0.1579 J-0.1588 F900
G02 X28.5164 Y82.3338 I-0.2165 J-0.0573 F900
G01 Z-24.0000 F300
G02 X28.4171 Y82.7088 I0.0586 J0.2161 F900
G02 X28.7915 Y82.6073 I0.1579 J-0.1588 F900
G02 X28.5164 Y82.3338 I-0.2165 J-0.0573 F900
G00 Z5.0000 F180


;No. 9: Part 5
G00 X28.5281 Y114.0808 Z5.0000 F1500
G00 Z0.5000 F180
G01 Z-2.0000 F300
G02 X28.3523 Y114.2764 I0.0464 J0.2185 F900
G01 X28.3511 Y114.3019 F900
G02 X28.4245 Y114.4658 I0.2242 J-0.0021 F900
G01 X28.4168 Y114.4585 F900
G02 X28.7255 Y114.1342 I0.1584 J-0.1583 F900
G02 X28.5281 Y114.0808 I-0.1504 J0.1645 F900
G01 Z-4.0000 F300
G02 X28.3523 Y114.2764 I0.0464 J0.2185 F900
G01 X28.3511 Y114.3019 F900
G02 X28.4245 Y114.4658 I0.2242 J-0.0021 F900
G01 X28.4168 Y114.4585 F900
G02 X28.7255 Y114.1342 I0.1584 J-0.1583 F900
G02 X28.5281 Y114.0808 I-0.1504 J0.1645 F900
G01 Z-6.0000 F300
G02 X28.3523 Y114.2764 I0.0464 J0.2185 F900
G01 X28.3511 Y114.3019 F900
G02 X28.4245 Y114.4658 I0.2242 J-0.0021 F900
G01 X28.4168 Y114.4585 F900
G02 X28.7255 Y114.1342 I0.1584 J-0.1583 F900
G02 X28.5281 Y114.0808 I-0.1504 J0.1645 F900
G01 Z-8.0000 F300
G02 X28.3523 Y114.2764 I0.0464 J0.2185 F900
G01 X28.3511 Y114.3019 F900
G02 X28.4245 Y114.4658 I0.2242 J-0.0021 F900
G01 X28.4168 Y114.4585 F900
G02 X28.7255 Y114.1342 I0.1584 J-0.1583 F900
G02 X28.5281 Y114.0808 I-0.1504 J0.1645 F900
G01 Z-10.0000 F300
G02 X28.3523 Y114.2764 I0.0464 J0.2185 F900
G01 X28.3511 Y114.3019 F900
G02 X28.4245 Y114.4658 I0.2242 J-0.0021 F900
G01 X28.4168 Y114.4585 F900
G02 X28.7255 Y114.1342 I0.1584 J-0.1583 F900
G02 X28.5281 Y114.0808 I-0.1504 J0.1645 F900
G01 Z-12.0000 F300
G02 X28.3523 Y114.2764 I0.0464 J0.2185 F900
G01 X28.3511 Y114.3019 F900
G02 X28.4245 Y114.4658 I0.2242 J-0.0021 F900
G01 X28.4168 Y114.4585 F900
G02 X28.7255 Y114.1342 I0.1584 J-0.1583 F900
G02 X28.5281 Y114.0808 I-0.1504 J0.1645 F900
G01 Z-14.0000 F300
G02 X28.3523 Y114.2764 I0.0464 J0.2185 F900
G01 X28.3511 Y114.3019 F900
G02 X28.4245 Y114.4658 I0.2242 J-0.0021 F900
G01 X28.4168 Y114.4585 F900
G02 X28.7255 Y114.1342 I0.1584 J-0.1583 F900
G02 X28.5281 Y114.0808 I-0.1504 J0.1645 F900
G01 Z-16.0000 F300
G02 X28.3523 Y114.2764 I0.0464 J0.2185 F900
G01 X28.3511 Y114.3019 F900
G02 X28.4245 Y114.4658 I0.2242 J-0.0021 F900
G01 X28.4168 Y114.4585 F900
G02 X28.7255 Y114.1342 I0.1584 J-0.1583 F900
G02 X28.5281 Y114.0808 I-0.1504 J0.1645 F900
G01 Z-18.0000 F300
G02 X28.3523 Y114.2764 I0.0464 J0.2185 F900
G01 X28.3511 Y114.3019 F900
G02 X28.4245 Y114.4658 I0.2242 J-0.0021 F900
G01 X28.4168 Y114.4585 F900
G02 X28.7255 Y114.1342 I0.1584 J-0.1583 F900
G02 X28.5281 Y114.0808 I-0.1504 J0.1645 F900
G01 Z-20.0000 F300
G02 X28.3523 Y114.2764 I0.0464 J0.2185 F900
G01 X28.3511 Y114.3019 F900
G02 X28.4245 Y114.4658 I0.2242 J-0.0021 F900
G01 X28.4168 Y114.4585 F900
G02 X28.7255 Y114.1342 I0.1584 J-0.1583 F900
G02 X28.5281 Y114.0808 I-0.1504 J0.1645 F900
G01 Z-22.0000 F300
G02 X28.3523 Y114.2764 I0.0464 J0.2185 F900
G01 X28.3511 Y114.3019 F900
G02 X28.4245 Y114.4658 I0.2242 J-0.0021 F900
G01 X28.4168 Y114.4585 F900
G02 X28.7255 Y114.1342 I0.1584 J-0.1583 F900
G02 X28.5281 Y114.0808 I-0.1504 J0.1645 F900
G01 Z-24.0000 F300
G02 X28.3523 Y114.2764 I0.0464 J0.2185 F900
G01 X28.3511 Y114.3019 F900
G02 X28.4245 Y114.4658 I0.2242 J-0.0021 F900
G01 X28.4168 Y114.4585 F900
G02 X28.7255 Y114.1342 I0.1584 J-0.1583 F900
G02 X28.5281 Y114.0808 I-0.1504 J0.1645 F900
G00 Z5.0000 F180


;No. 10: Part 10
G00 X60.2371 Y114.0942 Z5.0000 F1500
G00 Z0.5000 F180
G01 Z-2.0000 F300
G02 X60.1023 Y114.2764 I0.0878 J0.2060 F900
G01 X60.1014 Y114.3120 F900
G02 X60.5477 Y114.2764 I0.2236 J-0.0122 F900
G02 X60.2371 Y114.0942 I-0.2223 J0.0232 F900
G01 Z-4.0000 F300
G02 X60.1023 Y114.2764 I0.0878 J0.2060 F900
G01 X60.1014 Y114.3120 F900
G02 X60.5477 Y114.2764 I0.2236 J-0.0122 F900
G02 X60.2371 Y114.0942 I-0.2223 J0.0232 F900
G01 Z-6.0000 F300
G02 X60.1023 Y114.2764 I0.0878 J0.2060 F900
G01 X60.1014 Y114.3120 F900
G02 X60.5477 Y114.2764 I0.2236 J-0.0122 F900
G02 X60.2371 Y114.0942 I-0.2223 J0.0232 F900
G01 Z-8.0000 F300
G02 X60.1023 Y114.2764 I0.0878 J0.2060 F900
G01 X60.1014 Y114.3120 F900
G02 X60.5477 Y114.2764 I0.2236 J-0.0122 F900
G02 X60.2371 Y114.0942 I-0.2223 J0.0232 F900
G01 Z-10.0000 F300
G02 X60.1023 Y114.2764 I0.0878 J0.2060 F900
G01 X60.1014 Y114.3120 F900
G02 X60.5477 Y114.2764 I0.2236 J-0.0122 F900
G02 X60.2371 Y114.0942 I-0.2223 J0.0232 F900
G01 Z-12.0000 F300
G02 X60.1023 Y114.2764 I0.0878 J0.2060 F900
G01 X60.1014 Y114.3120 F900
G02 X60.5477 Y114.2764 I0.2236 J-0.0122 F900
G02 X60.2371 Y114.0942 I-0.2223 J0.0232 F900
G01 Z-14.0000 F300
G02 X60.1023 Y114.2764 I0.0878 J0.2060 F900
G01 X60.1014 Y114.3120 F900
G02 X60.5477 Y114.2764 I0.2236 J-0.0122 F900
G02 X60.2371 Y114.0942 I-0.2223 J0.0232 F900
G01 Z-16.0000 F300
G02 X60.1023 Y114.2764 I0.0878 J0.2060 F900
G01 X60.1014 Y114.3120 F900
G02 X60.5477 Y114.2764 I0.2236 J-0.0122 F900
G02 X60.2371 Y114.0942 I-0.2223 J0.0232 F900
G01 Z-18.0000 F300
G02 X60.1023 Y114.2764 I0.0878 J0.2060 F900
G01 X60.1014 Y114.3120 F900
G02 X60.5477 Y114.2764 I0.2236 J-0.0122 F900
G02 X60.2371 Y114.0942 I-0.2223 J0.0232 F900
G01 Z-20.0000 F300
G02 X60.1023 Y114.2764 I0.0878 J0.2060 F900
G01 X60.1014 Y114.3120 F900
G02 X60.5477 Y114.2764 I0.2236 J-0.0122 F900
G02 X60.2371 Y114.0942 I-0.2223 J0.0232 F900
G01 Z-22.0000 F300
G02 X60.1023 Y114.2764 I0.0878 J0.2060 F900
G01 X60.1014 Y114.3120 F900
G02 X60.5477 Y114.2764 I0.2236 J-0.0122 F900
G02 X60.2371 Y114.0942 I-0.2223 J0.0232 F900
G01 Z-24.0000 F300
G02 X60.1023 Y114.2764 I0.0878 J0.2060 F900
G01 X60.1014 Y114.3120 F900
G02 X60.5477 Y114.2764 I0.2236 J-0.0122 F900
G02 X60.2371 Y114.0942 I-0.2223 J0.0232 F900
G00 Z5.0000 F180


;No. 11: Part 14
G00 X91.9467 Y114.1164 Z5.0000 F1500
G00 Z0.5000 F180
G01 Z-2.0000 F300
G02 X91.8539 Y114.2639 I0.1295 J0.1844 F900
G01 X91.8511 Y114.3019 F900
G02 X92.2986 Y114.2880 I0.2240 J-0.0017 F900
G02 X92.2255 Y114.1342 I-0.2244 J0.0125 F900
G01 X92.2332 Y114.1415 F900
G02 X91.9467 Y114.1164 I-0.1582 J0.1575 F900
G01 Z-4.0000 F300
G02 X91.8539 Y114.2639 I0.1295 J0.1844 F900
G01 X91.8511 Y114.3019 F900
G02 X92.2986 Y114.2880 I0.2240 J-0.0017 F900
G02 X92.2255 Y114.1342 I-0.2244 J0.0125 F900
G01 X92.2332 Y114.1415 F900
G02 X91.9467 Y114.1164 I-0.1582 J0.1575 F900
G01 Z-6.0000 F300
G02 X91.8539 Y114.2639 I0.1295 J0.1844 F900
G01 X91.8511 Y114.3019 F900
G02 X92.2986 Y114.2880 I0.2240 J-0.0017 F900
G02 X92.2255 Y114.1342 I-0.2244 J0.0125 F900
G01 X92.2332 Y114.1415 F900
G02 X91.9467 Y114.1164 I-0.1582 J0.1575 F900
G01 Z-8.0000 F300
G02 X91.8539 Y114.2639 I0.1295 J0.1844 F900
G01 X91.8511 Y114.3019 F900
G02 X92.2986 Y114.2880 I0.2240 J-0.0017 F900
G02 X92.2255 Y114.1342 I-0.2244 J0.0125 F900
G01 X92.2332 Y114.1415 F900
G02 X91.9467 Y114.1164 I-0.1582 J0.1575 F900
G01 Z-10.0000 F300
G02 X91.8539 Y114.2639 I0.1295 J0.1844 F900
G01 X91.8511 Y114.3019 F900
G02 X92.2986 Y114.2880 I0.2240 J-0.0017 F900
G02 X92.2255 Y114.1342 I-0.2244 J0.0125 F900
G01 X92.2332 Y114.1415 F900
G02 X91.9467 Y114.1164 I-0.1582 J0.1575 F900
G01 Z-12.0000 F300
G02 X91.8539 Y114.2639 I0.1295 J0.1844 F900
G01 X91.8511 Y114.3019 F900
G02 X92.2986 Y114.2880 I0.2240 J-0.0017 F900
G02 X92.2255 Y114.1342 I-0.2244 J0.0125 F900
G01 X92.2332 Y114.1415 F900
G02 X91.9467 Y114.1164 I-0.1582 J0.1575 F900
G01 Z-14.0000 F300
G02 X91.8539 Y114.2639 I0.1295 J0.1844 F900
G01 X91.8511 Y114.3019 F900
G02 X92.2986 Y114.2880 I0.2240 J-0.0017 F900
G02 X92.2255 Y114.1342 I-0.2244 J0.0125 F900
G01 X92.2332 Y114.1415 F900
G02 X91.9467 Y114.1164 I-0.1582 J0.1575 F900
G01 Z-16.0000 F300
G02 X91.8539 Y114.2639 I0.1295 J0.1844 F900
G01 X91.8511 Y114.3019 F900
G02 X92.2986 Y114.2880 I0.2240 J-0.0017 F900
G02 X92.2255 Y114.1342 I-0.2244 J0.0125 F900
G01 X92.2332 Y114.1415 F900
G02 X91.9467 Y114.1164 I-0.1582 J0.1575 F900
G01 Z-18.0000 F300
G02 X91.8539 Y114.2639 I0.1295 J0.1844 F900
G01 X91.8511 Y114.3019 F900
G02 X92.2986 Y114.2880 I0.2240 J-0.0017 F900
G02 X92.2255 Y114.1342 I-0.2244 J0.0125 F900
G01 X92.2332 Y114.1415 F900
G02 X91.9467 Y114.1164 I-0.1582 J0.1575 F900
G01 Z-20.0000 F300
G02 X91.8539 Y114.2639 I0.1295 J0.1844 F900
G01 X91.8511 Y114.3019 F900
G02 X92.2986 Y114.2880 I0.2240 J-0.0017 F900
G02 X92.2255 Y114.1342 I-0.2244 J0.0125 F900
G01 X92.2332 Y114.1415 F900
G02 X91.9467 Y114.1164 I-0.1582 J0.1575 F900
G01 Z-22.0000 F300
G02 X91.8539 Y114.2639 I0.1295 J0.1844 F900
G01 X91.8511 Y114.3019 F900
G02 X92.2986 Y114.2880 I0.2240 J-0.0017 F900
G02 X92.2255 Y114.1342 I-0.2244 J0.0125 F900
G01 X92.2332 Y114.1415 F900
G02 X91.9467 Y114.1164 I-0.1582 J0.1575 F900
G01 Z-24.0000 F300
G02 X91.8539 Y114.2639 I0.1295 J0.1844 F900
G01 X91.8511 Y114.3019 F900
G02 X92.2986 Y114.2880 I0.2240 J-0.0017 F900
G02 X92.2255 Y114.1342 I-0.2244 J0.0125 F900
G01 X92.2332 Y114.1415 F900
G02 X91.9467 Y114.1164 I-0.1582 J0.1575 F900
G00 Z5.0000 F180


;No. 12: Part 17
G00 X123.6668 Y114.1418 Z5.0000 F1500
G00 Z0.5000 F180
G01 Z-2.0000 F300
G02 X123.6010 Y114.2919 I0.1574 J0.1585 F900
G01 X123.6019 Y114.2805 F900
G01 X123.6008 Y114.2980 F900
G01 X123.6018 Y114.3175 F900
G02 X123.6792 Y114.4701 I0.2258 J-0.0186 F900
G01 X123.6713 Y114.4626 F900
G02 X123.8270 Y114.5242 I0.1541 J-0.1617 F900
G01 X123.8160 Y114.5239 F900
G01 X123.8340 F900
G01 X123.8230 Y114.5242 F900
G02 X123.9951 Y114.4458 I-0.0004 J-0.2289 F900
G01 X123.9876 Y114.4537 F900
G02 X124.0489 Y114.2910 I-0.1611 J-0.1537 F900
G01 X124.0492 Y114.3020 F900
G02 X123.8230 Y114.0758 I-0.2245 J-0.0016 F900
G01 X123.8340 Y114.0761 F900
G01 X123.8160 F900
G01 X123.8270 Y114.0758 F900
G02 X123.6668 Y114.1418 I0.0002 J0.2278 F900
G01 Z-4.0000 F300
G02 X123.6010 Y114.2919 I0.1574 J0.1585 F900
G01 X123.6019 Y114.2805 F900
G01 X123.6008 Y114.2980 F900
G01 X123.6018 Y114.3175 F900
G02 X123.6792 Y114.4701 I0.2258 J-0.0186 F900
G01 X123.6713 Y114.4626 F900
G02 X123.8270 Y114.5242 I0.1541 J-0.1617 F900
G01 X123.8160 Y114.5239 F900
G01 X123.8340 F900
G01 X123.8230 Y114.5242 F900
G02 X123.9951 Y114.4458 I-0.0004 J-0.2289 F900
G01 X123.9876 Y114.4537 F900
G02 X124.0489 Y114.2910 I-0.1611 J-0.1537 F900
G01 X124.0492 Y114.3020 F900
G02 X123.8230 Y114.0758 I-0.2245 J-0.0016 F900
G01 X123.8340 Y114.0761 F900
G01 X123.8160 F900
G01 X123.8270 Y114.0758 F900
G02 X123.6668 Y114.1418 I0.0002 J0.2278 F900
G01 Z-6.0000 F300
G02 X123.6010 Y114.2919 I0.1574 J0.1585 F900
G01 X123.6019 Y114.2805 F900
G01 X123.6008 Y114.2980 F900
G01 X123.6018 Y114.3175 F900
G02 X123.6792 Y114.4701 I0.2258 J-0.0186 F900
G01 X123.6713 Y114.4626 F900
G02 X123.8270 Y114.5242 I0.1541 J-0.1617 F900
G01 X123.8160 Y114.5239 F900
G01 X123.8340 F900
G01 X123.8230 Y114.5242 F900
G02 X123.9951 Y114.4458 I-0.0004 J-0.2289 F900
G01 X123.9876 Y114.4537 F900
G02 X124.0489 Y114.2910 I-0.1611 J-0.1537 F900
G01 X124.0492 Y114.3020 F900
G02 X123.8230 Y114.0758 I-0.2245 J-0.0016 F900
G01 X123.8340 Y114.0761 F900
G01 X123.8160 F900
G01 X123.8270 Y114.0758 F900
G02 X123.6668 Y114.1418 I0.0002 J0.2278 F900
G01 Z-8.0000 F300
G02 X123.6010 Y114.2919 I0.1574 J0.1585 F900
G01 X123.6019 Y114.2805 F900
G01 X123.6008 Y114.2980 F900
G01 X123.6018 Y114.3175 F900
G02 X123.6792 Y114.4701 I0.2258 J-0.0186 F900
G01 X123.6713 Y114.4626 F900
G02 X123.8270 Y114.5242 I0.1541 J-0.1617 F900
G01 X123.8160 Y114.5239 F900
G01 X123.8340 F900
G01 X123.8230 Y114.5242 F900
G02 X123.9951 Y114.4458 I-0.0004 J-0.2289 F900
G01 X123.9876 Y114.4537 F900
G02 X124.0489 Y114.2910 I-0.1611 J-0.1537 F900
G01 X124.0492 Y114.3020 F900
G02 X123.8230 Y114.0758 I-0.2245 J-0.0016 F900
G01 X123.8340 Y114.0761 F900
G01 X123.8160 F900
G01 X123.8270 Y114.0758 F900
G02 X123.6668 Y114.1418 I0.0002 J0.2278 F900
G01 Z-10.0000 F300
G02 X123.6010 Y114.2919 I0.1574 J0.1585 F900
G01 X123.6019 Y114.2805 F900
G01 X123.6008 Y114.2980 F900
G01 X123.6018 Y114.3175 F900
G02 X123.6792 Y114.4701 I0.2258 J-0.0186 F900
G01 X123.6713 Y114.4626 F900
G02 X123.8270 Y114.5242 I0.1541 J-0.1617 F900
G01 X123.8160 Y114.5239 F900
G01 X123.8340 F900
G01 X123.8230 Y114.5242 F900
G02 X123.9951 Y114.4458 I-0.0004 J-0.2289 F900
G01 X123.9876 Y114.4537 F900
G02 X124.0489 Y114.2910 I-0.1611 J-0.1537 F900
G01 X124.0492 Y114.3020 F900
G02 X123.8230 Y114.0758 I-0.2245 J-0.0016 F900
G01 X123.8340 Y114.0761 F900
G01 X123.8160 F900
G01 X123.8270 Y114.0758 F900
G02 X123.6668 Y114.1418 I0.0002 J0.2278 F900
G01 Z-12.0000 F300
G02 X123.6010 Y114.2919 I0.1574 J0.1585 F900
G01 X123.6019 Y114.2805 F900
G01 X123.6008 Y114.2980 F900
G01 X123.6018 Y114.3175 F900
G02 X123.6792 Y114.4701 I0.2258 J-0.0186 F900
G01 X123.6713 Y114.4626 F900
G02 X123.8270 Y114.5242 I0.1541 J-0.1617 F900
G01 X123.8160 Y114.5239 F900
G01 X123.8340 F900
G01 X123.8230 Y114.5242 F900
G02 X123.9951 Y114.4458 I-0.0004 J-0.2289 F900
G01 X123.9876 Y114.4537 F900
G02 X124.0489 Y114.2910 I-0.1611 J-0.1537 F900
G01 X124.0492 Y114.3020 F900
G02 X123.8230 Y114.0758 I-0.2245 J-0.0016 F900
G01 X123.8340 Y114.0761 F900
G01 X123.8160 F900
G01 X123.8270 Y114.0758 F900
G02 X123.6668 Y114.1418 I0.0002 J0.2278 F900
G01 Z-14.0000 F300
G02 X123.6010 Y114.2919 I0.1574 J0.1585 F900
G01 X123.6019 Y114.2805 F900
G01 X123.6008 Y114.2980 F900
G01 X123.6018 Y114.3175 F900
G02 X123.6792 Y114.4701 I0.2258 J-0.0186 F900
G01 X123.6713 Y114.4626 F900
G02 X123.8270 Y114.5242 I0.1541 J-0.1617 F900
G01 X123.8160 Y114.5239 F900
G01 X123.8340 F900
G01 X123.8230 Y114.5242 F900
G02 X123.9951 Y114.4458 I-0.0004 J-0.2289 F900
G01 X123.9876 Y114.4537 F900
G02 X124.0489 Y114.2910 I-0.1611 J-0.1537 F900
G01 X124.0492 Y114.3020 F900
G02 X123.8230 Y114.0758 I-0.2245 J-0.0016 F900
G01 X123.8340 Y114.0761 F900
G01 X123.8160 F900
G01 X123.8270 Y114.0758 F900
G02 X123.6668 Y114.1418 I0.0002 J0.2278 F900
G01 Z-16.0000 F300
G02 X123.6010 Y114.2919 I0.1574 J0.1585 F900
G01 X123.6019 Y114.2805 F900
G01 X123.6008 Y114.2980 F900
G01 X123.6018 Y114.3175 F900
G02 X123.6792 Y114.4701 I0.2258 J-0.0186 F900
G01 X123.6713 Y114.4626 F900
G02 X123.8270 Y114.5242 I0.1541 J-0.1617 F900
G01 X123.8160 Y114.5239 F900
G01 X123.8340 F900
G01 X123.8230 Y114.5242 F900
G02 X123.9951 Y114.4458 I-0.0004 J-0.2289 F900
G01 X123.9876 Y114.4537 F900
G02 X124.0489 Y114.2910 I-0.1611 J-0.1537 F900
G01 X124.0492 Y114.3020 F900
G02 X123.8230 Y114.0758 I-0.2245 J-0.0016 F900
G01 X123.8340 Y114.0761 F900
G01 X123.8160 F900
G01 X123.8270 Y114.0758 F900
G02 X123.6668 Y114.1418 I0.0002 J0.2278 F900
G01 Z-18.0000 F300
G02 X123.6010 Y114.2919 I0.1574 J0.1585 F900
G01 X123.6019 Y114.2805 F900
G01 X123.6008 Y114.2980 F900
G01 X123.6018 Y114.3175 F900
G02 X123.6792 Y114.4701 I0.2258 J-0.0186 F900
G01 X123.6713 Y114.4626 F900
G02 X123.8270 Y114.5242 I0.1541 J-0.1617 F900
G01 X123.8160 Y114.5239 F900
G01 X123.8340 F900
G01 X123.8230 Y114.5242 F900
G02 X123.9951 Y114.4458 I-0.0004 J-0.2289 F900
G01 X123.9876 Y114.4537 F900
G02 X124.0489 Y114.2910 I-0.1611 J-0.1537 F900
G01 X124.0492 Y114.3020 F900
G02 X123.8230 Y114.0758 I-0.2245 J-0.0016 F900
G01 X123.8340 Y114.0761 F900
G01 X123.8160 F900
G01 X123.8270 Y114.0758 F900
G02 X123.6668 Y114.1418 I0.0002 J0.2278 F900
G01 Z-20.0000 F300
G02 X123.6010 Y114.2919 I0.1574 J0.1585 F900
G01 X123.6019 Y114.2805 F900
G01 X123.6008 Y114.2980 F900
G01 X123.6018 Y114.3175 F900
G02 X123.6792 Y114.4701 I0.2258 J-0.0186 F900
G01 X123.6713 Y114.4626 F900
G02 X123.8270 Y114.5242 I0.1541 J-0.1617 F900
G01 X123.8160 Y114.5239 F900
G01 X123.8340 F900
G01 X123.8230 Y114.5242 F900
G02 X123.9951 Y114.4458 I-0.0004 J-0.2289 F900
G01 X123.9876 Y114.4537 F900
G02 X124.0489 Y114.2910 I-0.1611 J-0.1537 F900
G01 X124.0492 Y114.3020 F900
G02 X123.8230 Y114.0758 I-0.2245 J-0.0016 F900
G01 X123.8340 Y114.0761 F900
G01 X123.8160 F900
G01 X123.8270 Y114.0758 F900
G02 X123.6668 Y114.1418 I0.0002 J0.2278 F900
G01 Z-22.0000 F300
G02 X123.6010 Y114.2919 I0.1574 J0.1585 F900
G01 X123.6019 Y114.2805 F900
G01 X123.6008 Y114.2980 F900
G01 X123.6018 Y114.3175 F900
G02 X123.6792 Y114.4701 I0.2258 J-0.0186 F900
G01 X123.6713 Y114.4626 F900
G02 X123.8270 Y114.5242 I0.1541 J-0.1617 F900
G01 X123.8160 Y114.5239 F900
G01 X123.8340 F900
G01 X123.8230 Y114.5242 F900
G02 X123.9951 Y114.4458 I-0.0004 J-0.2289 F900
G01 X123.9876 Y114.4537 F900
G02 X124.0489 Y114.2910 I-0.1611 J-0.1537 F900
G01 X124.0492 Y114.3020 F900
G02 X123.8230 Y114.0758 I-0.2245 J-0.0016 F900
G01 X123.8340 Y114.0761 F900
G01 X123.8160 F900
G01 X123.8270 Y114.0758 F900
G02 X123.6668 Y114.1418 I0.0002 J0.2278 F900
G01 Z-24.0000 F300
G02 X123.6010 Y114.2919 I0.1574 J0.1585 F900
G01 X123.6019 Y114.2805 F900
G01 X123.6008 Y114.2980 F900
G01 X123.6018 Y114.3175 F900
G02 X123.6792 Y114.4701 I0.2258 J-0.0186 F900
G01 X123.6713 Y114.4626 F900
G02 X123.8270 Y114.5242 I0.1541 J-0.1617 F900
G01 X123.8160 Y114.5239 F900
G01 X123.8340 F900
G01 X123.8230 Y114.5242 F900
G02 X123.9951 Y114.4458 I-0.0004 J-0.2289 F900
G01 X123.9876 Y114.4537 F900
G02 X124.0489 Y114.2910 I-0.1611 J-0.1537 F900
G01 X124.0492 Y114.3020 F900
G02 X123.8230 Y114.0758 I-0.2245 J-0.0016 F900
G01 X123.8340 Y114.0761 F900
G01 X123.8160 F900
G01 X123.8270 Y114.0758 F900
G02 X123.6668 Y114.1418 I0.0002 J0.2278 F900
G00 Z5.0000 F180


;No. 13: Part 16
G00 X123.6364 Y82.4289 Z5.0000 F1500
G00 Z0.5000 F180
G01 Z-2.0000 F300
G02 X123.6017 Y82.5329 I0.1953 J0.1228 F900
G01 X123.6008 Y82.5500 F900
G02 X123.7120 Y82.7433 I0.2240 J-0.0001 F900
G01 X123.7018 Y82.7370 F900
G02 X123.9352 Y82.3552 I0.1231 J-0.1870 F900
G02 X123.6364 Y82.4289 I-0.1105 J0.1944 F900
G01 Z-4.0000 F300
G02 X123.6017 Y82.5329 I0.1953 J0.1228 F900
G01 X123.6008 Y82.5500 F900
G02 X123.7120 Y82.7433 I0.2240 J-0.0001 F900
G01 X123.7018 Y82.7370 F900
G02 X123.9352 Y82.3552 I0.1231 J-0.1870 F900
G02 X123.6364 Y82.4289 I-0.1105 J0.1944 F900
G01 Z-6.0000 F300
G02 X123.6017 Y82.5329 I0.1953 J0.1228 F900
G01 X123.6008 Y82.5500 F900
G02 X123.7120 Y82.7433 I0.2240 J-0.0001 F900
G01 X123.7018 Y82.7370 F900
G02 X123.9352 Y82.3552 I0.1231 J-0.1870 F900
G02 X123.6364 Y82.4289 I-0.1105 J0.1944 F900
G01 Z-8.0000 F300
G02 X123.6017 Y82.5329 I0.1953 J0.1228 F900
G01 X123.6008 Y82.5500 F900
G02 X123.7120 Y82.7433 I0.2240 J-0.0001 F900
G01 X123.7018 Y82.7370 F900
G02 X123.9352 Y82.3552 I0.1231 J-0.1870 F900
G02 X123.6364 Y82.4289 I-0.1105 J0.1944 F900
G01 Z-10.0000 F300
G02 X123.6017 Y82.5329 I0.1953 J0.1228 F900
G01 X123.6008 Y82.5500 F900
G02 X123.7120 Y82.7433 I0.2240 J-0.0001 F900
G01 X123.7018 Y82.7370 F900
G02 X123.9352 Y82.3552 I0.1231 J-0.1870 F900
G02 X123.6364 Y82.4289 I-0.1105 J0.1944 F900
G01 Z-12.0000 F300
G02 X123.6017 Y82.5329 I0.1953 J0.1228 F900
G01 X123.6008 Y82.5500 F900
G02 X123.7120 Y82.7433 I0.2240 J-0.0001 F900
G01 X123.7018 Y82.7370 F900
G02 X123.9352 Y82.3552 I0.1231 J-0.1870 F900
G02 X123.6364 Y82.4289 I-0.1105 J0.1944 F900
G01 Z-14.0000 F300
G02 X123.6017 Y82.5329 I0.1953 J0.1228 F900
G01 X123.6008 Y82.5500 F900
G02 X123.7120 Y82.7433 I0.2240 J-0.0001 F900
G01 X123.7018 Y82.7370 F900
G02 X123.9352 Y82.3552 I0.1231 J-0.1870 F900
G02 X123.6364 Y82.4289 I-0.1105 J0.1944 F900
G01 Z-16.0000 F300
G02 X123.6017 Y82.5329 I0.1953 J0.1228 F900
G01 X123.6008 Y82.5500 F900
G02 X123.7120 Y82.7433 I0.2240 J-0.0001 F900
G01 X123.7018 Y82.7370 F900
G02 X123.9352 Y82.3552 I0.1231 J-0.1870 F900
G02 X123.6364 Y82.4289 I-0.1105 J0.1944 F900
G01 Z-18.0000 F300
G02 X123.6017 Y82.5329 I0.1953 J0.1228 F900
G01 X123.6008 Y82.5500 F900
G02 X123.7120 Y82.7433 I0.2240 J-0.0001 F900
G01 X123.7018 Y82.7370 F900
G02 X123.9352 Y82.3552 I0.1231 J-0.1870 F900
G02 X123.6364 Y82.4289 I-0.1105 J0.1944 F900
G01 Z-20.0000 F300
G02 X123.6017 Y82.5329 I0.1953 J0.1228 F900
G01 X123.6008 Y82.5500 F900
G02 X123.7120 Y82.7433 I0.2240 J-0.0001 F900
G01 X123.7018 Y82.7370 F900
G02 X123.9352 Y82.3552 I0.1231 J-0.1870 F900
G02 X123.6364 Y82.4289 I-0.1105 J0.1944 F900
G01 Z-22.0000 F300
G02 X123.6017 Y82.5329 I0.1953 J0.1228 F900
G01 X123.6008 Y82.5500 F900
G02 X123.7120 Y82.7433 I0.2240 J-0.0001 F900
G01 X123.7018 Y82.7370 F900
G02 X123.9352 Y82.3552 I0.1231 J-0.1870 F900
G02 X123.6364 Y82.4289 I-0.1105 J0.1944 F900
G01 Z-24.0000 F300
G02 X123.6017 Y82.5329 I0.1953 J0.1228 F900
G01 X123.6008 Y82.5500 F900
G02 X123.7120 Y82.7433 I0.2240 J-0.0001 F900
G01 X123.7018 Y82.7370 F900
G02 X123.9352 Y82.3552 I0.1231 J-0.1870 F900
G02 X123.6364 Y82.4289 I-0.1105 J0.1944 F900
G00 Z5.0000 F180


;No. 14: Part 19
G00 X155.3807 Y82.4391 Z5.0000 F1500
G00 Z0.5000 F180
G01 Z-2.0000 F300
G02 X155.3517 Y82.5329 I0.1811 J0.1073 F900
G01 X155.3508 Y82.5500 F900
G02 X155.4620 Y82.7433 I0.2240 J-0.0001 F900
G01 X155.4518 Y82.7370 F900
G02 X155.6880 Y82.3567 I0.1231 J-0.1871 F900
G01 X155.6982 Y82.3630 F900
G02 X155.3807 Y82.4391 I-0.1232 J0.1863 F900
G01 Z-4.0000 F300
G02 X155.3517 Y82.5329 I0.1811 J0.1073 F900
G01 X155.3508 Y82.5500 F900
G02 X155.4620 Y82.7433 I0.2240 J-0.0001 F900
G01 X155.4518 Y82.7370 F900
G02 X155.6880 Y82.3567 I0.1231 J-0.1871 F900
G01 X155.6982 Y82.3630 F900
G02 X155.3807 Y82.4391 I-0.1232 J0.1863 F900
G01 Z-6.0000 F300
G02 X155.3517 Y82.5329 I0.1811 J0.1073 F900
G01 X155.3508 Y82.5500 F900
G02 X155.4620 Y82.7433 I0.2240 J-0.0001 F900
G01 X155.4518 Y82.7370 F900
G02 X155.6880 Y82.3567 I0.1231 J-0.1871 F900
G01 X155.6982 Y82.3630 F900
G02 X155.3807 Y82.4391 I-0.1232 J0.1863 F900
G01 Z-8.0000 F300
G02 X155.3517 Y82.5329 I0.1811 J0.1073 F900
G01 X155.3508 Y82.5500 F900
G02 X155.4620 Y82.7433 I0.2240 J-0.0001 F900
G01 X155.4518 Y82.7370 F900
G02 X155.6880 Y82.3567 I0.1231 J-0.1871 F900
G01 X155.6982 Y82.3630 F900
G02 X155.3807 Y82.4391 I-0.1232 J0.1863 F900
G01 Z-10.0000 F300
G02 X155.3517 Y82.5329 I0.1811 J0.1073 F900
G01 X155.3508 Y82.5500 F900
G02 X155.4620 Y82.7433 I0.2240 J-0.0001 F900
G01 X155.4518 Y82.7370 F900
G02 X155.6880 Y82.3567 I0.1231 J-0.1871 F900
G01 X155.6982 Y82.3630 F900
G02 X155.3807 Y82.4391 I-0.1232 J0.1863 F900
G01 Z-12.0000 F300
G02 X155.3517 Y82.5329 I0.1811 J0.1073 F900
G01 X155.3508 Y82.5500 F900
G02 X155.4620 Y82.7433 I0.2240 J-0.0001 F900
G01 X155.4518 Y82.7370 F900
G02 X155.6880 Y82.3567 I0.1231 J-0.1871 F900
G01 X155.6982 Y82.3630 F900
G02 X155.3807 Y82.4391 I-0.1232 J0.1863 F900
G01 Z-14.0000 F300
G02 X155.3517 Y82.5329 I0.1811 J0.1073 F900
G01 X155.3508 Y82.5500 F900
G02 X155.4620 Y82.7433 I0.2240 J-0.0001 F900
G01 X155.4518 Y82.7370 F900
G02 X155.6880 Y82.3567 I0.1231 J-0.1871 F900
G01 X155.6982 Y82.3630 F900
G02 X155.3807 Y82.4391 I-0.1232 J0.1863 F900
G01 Z-16.0000 F300
G02 X155.3517 Y82.5329 I0.1811 J0.1073 F900
G01 X155.3508 Y82.5500 F900
G02 X155.4620 Y82.7433 I0.2240 J-0.0001 F900
G01 X155.4518 Y82.7370 F900
G02 X155.6880 Y82.3567 I0.1231 J-0.1871 F900
G01 X155.6982 Y82.3630 F900
G02 X155.3807 Y82.4391 I-0.1232 J0.1863 F900
G01 Z-18.0000 F300
G02 X155.3517 Y82.5329 I0.1811 J0.1073 F900
G01 X155.3508 Y82.5500 F900
G02 X155.4620 Y82.7433 I0.2240 J-0.0001 F900
G01 X155.4518 Y82.7370 F900
G02 X155.6880 Y82.3567 I0.1231 J-0.1871 F900
G01 X155.6982 Y82.3630 F900
G02 X155.3807 Y82.4391 I-0.1232 J0.1863 F900
G01 Z-20.0000 F300
G02 X155.3517 Y82.5329 I0.1811 J0.1073 F900
G01 X155.3508 Y82.5500 F900
G02 X155.4620 Y82.7433 I0.2240 J-0.0001 F900
G01 X155.4518 Y82.7370 F900
G02 X155.6880 Y82.3567 I0.1231 J-0.1871 F900
G01 X155.6982 Y82.3630 F900
G02 X155.3807 Y82.4391 I-0.1232 J0.1863 F900
G01 Z-22.0000 F300
G02 X155.3517 Y82.5329 I0.1811 J0.1073 F900
G01 X155.3508 Y82.5500 F900
G02 X155.4620 Y82.7433 I0.2240 J-0.0001 F900
G01 X155.4518 Y82.7370 F900
G02 X155.6880 Y82.3567 I0.1231 J-0.1871 F900
G01 X155.6982 Y82.3630 F900
G02 X155.3807 Y82.4391 I-0.1232 J0.1863 F900
G01 Z-24.0000 F300
G02 X155.3517 Y82.5329 I0.1811 J0.1073 F900
G01 X155.3508 Y82.5500 F900
G02 X155.4620 Y82.7433 I0.2240 J-0.0001 F900
G01 X155.4518 Y82.7370 F900
G02 X155.6880 Y82.3567 I0.1231 J-0.1871 F900
G01 X155.6982 Y82.3630 F900
G02 X155.3807 Y82.4391 I-0.1232 J0.1863 F900
G00 Z5.0000 F180


;No. 15: Part 20
G00 X155.4018 Y114.1578 Z5.0000 F1500
G00 Z0.5000 F180
G01 Z-2.0000 F300
G02 X155.3510 Y114.2919 I0.1754 J0.1431 F900
G01 X155.3519 Y114.2805 F900
G01 X155.3508 Y114.2980 F900
G01 X155.3518 Y114.3175 F900
G02 X155.4292 Y114.4701 I0.2258 J-0.0186 F900
G01 X155.4213 Y114.4626 F900
G02 X155.5770 Y114.5242 I0.1541 J-0.1617 F900
G01 X155.5660 Y114.5239 F900
G01 X155.5840 F900
G01 X155.5730 Y114.5242 F900
G02 X155.7451 Y114.4458 I0.0001 J-0.2277 F900
G01 X155.7376 Y114.4537 F900
G02 X155.7989 Y114.2910 I-0.1611 J-0.1537 F900
G01 X155.7992 Y114.3020 F900
G02 X155.7208 Y114.1299 I-0.2275 J-0.0002 F900
G01 X155.7287 Y114.1374 F900
G02 X155.5831 Y114.0760 I-0.1539 J0.1613 F900
G01 X155.5945 Y114.0769 F900
G02 X155.4018 Y114.1578 I-0.0200 J0.2224 F900
G01 Z-4.0000 F300
G02 X155.3510 Y114.2919 I0.1754 J0.1431 F900
G01 X155.3519 Y114.2805 F900
G01 X155.3508 Y114.2980 F900
G01 X155.3518 Y114.3175 F900
G02 X155.4292 Y114.4701 I0.2258 J-0.0186 F900
G01 X155.4213 Y114.4626 F900
G02 X155.5770 Y114.5242 I0.1541 J-0.1617 F900
G01 X155.5660 Y114.5239 F900
G01 X155.5840 F900
G01 X155.5730 Y114.5242 F900
G02 X155.7451 Y114.4458 I0.0001 J-0.2277 F900
G01 X155.7376 Y114.4537 F900
G02 X155.7989 Y114.2910 I-0.1611 J-0.1537 F900
G01 X155.7992 Y114.3020 F900
G02 X155.7208 Y114.1299 I-0.2275 J-0.0002 F900
G01 X155.7287 Y114.1374 F900
G02 X155.5831 Y114.0760 I-0.1539 J0.1613 F900
G01 X155.5945 Y114.0769 F900
G02 X155.4018 Y114.1578 I-0.0200 J0.2224 F900
G01 Z-6.0000 F300
G02 X155.3510 Y114.2919 I0.1754 J0.1431 F900
G01 X155.3519 Y114.2805 F900
G01 X155.3508 Y114.2980 F900
G01 X155.3518 Y114.3175 F900
G02 X155.4292 Y114.4701 I0.2258 J-0.0186 F900
G01 X155.4213 Y114.4626 F900
G02 X155.5770 Y114.5242 I0.1541 J-0.1617 F900
G01 X155.5660 Y114.5239 F900
G01 X155.5840 F900
G01 X155.5730 Y114.5242 F900
G02 X155.7451 Y114.4458 I0.0001 J-0.2277 F900
G01 X155.7376 Y114.4537 F900
G02 X155.7989 Y114.2910 I-0.1611 J-0.1537 F900
G01 X155.7992 Y114.3020 F900
G02 X155.7208 Y114.1299 I-0.2275 J-0.0002 F900
G01 X155.7287 Y114.1374 F900
G02 X155.5831 Y114.0760 I-0.1539 J0.1613 F900
G01 X155.5945 Y114.0769 F900
G02 X155.4018 Y114.1578 I-0.0200 J0.2224 F900
G01 Z-8.0000 F300
G02 X155.3510 Y114.2919 I0.1754 J0.1431 F900
G01 X155.3519 Y114.2805 F900
G01 X155.3508 Y114.2980 F900
G01 X155.3518 Y114.3175 F900
G02 X155.4292 Y114.4701 I0.2258 J-0.0186 F900
G01 X155.4213 Y114.4626 F900
G02 X155.5770 Y114.5242 I0.1541 J-0.1617 F900
G01 X155.5660 Y114.5239 F900
G01 X155.5840 F900
G01 X155.5730 Y114.5242 F900
G02 X155.7451 Y114.4458 I0.0001 J-0.2277 F900
G01 X155.7376 Y114.4537 F900
G02 X155.7989 Y114.2910 I-0.1611 J-0.1537 F900
G01 X155.7992 Y114.3020 F900
G02 X155.7208 Y114.1299 I-0.2275 J-0.0002 F900
G01 X155.7287 Y114.1374 F900
G02 X155.5831 Y114.0760 I-0.1539 J0.1613 F900
G01 X155.5945 Y114.0769 F900
G02 X155.4018 Y114.1578 I-0.0200 J0.2224 F900
G01 Z-10.0000 F300
G02 X155.3510 Y114.2919 I0.1754 J0.1431 F900
G01 X155.3519 Y114.2805 F900
G01 X155.3508 Y114.2980 F900
G01 X155.3518 Y114.3175 F900
G02 X155.4292 Y114.4701 I0.2258 J-0.0186 F900
G01 X155.4213 Y114.4626 F900
G02 X155.5770 Y114.5242 I0.1541 J-0.1617 F900
G01 X155.5660 Y114.5239 F900
G01 X155.5840 F900
G01 X155.5730 Y114.5242 F900
G02 X155.7451 Y114.4458 I0.0001 J-0.2277 F900
G01 X155.7376 Y114.4537 F900
G02 X155.7989 Y114.2910 I-0.1611 J-0.1537 F900
G01 X155.7992 Y114.3020 F900
G02 X155.7208 Y114.1299 I-0.2275 J-0.0002 F900
G01 X155.7287 Y114.1374 F900
G02 X155.5831 Y114.0760 I-0.1539 J0.1613 F900
G01 X155.5945 Y114.0769 F900
G02 X155.4018 Y114.1578 I-0.0200 J0.2224 F900
G01 Z-12.0000 F300
G02 X155.3510 Y114.2919 I0.1754 J0.1431 F900
G01 X155.3519 Y114.2805 F900
G01 X155.3508 Y114.2980 F900
G01 X155.3518 Y114.3175 F900
G02 X155.4292 Y114.4701 I0.2258 J-0.0186 F900
G01 X155.4213 Y114.4626 F900
G02 X155.5770 Y114.5242 I0.1541 J-0.1617 F900
G01 X155.5660 Y114.5239 F900
G01 X155.5840 F900
G01 X155.5730 Y114.5242 F900
G02 X155.7451 Y114.4458 I0.0001 J-0.2277 F900
G01 X155.7376 Y114.4537 F900
G02 X155.7989 Y114.2910 I-0.1611 J-0.1537 F900
G01 X155.7992 Y114.3020 F900
G02 X155.7208 Y114.1299 I-0.2275 J-0.0002 F900
G01 X155.7287 Y114.1374 F900
G02 X155.5831 Y114.0760 I-0.1539 J0.1613 F900
G01 X155.5945 Y114.0769 F900
G02 X155.4018 Y114.1578 I-0.0200 J0.2224 F900
G01 Z-14.0000 F300
G02 X155.3510 Y114.2919 I0.1754 J0.1431 F900
G01 X155.3519 Y114.2805 F900
G01 X155.3508 Y114.2980 F900
G01 X155.3518 Y114.3175 F900
G02 X155.4292 Y114.4701 I0.2258 J-0.0186 F900
G01 X155.4213 Y114.4626 F900
G02 X155.5770 Y114.5242 I0.1541 J-0.1617 F900
G01 X155.5660 Y114.5239 F900
G01 X155.5840 F900
G01 X155.5730 Y114.5242 F900
G02 X155.7451 Y114.4458 I0.0001 J-0.2277 F900
G01 X155.7376 Y114.4537 F900
G02 X155.7989 Y114.2910 I-0.1611 J-0.1537 F900
G01 X155.7992 Y114.3020 F900
G02 X155.7208 Y114.1299 I-0.2275 J-0.0002 F900
G01 X155.7287 Y114.1374 F900
G02 X155.5831 Y114.0760 I-0.1539 J0.1613 F900
G01 X155.5945 Y114.0769 F900
G02 X155.4018 Y114.1578 I-0.0200 J0.2224 F900
G01 Z-16.0000 F300
G02 X155.3510 Y114.2919 I0.1754 J0.1431 F900
G01 X155.3519 Y114.2805 F900
G01 X155.3508 Y114.2980 F900
G01 X155.3518 Y114.3175 F900
G02 X155.4292 Y114.4701 I0.2258 J-0.0186 F900
G01 X155.4213 Y114.4626 F900
G02 X155.5770 Y114.5242 I0.1541 J-0.1617 F900
G01 X155.5660 Y114.5239 F900
G01 X155.5840 F900
G01 X155.5730 Y114.5242 F900
G02 X155.7451 Y114.4458 I0.0001 J-0.2277 F900
G01 X155.7376 Y114.4537 F900
G02 X155.7989 Y114.2910 I-0.1611 J-0.1537 F900
G01 X155.7992 Y114.3020 F900
G02 X155.7208 Y114.1299 I-0.2275 J-0.0002 F900
G01 X155.7287 Y114.1374 F900
G02 X155.5831 Y114.0760 I-0.1539 J0.1613 F900
G01 X155.5945 Y114.0769 F900
G02 X155.4018 Y114.1578 I-0.0200 J0.2224 F900
G01 Z-18.0000 F300
G02 X155.3510 Y114.2919 I0.1754 J0.1431 F900
G01 X155.3519 Y114.2805 F900
G01 X155.3508 Y114.2980 F900
G01 X155.3518 Y114.3175 F900
G02 X155.4292 Y114.4701 I0.2258 J-0.0186 F900
G01 X155.4213 Y114.4626 F900
G02 X155.5770 Y114.5242 I0.1541 J-0.1617 F900
G01 X155.5660 Y114.5239 F900
G01 X155.5840 F900
G01 X155.5730 Y114.5242 F900
G02 X155.7451 Y114.4458 I0.0001 J-0.2277 F900
G01 X155.7376 Y114.4537 F900
G02 X155.7989 Y114.2910 I-0.1611 J-0.1537 F900
G01 X155.7992 Y114.3020 F900
G02 X155.7208 Y114.1299 I-0.2275 J-0.0002 F900
G01 X155.7287 Y114.1374 F900
G02 X155.5831 Y114.0760 I-0.1539 J0.1613 F900
G01 X155.5945 Y114.0769 F900
G02 X155.4018 Y114.1578 I-0.0200 J0.2224 F900
G01 Z-20.0000 F300
G02 X155.3510 Y114.2919 I0.1754 J0.1431 F900
G01 X155.3519 Y114.2805 F900
G01 X155.3508 Y114.2980 F900
G01 X155.3518 Y114.3175 F900
G02 X155.4292 Y114.4701 I0.2258 J-0.0186 F900
G01 X155.4213 Y114.4626 F900
G02 X155.5770 Y114.5242 I0.1541 J-0.1617 F900
G01 X155.5660 Y114.5239 F900
G01 X155.5840 F900
G01 X155.5730 Y114.5242 F900
G02 X155.7451 Y114.4458 I0.0001 J-0.2277 F900
G01 X155.7376 Y114.4537 F900
G02 X155.7989 Y114.2910 I-0.1611 J-0.1537 F900
G01 X155.7992 Y114.3020 F900
G02 X155.7208 Y114.1299 I-0.2275 J-0.0002 F900
G01 X155.7287 Y114.1374 F900
G02 X155.5831 Y114.0760 I-0.1539 J0.1613 F900
G01 X155.5945 Y114.0769 F900
G02 X155.4018 Y114.1578 I-0.0200 J0.2224 F900
G01 Z-22.0000 F300
G02 X155.3510 Y114.2919 I0.1754 J0.1431 F900
G01 X155.3519 Y114.2805 F900
G01 X155.3508 Y114.2980 F900
G01 X155.3518 Y114.3175 F900
G02 X155.4292 Y114.4701 I0.2258 J-0.0186 F900
G01 X155.4213 Y114.4626 F900
G02 X155.5770 Y114.5242 I0.1541 J-0.1617 F900
G01 X155.5660 Y114.5239 F900
G01 X155.5840 F900
G01 X155.5730 Y114.5242 F900
G02 X155.7451 Y114.4458 I0.0001 J-0.2277 F900
G01 X155.7376 Y114.4537 F900
G02 X155.7989 Y114.2910 I-0.1611 J-0.1537 F900
G01 X155.7992 Y114.3020 F900
G02 X155.7208 Y114.1299 I-0.2275 J-0.0002 F900
G01 X155.7287 Y114.1374 F900
G02 X155.5831 Y114.0760 I-0.1539 J0.1613 F900
G01 X155.5945 Y114.0769 F900
G02 X155.4018 Y114.1578 I-0.0200 J0.2224 F900
G01 Z-24.0000 F300
G02 X155.3510 Y114.2919 I0.1754 J0.1431 F900
G01 X155.3519 Y114.2805 F900
G01 X155.3508 Y114.2980 F900
G01 X155.3518 Y114.3175 F900
G02 X155.4292 Y114.4701 I0.2258 J-0.0186 F900
G01 X155.4213 Y114.4626 F900
G02 X155.5770 Y114.5242 I0.1541 J-0.1617 F900
G01 X155.5660 Y114.5239 F900
G01 X155.5840 F900
G01 X155.5730 Y114.5242 F900
G02 X155.7451 Y114.4458 I0.0001 J-0.2277 F900
G01 X155.7376 Y114.4537 F900
G02 X155.7989 Y114.2910 I-0.1611 J-0.1537 F900
G01 X155.7992 Y114.3020 F900
G02 X155.7208 Y114.1299 I-0.2275 J-0.0002 F900
G01 X155.7287 Y114.1374 F900
G02 X155.5831 Y114.0760 I-0.1539 J0.1613 F900
G01 X155.5945 Y114.0769 F900
G02 X155.4018 Y114.1578 I-0.0200 J0.2224 F900
G00 Z5.0000 F180


;No. 16: Part 21
G00 X155.4168 Y145.8918 Z5.0000 F1500
G00 Z0.5000 F180
G01 Z-2.0000 F300
G02 X155.3510 Y146.0419 I0.1574 J0.1585 F900
G01 X155.3519 Y146.0305 F900
G01 X155.3508 Y146.0480 F900
G01 X155.3518 Y146.0675 F900
G02 X155.4292 Y146.2201 I0.2258 J-0.0186 F900
G01 X155.4213 Y146.2126 F900
G02 X155.5770 Y146.2742 I0.1541 J-0.1617 F900
G01 X155.5660 Y146.2739 F900
G02 X155.6904 Y146.2420 I0.0092 J-0.2223 F900
G01 X155.6808 Y146.2472 F900
G02 X155.7451 Y146.1958 I-0.0999 J-0.1911 F900
G01 X155.7376 Y146.2037 F900
G02 X155.7989 Y146.0410 I-0.1611 J-0.1537 F900
G01 X155.7992 Y146.0520 F900
G02 X155.7208 Y145.8799 I-0.2275 J-0.0002 F900
G01 X155.7287 Y145.8874 F900
G02 X155.5730 Y145.8258 I-0.1541 J0.1617 F900
G01 X155.5840 Y145.8261 F900
G01 X155.5660 F900
G01 X155.5770 Y145.8258 F900
G02 X155.4168 Y145.8918 I0.0002 J0.2278 F900
G01 Z-4.0000 F300
G02 X155.3510 Y146.0419 I0.1574 J0.1585 F900
G01 X155.3519 Y146.0305 F900
G01 X155.3508 Y146.0480 F900
G01 X155.3518 Y146.0675 F900
G02 X155.4292 Y146.2201 I0.2258 J-0.0186 F900
G01 X155.4213 Y146.2126 F900
G02 X155.5770 Y146.2742 I0.1541 J-0.1617 F900
G01 X155.5660 Y146.2739 F900
G02 X155.6904 Y146.2420 I0.0092 J-0.2223 F900
G01 X155.6808 Y146.2472 F900
G02 X155.7451 Y146.1958 I-0.0999 J-0.1911 F900
G01 X155.7376 Y146.2037 F900
G02 X155.7989 Y146.0410 I-0.1611 J-0.1537 F900
G01 X155.7992 Y146.0520 F900
G02 X155.7208 Y145.8799 I-0.2275 J-0.0002 F900
G01 X155.7287 Y145.8874 F900
G02 X155.5730 Y145.8258 I-0.1541 J0.1617 F900
G01 X155.5840 Y145.8261 F900
G01 X155.5660 F900
G01 X155.5770 Y145.8258 F900
G02 X155.4168 Y145.8918 I0.0002 J0.2278 F900
G01 Z-6.0000 F300
G02 X155.3510 Y146.0419 I0.1574 J0.1585 F900
G01 X155.3519 Y146.0305 F900
G01 X155.3508 Y146.0480 F900
G01 X155.3518 Y146.0675 F900
G02 X155.4292 Y146.2201 I0.2258 J-0.0186 F900
G01 X155.4213 Y146.2126 F900
G02 X155.5770 Y146.2742 I0.1541 J-0.1617 F900
G01 X155.5660 Y146.2739 F900
G02 X155.6904 Y146.2420 I0.0092 J-0.2223 F900
G01 X155.6808 Y146.2472 F900
G02 X155.7451 Y146.1958 I-0.0999 J-0.1911 F900
G01 X155.7376 Y146.2037 F900
G02 X155.7989 Y146.0410 I-0.1611 J-0.1537 F900
G01 X155.7992 Y146.0520 F900
G02 X155.7208 Y145.8799 I-0.2275 J-0.0002 F900
G01 X155.7287 Y145.8874 F900
G02 X155.5730 Y145.8258 I-0.1541 J0.1617 F900
G01 X155.5840 Y145.8261 F900
G01 X155.5660 F900
G01 X155.5770 Y145.8258 F900
G02 X155.4168 Y145.8918 I0.0002 J0.2278 F900
G01 Z-8.0000 F300
G02 X155.3510 Y146.0419 I0.1574 J0.1585 F900
G01 X155.3519 Y146.0305 F900
G01 X155.3508 Y146.0480 F900
G01 X155.3518 Y146.0675 F900
G02 X155.4292 Y146.2201 I0.2258 J-0.0186 F900
G01 X155.4213 Y146.2126 F900
G02 X155.5770 Y146.2742 I0.1541 J-0.1617 F900
G01 X155.5660 Y146.2739 F900
G02 X155.6904 Y146.2420 I0.0092 J-0.2223 F900
G01 X155.6808 Y146.2472 F900
G02 X155.7451 Y146.1958 I-0.0999 J-0.1911 F900
G01 X155.7376 Y146.2037 F900
G02 X155.7989 Y146.0410 I-0.1611 J-0.1537 F900
G01 X155.7992 Y146.0520 F900
G02 X155.7208 Y145.8799 I-0.2275 J-0.0002 F900
G01 X155.7287 Y145.8874 F900
G02 X155.5730 Y145.8258 I-0.1541 J0.1617 F900
G01 X155.5840 Y145.8261 F900
G01 X155.5660 F900
G01 X155.5770 Y145.8258 F900
G02 X155.4168 Y145.8918 I0.0002 J0.2278 F900
G01 Z-10.0000 F300
G02 X155.3510 Y146.0419 I0.1574 J0.1585 F900
G01 X155.3519 Y146.0305 F900
G01 X155.3508 Y146.0480 F900
G01 X155.3518 Y146.0675 F900
G02 X155.4292 Y146.2201 I0.2258 J-0.0186 F900
G01 X155.4213 Y146.2126 F900
G02 X155.5770 Y146.2742 I0.1541 J-0.1617 F900
G01 X155.5660 Y146.2739 F900
G02 X155.6904 Y146.2420 I0.0092 J-0.2223 F900
G01 X155.6808 Y146.2472 F900
G02 X155.7451 Y146.1958 I-0.0999 J-0.1911 F900
G01 X155.7376 Y146.2037 F900
G02 X155.7989 Y146.0410 I-0.1611 J-0.1537 F900
G01 X155.7992 Y146.0520 F900
G02 X155.7208 Y145.8799 I-0.2275 J-0.0002 F900
G01 X155.7287 Y145.8874 F900
G02 X155.5730 Y145.8258 I-0.1541 J0.1617 F900
G01 X155.5840 Y145.8261 F900
G01 X155.5660 F900
G01 X155.5770 Y145.8258 F900
G02 X155.4168 Y145.8918 I0.0002 J0.2278 F900
G01 Z-12.0000 F300
G02 X155.3510 Y146.0419 I0.1574 J0.1585 F900
G01 X155.3519 Y146.0305 F900
G01 X155.3508 Y146.0480 F900
G01 X155.3518 Y146.0675 F900
G02 X155.4292 Y146.2201 I0.2258 J-0.0186 F900
G01 X155.4213 Y146.2126 F900
G02 X155.5770 Y146.2742 I0.1541 J-0.1617 F900
G01 X155.5660 Y146.2739 F900
G02 X155.6904 Y146.2420 I0.0092 J-0.2223 F900
G01 X155.6808 Y146.2472 F900
G02 X155.7451 Y146.1958 I-0.0999 J-0.1911 F900
G01 X155.7376 Y146.2037 F900
G02 X155.7989 Y146.0410 I-0.1611 J-0.1537 F900
G01 X155.7992 Y146.0520 F900
G02 X155.7208 Y145.8799 I-0.2275 J-0.0002 F900
G01 X155.7287 Y145.8874 F900
G02 X155.5730 Y145.8258 I-0.1541 J0.1617 F900
G01 X155.5840 Y145.8261 F900
G01 X155.5660 F900
G01 X155.5770 Y145.8258 F900
G02 X155.4168 Y145.8918 I0.0002 J0.2278 F900
G01 Z-14.0000 F300
G02 X155.3510 Y146.0419 I0.1574 J0.1585 F900
G01 X155.3519 Y146.0305 F900
G01 X155.3508 Y146.0480 F900
G01 X155.3518 Y146.0675 F900
G02 X155.4292 Y146.2201 I0.2258 J-0.0186 F900
G01 X155.4213 Y146.2126 F900
G02 X155.5770 Y146.2742 I0.1541 J-0.1617 F900
G01 X155.5660 Y146.2739 F900
G02 X155.6904 Y146.2420 I0.0092 J-0.2223 F900
G01 X155.6808 Y146.2472 F900
G02 X155.7451 Y146.1958 I-0.0999 J-0.1911 F900
G01 X155.7376 Y146.2037 F900
G02 X155.7989 Y146.0410 I-0.1611 J-0.1537 F900
G01 X155.7992 Y146.0520 F900
G02 X155.7208 Y145.8799 I-0.2275 J-0.0002 F900
G01 X155.7287 Y145.8874 F900
G02 X155.5730 Y145.8258 I-0.1541 J0.1617 F900
G01 X155.5840 Y145.8261 F900
G01 X155.5660 F900
G01 X155.5770 Y145.8258 F900
G02 X155.4168 Y145.8918 I0.0002 J0.2278 F900
G01 Z-16.0000 F300
G02 X155.3510 Y146.0419 I0.1574 J0.1585 F900
G01 X155.3519 Y146.0305 F900
G01 X155.3508 Y146.0480 F900
G01 X155.3518 Y146.0675 F900
G02 X155.4292 Y146.2201 I0.2258 J-0.0186 F900
G01 X155.4213 Y146.2126 F900
G02 X155.5770 Y146.2742 I0.1541 J-0.1617 F900
G01 X155.5660 Y146.2739 F900
G02 X155.6904 Y146.2420 I0.0092 J-0.2223 F900
G01 X155.6808 Y146.2472 F900
G02 X155.7451 Y146.1958 I-0.0999 J-0.1911 F900
G01 X155.7376 Y146.2037 F900
G02 X155.7989 Y146.0410 I-0.1611 J-0.1537 F900
G01 X155.7992 Y146.0520 F900
G02 X155.7208 Y145.8799 I-0.2275 J-0.0002 F900
G01 X155.7287 Y145.8874 F900
G02 X155.5730 Y145.8258 I-0.1541 J0.1617 F900
G01 X155.5840 Y145.8261 F900
G01 X155.5660 F900
G01 X155.5770 Y145.8258 F900
G02 X155.4168 Y145.8918 I0.0002 J0.2278 F900
G01 Z-18.0000 F300
G02 X155.3510 Y146.0419 I0.1574 J0.1585 F900
G01 X155.3519 Y146.0305 F900
G01 X155.3508 Y146.0480 F900
G01 X155.3518 Y146.0675 F900
G02 X155.4292 Y146.2201 I0.2258 J-0.0186 F900
G01 X155.4213 Y146.2126 F900
G02 X155.5770 Y146.2742 I0.1541 J-0.1617 F900
G01 X155.5660 Y146.2739 F900
G02 X155.6904 Y146.2420 I0.0092 J-0.2223 F900
G01 X155.6808 Y146.2472 F900
G02 X155.7451 Y146.1958 I-0.0999 J-0.1911 F900
G01 X155.7376 Y146.2037 F900
G02 X155.7989 Y146.0410 I-0.1611 J-0.1537 F900
G01 X155.7992 Y146.0520 F900
G02 X155.7208 Y145.8799 I-0.2275 J-0.0002 F900
G01 X155.7287 Y145.8874 F900
G02 X155.5730 Y145.8258 I-0.1541 J0.1617 F900
G01 X155.5840 Y145.8261 F900
G01 X155.5660 F900
G01 X155.5770 Y145.8258 F900
G02 X155.4168 Y145.8918 I0.0002 J0.2278 F900
G01 Z-20.0000 F300
G02 X155.3510 Y146.0419 I0.1574 J0.1585 F900
G01 X155.3519 Y146.0305 F900
G01 X155.3508 Y146.0480 F900
G01 X155.3518 Y146.0675 F900
G02 X155.4292 Y146.2201 I0.2258 J-0.0186 F900
G01 X155.4213 Y146.2126 F900
G02 X155.5770 Y146.2742 I0.1541 J-0.1617 F900
G01 X155.5660 Y146.2739 F900
G02 X155.6904 Y146.2420 I0.0092 J-0.2223 F900
G01 X155.6808 Y146.2472 F900
G02 X155.7451 Y146.1958 I-0.0999 J-0.1911 F900
G01 X155.7376 Y146.2037 F900
G02 X155.7989 Y146.0410 I-0.1611 J-0.1537 F900
G01 X155.7992 Y146.0520 F900
G02 X155.7208 Y145.8799 I-0.2275 J-0.0002 F900
G01 X155.7287 Y145.8874 F900
G02 X155.5730 Y145.8258 I-0.1541 J0.1617 F900
G01 X155.5840 Y145.8261 F900
G01 X155.5660 F900
G01 X155.5770 Y145.8258 F900
G02 X155.4168 Y145.8918 I0.0002 J0.2278 F900
G01 Z-22.0000 F300
G02 X155.3510 Y146.0419 I0.1574 J0.1585 F900
G01 X155.3519 Y146.0305 F900
G01 X155.3508 Y146.0480 F900
G01 X155.3518 Y146.0675 F900
G02 X155.4292 Y146.2201 I0.2258 J-0.0186 F900
G01 X155.4213 Y146.2126 F900
G02 X155.5770 Y146.2742 I0.1541 J-0.1617 F900
G01 X155.5660 Y146.2739 F900
G02 X155.6904 Y146.2420 I0.0092 J-0.2223 F900
G01 X155.6808 Y146.2472 F900
G02 X155.7451 Y146.1958 I-0.0999 J-0.1911 F900
G01 X155.7376 Y146.2037 F900
G02 X155.7989 Y146.0410 I-0.1611 J-0.1537 F900
G01 X155.7992 Y146.0520 F900
G02 X155.7208 Y145.8799 I-0.2275 J-0.0002 F900
G01 X155.7287 Y145.8874 F900
G02 X155.5730 Y145.8258 I-0.1541 J0.1617 F900
G01 X155.5840 Y145.8261 F900
G01 X155.5660 F900
G01 X155.5770 Y145.8258 F900
G02 X155.4168 Y145.8918 I0.0002 J0.2278 F900
G01 Z-24.0000 F300
G02 X155.3510 Y146.0419 I0.1574 J0.1585 F900
G01 X155.3519 Y146.0305 F900
G01 X155.3508 Y146.0480 F900
G01 X155.3518 Y146.0675 F900
G02 X155.4292 Y146.2201 I0.2258 J-0.0186 F900
G01 X155.4213 Y146.2126 F900
G02 X155.5770 Y146.2742 I0.1541 J-0.1617 F900
G01 X155.5660 Y146.2739 F900
G02 X155.6904 Y146.2420 I0.0092 J-0.2223 F900
G01 X155.6808 Y146.2472 F900
G02 X155.7451 Y146.1958 I-0.0999 J-0.1911 F900
G01 X155.7376 Y146.2037 F900
G02 X155.7989 Y146.0410 I-0.1611 J-0.1537 F900
G01 X155.7992 Y146.0520 F900
G02 X155.7208 Y145.8799 I-0.2275 J-0.0002 F900
G01 X155.7287 Y145.8874 F900
G02 X155.5730 Y145.8258 I-0.1541 J0.1617 F900
G01 X155.5840 Y145.8261 F900
G01 X155.5660 F900
G01 X155.5770 Y145.8258 F900
G02 X155.4168 Y145.8918 I0.0002 J0.2278 F900
G00 Z5.0000 F180


;No. 17: Part 18
G00 X123.6938 Y145.8683 Z5.0000 F1500
G00 Z0.5000 F180
G01 Z-2.0000 F300
G02 X123.6051 Y146.0068 I0.1369 J0.1854 F900
G01 X123.6008 Y146.0520 F900
G01 X123.6011 Y146.0410 F900
G01 X123.6018 Y146.0675 F900
G02 X123.6792 Y146.2201 I0.2221 J-0.0167 F900
G01 X123.6713 Y146.2126 F900
G02 X123.8270 Y146.2742 I0.1541 J-0.1617 F900
G01 X123.8160 Y146.2739 F900
G01 X123.8340 F900
G01 X123.8230 Y146.2742 F900
G02 X124.0492 Y146.0480 I0.0016 J-0.2245 F900
G01 X124.0489 Y146.0590 F900
G01 Y146.0410 F900
G01 X124.0492 Y146.0520 F900
G02 X123.8230 Y145.8258 I-0.2253 J-0.0009 F900
G01 X123.8340 Y145.8261 F900
G01 X123.8160 F900
G01 X123.8270 Y145.8258 F900
G02 X123.6938 Y145.8683 I-0.0015 J0.2251 F900
G01 Z-4.0000 F300
G02 X123.6051 Y146.0068 I0.1369 J0.1854 F900
G01 X123.6008 Y146.0520 F900
G01 X123.6011 Y146.0410 F900
G01 X123.6018 Y146.0675 F900
G02 X123.6792 Y146.2201 I0.2221 J-0.0167 F900
G01 X123.6713 Y146.2126 F900
G02 X123.8270 Y146.2742 I0.1541 J-0.1617 F900
G01 X123.8160 Y146.2739 F900
G01 X123.8340 F900
G01 X123.8230 Y146.2742 F900
G02 X124.0492 Y146.0480 I0.0016 J-0.2245 F900
G01 X124.0489 Y146.0590 F900
G01 Y146.0410 F900
G01 X124.0492 Y146.0520 F900
G02 X123.8230 Y145.8258 I-0.2253 J-0.0009 F900
G01 X123.8340 Y145.8261 F900
G01 X123.8160 F900
G01 X123.8270 Y145.8258 F900
G02 X123.6938 Y145.8683 I-0.0015 J0.2251 F900
G01 Z-6.0000 F300
G02 X123.6051 Y146.0068 I0.1369 J0.1854 F900
G01 X123.6008 Y146.0520 F900
G01 X123.6011 Y146.0410 F900
G01 X123.6018 Y146.0675 F900
G02 X123.6792 Y146.2201 I0.2221 J-0.0167 F900
G01 X123.6713 Y146.2126 F900
G02 X123.8270 Y146.2742 I0.1541 J-0.1617 F900
G01 X123.8160 Y146.2739 F900
G01 X123.8340 F900
G01 X123.8230 Y146.2742 F900
G02 X124.0492 Y146.0480 I0.0016 J-0.2245 F900
G01 X124.0489 Y146.0590 F900
G01 Y146.0410 F900
G01 X124.0492 Y146.0520 F900
G02 X123.8230 Y145.8258 I-0.2253 J-0.0009 F900
G01 X123.8340 Y145.8261 F900
G01 X123.8160 F900
G01 X123.8270 Y145.8258 F900
G02 X123.6938 Y145.8683 I-0.0015 J0.2251 F900
G01 Z-8.0000 F300
G02 X123.6051 Y146.0068 I0.1369 J0.1854 F900
G01 X123.6008 Y146.0520 F900
G01 X123.6011 Y146.0410 F900
G01 X123.6018 Y146.0675 F900
G02 X123.6792 Y146.2201 I0.2221 J-0.0167 F900
G01 X123.6713 Y146.2126 F900
G02 X123.8270 Y146.2742 I0.1541 J-0.1617 F900
G01 X123.8160 Y146.2739 F900
G01 X123.8340 F900
G01 X123.8230 Y146.2742 F900
G02 X124.0492 Y146.0480 I0.0016 J-0.2245 F900
G01 X124.0489 Y146.0590 F900
G01 Y146.0410 F900
G01 X124.0492 Y146.0520 F900
G02 X123.8230 Y145.8258 I-0.2253 J-0.0009 F900
G01 X123.8340 Y145.8261 F900
G01 X123.8160 F900
G01 X123.8270 Y145.8258 F900
G02 X123.6938 Y145.8683 I-0.0015 J0.2251 F900
G01 Z-10.0000 F300
G02 X123.6051 Y146.0068 I0.1369 J0.1854 F900
G01 X123.6008 Y146.0520 F900
G01 X123.6011 Y146.0410 F900
G01 X123.6018 Y146.0675 F900
G02 X123.6792 Y146.2201 I0.2221 J-0.0167 F900
G01 X123.6713 Y146.2126 F900
G02 X123.8270 Y146.2742 I0.1541 J-0.1617 F900
G01 X123.8160 Y146.2739 F900
G01 X123.8340 F900
G01 X123.8230 Y146.2742 F900
G02 X124.0492 Y146.0480 I0.0016 J-0.2245 F900
G01 X124.0489 Y146.0590 F900
G01 Y146.0410 F900
G01 X124.0492 Y146.0520 F900
G02 X123.8230 Y145.8258 I-0.2253 J-0.0009 F900
G01 X123.8340 Y145.8261 F900
G01 X123.8160 F900
G01 X123.8270 Y145.8258 F900
G02 X123.6938 Y145.8683 I-0.0015 J0.2251 F900
G01 Z-12.0000 F300
G02 X123.6051 Y146.0068 I0.1369 J0.1854 F900
G01 X123.6008 Y146.0520 F900
G01 X123.6011 Y146.0410 F900
G01 X123.6018 Y146.0675 F900
G02 X123.6792 Y146.2201 I0.2221 J-0.0167 F900
G01 X123.6713 Y146.2126 F900
G02 X123.8270 Y146.2742 I0.1541 J-0.1617 F900
G01 X123.8160 Y146.2739 F900
G01 X123.8340 F900
G01 X123.8230 Y146.2742 F900
G02 X124.0492 Y146.0480 I0.0016 J-0.2245 F900
G01 X124.0489 Y146.0590 F900
G01 Y146.0410 F900
G01 X124.0492 Y146.0520 F900
G02 X123.8230 Y145.8258 I-0.2253 J-0.0009 F900
G01 X123.8340 Y145.8261 F900
G01 X123.8160 F900
G01 X123.8270 Y145.8258 F900
G02 X123.6938 Y145.8683 I-0.0015 J0.2251 F900
G01 Z-14.0000 F300
G02 X123.6051 Y146.0068 I0.1369 J0.1854 F900
G01 X123.6008 Y146.0520 F900
G01 X123.6011 Y146.0410 F900
G01 X123.6018 Y146.0675 F900
G02 X123.6792 Y146.2201 I0.2221 J-0.0167 F900
G01 X123.6713 Y146.2126 F900
G02 X123.8270 Y146.2742 I0.1541 J-0.1617 F900
G01 X123.8160 Y146.2739 F900
G01 X123.8340 F900
G01 X123.8230 Y146.2742 F900
G02 X124.0492 Y146.0480 I0.0016 J-0.2245 F900
G01 X124.0489 Y146.0590 F900
G01 Y146.0410 F900
G01 X124.0492 Y146.0520 F900
G02 X123.8230 Y145.8258 I-0.2253 J-0.0009 F900
G01 X123.8340 Y145.8261 F900
G01 X123.8160 F900
G01 X123.8270 Y145.8258 F900
G02 X123.6938 Y145.8683 I-0.0015 J0.2251 F900
G01 Z-16.0000 F300
G02 X123.6051 Y146.0068 I0.1369 J0.1854 F900
G01 X123.6008 Y146.0520 F900
G01 X123.6011 Y146.0410 F900
G01 X123.6018 Y146.0675 F900
G02 X123.6792 Y146.2201 I0.2221 J-0.0167 F900
G01 X123.6713 Y146.2126 F900
G02 X123.8270 Y146.2742 I0.1541 J-0.1617 F900
G01 X123.8160 Y146.2739 F900
G01 X123.8340 F900
G01 X123.8230 Y146.2742 F900
G02 X124.0492 Y146.0480 I0.0016 J-0.2245 F900
G01 X124.0489 Y146.0590 F900
G01 Y146.0410 F900
G01 X124.0492 Y146.0520 F900
G02 X123.8230 Y145.8258 I-0.2253 J-0.0009 F900
G01 X123.8340 Y145.8261 F900
G01 X123.8160 F900
G01 X123.8270 Y145.8258 F900
G02 X123.6938 Y145.8683 I-0.0015 J0.2251 F900
G01 Z-18.0000 F300
G02 X123.6051 Y146.0068 I0.1369 J0.1854 F900
G01 X123.6008 Y146.0520 F900
G01 X123.6011 Y146.0410 F900
G01 X123.6018 Y146.0675 F900
G02 X123.6792 Y146.2201 I0.2221 J-0.0167 F900
G01 X123.6713 Y146.2126 F900
G02 X123.8270 Y146.2742 I0.1541 J-0.1617 F900
G01 X123.8160 Y146.2739 F900
G01 X123.8340 F900
G01 X123.8230 Y146.2742 F900
G02 X124.0492 Y146.0480 I0.0016 J-0.2245 F900
G01 X124.0489 Y146.0590 F900
G01 Y146.0410 F900
G01 X124.0492 Y146.0520 F900
G02 X123.8230 Y145.8258 I-0.2253 J-0.0009 F900
G01 X123.8340 Y145.8261 F900
G01 X123.8160 F900
G01 X123.8270 Y145.8258 F900
G02 X123.6938 Y145.8683 I-0.0015 J0.2251 F900
G01 Z-20.0000 F300
G02 X123.6051 Y146.0068 I0.1369 J0.1854 F900
G01 X123.6008 Y146.0520 F900
G01 X123.6011 Y146.0410 F900
G01 X123.6018 Y146.0675 F900
G02 X123.6792 Y146.2201 I0.2221 J-0.0167 F900
G01 X123.6713 Y146.2126 F900
G02 X123.8270 Y146.2742 I0.1541 J-0.1617 F900
G01 X123.8160 Y146.2739 F900
G01 X123.8340 F900
G01 X123.8230 Y146.2742 F900
G02 X124.0492 Y146.0480 I0.0016 J-0.2245 F900
G01 X124.0489 Y146.0590 F900
G01 Y146.0410 F900
G01 X124.0492 Y146.0520 F900
G02 X123.8230 Y145.8258 I-0.2253 J-0.0009 F900
G01 X123.8340 Y145.8261 F900
G01 X123.8160 F900
G01 X123.8270 Y145.8258 F900
G02 X123.6938 Y145.8683 I-0.0015 J0.2251 F900
G01 Z-22.0000 F300
G02 X123.6051 Y146.0068 I0.1369 J0.1854 F900
G01 X123.6008 Y146.0520 F900
G01 X123.6011 Y146.0410 F900
G01 X123.6018 Y146.0675 F900
G02 X123.6792 Y146.2201 I0.2221 J-0.0167 F900
G01 X123.6713 Y146.2126 F900
G02 X123.8270 Y146.2742 I0.1541 J-0.1617 F900
G01 X123.8160 Y146.2739 F900
G01 X123.8340 F900
G01 X123.8230 Y146.2742 F900
G02 X124.0492 Y146.0480 I0.0016 J-0.2245 F900
G01 X124.0489 Y146.0590 F900
G01 Y146.0410 F900
G01 X124.0492 Y146.0520 F900
G02 X123.8230 Y145.8258 I-0.2253 J-0.0009 F900
G01 X123.8340 Y145.8261 F900
G01 X123.8160 F900
G01 X123.8270 Y145.8258 F900
G02 X123.6938 Y145.8683 I-0.0015 J0.2251 F900
G01 Z-24.0000 F300
G02 X123.6051 Y146.0068 I0.1369 J0.1854 F900
G01 X123.6008 Y146.0520 F900
G01 X123.6011 Y146.0410 F900
G01 X123.6018 Y146.0675 F900
G02 X123.6792 Y146.2201 I0.2221 J-0.0167 F900
G01 X123.6713 Y146.2126 F900
G02 X123.8270 Y146.2742 I0.1541 J-0.1617 F900
G01 X123.8160 Y146.2739 F900
G01 X123.8340 F900
G01 X123.8230 Y146.2742 F900
G02 X124.0492 Y146.0480 I0.0016 J-0.2245 F900
G01 X124.0489 Y146.0590 F900
G01 Y146.0410 F900
G01 X124.0492 Y146.0520 F900
G02 X123.8230 Y145.8258 I-0.2253 J-0.0009 F900
G01 X123.8340 Y145.8261 F900
G01 X123.8160 F900
G01 X123.8270 Y145.8258 F900
G02 X123.6938 Y145.8683 I-0.0015 J0.2251 F900
G00 Z5.0000 F180


;No. 18: Part 15
G00 X91.9586 Y145.8586 Z5.0000 F1500
G00 Z0.5000 F180
G01 Z-2.0000 F300
G02 X91.8513 Y146.0391 I0.1156 J0.1909 F900
G01 X91.8523 Y146.0736 F900
G02 X92.2960 Y146.0136 I0.2228 J-0.0235 F900
G02 X92.2255 Y145.8842 I-0.2224 J0.0373 F900
G01 X92.2332 Y145.8915 F900
G02 X91.9586 Y145.8586 I-0.1582 J0.1576 F900
G01 Z-4.0000 F300
G02 X91.8513 Y146.0391 I0.1156 J0.1909 F900
G01 X91.8523 Y146.0736 F900
G02 X92.2960 Y146.0136 I0.2228 J-0.0235 F900
G02 X92.2255 Y145.8842 I-0.2224 J0.0373 F900
G01 X92.2332 Y145.8915 F900
G02 X91.9586 Y145.8586 I-0.1582 J0.1576 F900
G01 Z-6.0000 F300
G02 X91.8513 Y146.0391 I0.1156 J0.1909 F900
G01 X91.8523 Y146.0736 F900
G02 X92.2960 Y146.0136 I0.2228 J-0.0235 F900
G02 X92.2255 Y145.8842 I-0.2224 J0.0373 F900
G01 X92.2332 Y145.8915 F900
G02 X91.9586 Y145.8586 I-0.1582 J0.1576 F900
G01 Z-8.0000 F300
G02 X91.8513 Y146.0391 I0.1156 J0.1909 F900
G01 X91.8523 Y146.0736 F900
G02 X92.2960 Y146.0136 I0.2228 J-0.0235 F900
G02 X92.2255 Y145.8842 I-0.2224 J0.0373 F900
G01 X92.2332 Y145.8915 F900
G02 X91.9586 Y145.8586 I-0.1582 J0.1576 F900
G01 Z-10.0000 F300
G02 X91.8513 Y146.0391 I0.1156 J0.1909 F900
G01 X91.8523 Y146.0736 F900
G02 X92.2960 Y146.0136 I0.2228 J-0.0235 F900
G02 X92.2255 Y145.8842 I-0.2224 J0.0373 F900
G01 X92.2332 Y145.8915 F900
G02 X91.9586 Y145.8586 I-0.1582 J0.1576 F900
G01 Z-12.0000 F300
G02 X91.8513 Y146.0391 I0.1156 J0.1909 F900
G01 X91.8523 Y146.0736 F900
G02 X92.2960 Y146.0136 I0.2228 J-0.0235 F900
G02 X92.2255 Y145.8842 I-0.2224 J0.0373 F900
G01 X92.2332 Y145.8915 F900
G02 X91.9586 Y145.8586 I-0.1582 J0.1576 F900
G01 Z-14.0000 F300
G02 X91.8513 Y146.0391 I0.1156 J0.1909 F900
G01 X91.8523 Y146.0736 F900
G02 X92.2960 Y146.0136 I0.2228 J-0.0235 F900
G02 X92.2255 Y145.8842 I-0.2224 J0.0373 F900
G01 X92.2332 Y145.8915 F900
G02 X91.9586 Y145.8586 I-0.1582 J0.1576 F900
G01 Z-16.0000 F300
G02 X91.8513 Y146.0391 I0.1156 J0.1909 F900
G01 X91.8523 Y146.0736 F900
G02 X92.2960 Y146.0136 I0.2228 J-0.0235 F900
G02 X92.2255 Y145.8842 I-0.2224 J0.0373 F900
G01 X92.2332 Y145.8915 F900
G02 X91.9586 Y145.8586 I-0.1582 J0.1576 F900
G01 Z-18.0000 F300
G02 X91.8513 Y146.0391 I0.1156 J0.1909 F900
G01 X91.8523 Y146.0736 F900
G02 X92.2960 Y146.0136 I0.2228 J-0.0235 F900
G02 X92.2255 Y145.8842 I-0.2224 J0.0373 F900
G01 X92.2332 Y145.8915 F900
G02 X91.9586 Y145.8586 I-0.1582 J0.1576 F900
G01 Z-20.0000 F300
G02 X91.8513 Y146.0391 I0.1156 J0.1909 F900
G01 X91.8523 Y146.0736 F900
G02 X92.2960 Y146.0136 I0.2228 J-0.0235 F900
G02 X92.2255 Y145.8842 I-0.2224 J0.0373 F900
G01 X92.2332 Y145.8915 F900
G02 X91.9586 Y145.8586 I-0.1582 J0.1576 F900
G01 Z-22.0000 F300
G02 X91.8513 Y146.0391 I0.1156 J0.1909 F900
G01 X91.8523 Y146.0736 F900
G02 X92.2960 Y146.0136 I0.2228 J-0.0235 F900
G02 X92.2255 Y145.8842 I-0.2224 J0.0373 F900
G01 X92.2332 Y145.8915 F900
G02 X91.9586 Y145.8586 I-0.1582 J0.1576 F900
G01 Z-24.0000 F300
G02 X91.8513 Y146.0391 I0.1156 J0.1909 F900
G01 X91.8523 Y146.0736 F900
G02 X92.2960 Y146.0136 I0.2228 J-0.0235 F900
G02 X92.2255 Y145.8842 I-0.2224 J0.0373 F900
G01 X92.2332 Y145.8915 F900
G02 X91.9586 Y145.8586 I-0.1582 J0.1576 F900
G00 Z5.0000 F180


;No. 19: Part 11
G00 X60.2490 Y145.8394 Z5.0000 F1500
G00 Z0.5000 F180
G01 Z-2.0000 F300
G02 X60.1039 Y146.0139 I0.0774 J0.2119 F900
G01 X60.1011 Y146.0519 F900
G02 X60.5486 Y146.0380 I0.2240 J-0.0017 F900
G02 X60.4755 Y145.8842 I-0.2241 J0.0123 F900
G01 X60.4832 Y145.8915 F900
G02 X60.2490 Y145.8394 I-0.1582 J0.1584 F900
G01 Z-4.0000 F300
G02 X60.1039 Y146.0139 I0.0774 J0.2119 F900
G01 X60.1011 Y146.0519 F900
G02 X60.5486 Y146.0380 I0.2240 J-0.0017 F900
G02 X60.4755 Y145.8842 I-0.2241 J0.0123 F900
G01 X60.4832 Y145.8915 F900
G02 X60.2490 Y145.8394 I-0.1582 J0.1584 F900
G01 Z-6.0000 F300
G02 X60.1039 Y146.0139 I0.0774 J0.2119 F900
G01 X60.1011 Y146.0519 F900
G02 X60.5486 Y146.0380 I0.2240 J-0.0017 F900
G02 X60.4755 Y145.8842 I-0.2241 J0.0123 F900
G01 X60.4832 Y145.8915 F900
G02 X60.2490 Y145.8394 I-0.1582 J0.1584 F900
G01 Z-8.0000 F300
G02 X60.1039 Y146.0139 I0.0774 J0.2119 F900
G01 X60.1011 Y146.0519 F900
G02 X60.5486 Y146.0380 I0.2240 J-0.0017 F900
G02 X60.4755 Y145.8842 I-0.2241 J0.0123 F900
G01 X60.4832 Y145.8915 F900
G02 X60.2490 Y145.8394 I-0.1582 J0.1584 F900
G01 Z-10.0000 F300
G02 X60.1039 Y146.0139 I0.0774 J0.2119 F900
G01 X60.1011 Y146.0519 F900
G02 X60.5486 Y146.0380 I0.2240 J-0.0017 F900
G02 X60.4755 Y145.8842 I-0.2241 J0.0123 F900
G01 X60.4832 Y145.8915 F900
G02 X60.2490 Y145.8394 I-0.1582 J0.1584 F900
G01 Z-12.0000 F300
G02 X60.1039 Y146.0139 I0.0774 J0.2119 F900
G01 X60.1011 Y146.0519 F900
G02 X60.5486 Y146.0380 I0.2240 J-0.0017 F900
G02 X60.4755 Y145.8842 I-0.2241 J0.0123 F900
G01 X60.4832 Y145.8915 F900
G02 X60.2490 Y145.8394 I-0.1582 J0.1584 F900
G01 Z-14.0000 F300
G02 X60.1039 Y146.0139 I0.0774 J0.2119 F900
G01 X60.1011 Y146.0519 F900
G02 X60.5486 Y146.0380 I0.2240 J-0.0017 F900
G02 X60.4755 Y145.8842 I-0.2241 J0.0123 F900
G01 X60.4832 Y145.8915 F900
G02 X60.2490 Y145.8394 I-0.1582 J0.1584 F900
G01 Z-16.0000 F300
G02 X60.1039 Y146.0139 I0.0774 J0.2119 F900
G01 X60.1011 Y146.0519 F900
G02 X60.5486 Y146.0380 I0.2240 J-0.0017 F900
G02 X60.4755 Y145.8842 I-0.2241 J0.0123 F900
G01 X60.4832 Y145.8915 F900
G02 X60.2490 Y145.8394 I-0.1582 J0.1584 F900
G01 Z-18.0000 F300
G02 X60.1039 Y146.0139 I0.0774 J0.2119 F900
G01 X60.1011 Y146.0519 F900
G02 X60.5486 Y146.0380 I0.2240 J-0.0017 F900
G02 X60.4755 Y145.8842 I-0.2241 J0.0123 F900
G01 X60.4832 Y145.8915 F900
G02 X60.2490 Y145.8394 I-0.1582 J0.1584 F900
G01 Z-20.0000 F300
G02 X60.1039 Y146.0139 I0.0774 J0.2119 F900
G01 X60.1011 Y146.0519 F900
G02 X60.5486 Y146.0380 I0.2240 J-0.0017 F900
G02 X60.4755 Y145.8842 I-0.2241 J0.0123 F900
G01 X60.4832 Y145.8915 F900
G02 X60.2490 Y145.8394 I-0.1582 J0.1584 F900
G01 Z-22.0000 F300
G02 X60.1039 Y146.0139 I0.0774 J0.2119 F900
G01 X60.1011 Y146.0519 F900
G02 X60.5486 Y146.0380 I0.2240 J-0.0017 F900
G02 X60.4755 Y145.8842 I-0.2241 J0.0123 F900
G01 X60.4832 Y145.8915 F900
G02 X60.2490 Y145.8394 I-0.1582 J0.1584 F900
G01 Z-24.0000 F300
G02 X60.1039 Y146.0139 I0.0774 J0.2119 F900
G01 X60.1011 Y146.0519 F900
G02 X60.5486 Y146.0380 I0.2240 J-0.0017 F900
G02 X60.4755 Y145.8842 I-0.2241 J0.0123 F900
G01 X60.4832 Y145.8915 F900
G02 X60.2490 Y145.8394 I-0.1582 J0.1584 F900
G00 Z5.0000 F180


;No. 20: Part 6
G00 X28.5281 Y145.8308 Z5.0000 F1500
G00 Z0.5000 F180
G01 Z-2.0000 F300
G02 X28.3523 Y146.0264 I0.0464 J0.2185 F900
G01 X28.3511 Y146.0519 F900
G02 X28.4245 Y146.2158 I0.2242 J-0.0021 F900
G01 X28.4168 Y146.2085 F900
G02 X28.7255 Y145.8842 I0.1584 J-0.1583 F900
G02 X28.5281 Y145.8308 I-0.1508 J0.1658 F900
G01 Z-4.0000 F300
G02 X28.3523 Y146.0264 I0.0464 J0.2185 F900
G01 X28.3511 Y146.0519 F900
G02 X28.4245 Y146.2158 I0.2242 J-0.0021 F900
G01 X28.4168 Y146.2085 F900
G02 X28.7255 Y145.8842 I0.1584 J-0.1583 F900
G02 X28.5281 Y145.8308 I-0.1508 J0.1658 F900
G01 Z-6.0000 F300
G02 X28.3523 Y146.0264 I0.0464 J0.2185 F900
G01 X28.3511 Y146.0519 F900
G02 X28.4245 Y146.2158 I0.2242 J-0.0021 F900
G01 X28.4168 Y146.2085 F900
G02 X28.7255 Y145.8842 I0.1584 J-0.1583 F900
G02 X28.5281 Y145.8308 I-0.1508 J0.1658 F900
G01 Z-8.0000 F300
G02 X28.3523 Y146.0264 I0.0464 J0.2185 F900
G01 X28.3511 Y146.0519 F900
G02 X28.4245 Y146.2158 I0.2242 J-0.0021 F900
G01 X28.4168 Y146.2085 F900
G02 X28.7255 Y145.8842 I0.1584 J-0.1583 F900
G02 X28.5281 Y145.8308 I-0.1508 J0.1658 F900
G01 Z-10.0000 F300
G02 X28.3523 Y146.0264 I0.0464 J0.2185 F900
G01 X28.3511 Y146.0519 F900
G02 X28.4245 Y146.2158 I0.2242 J-0.0021 F900
G01 X28.4168 Y146.2085 F900
G02 X28.7255 Y145.8842 I0.1584 J-0.1583 F900
G02 X28.5281 Y145.8308 I-0.1508 J0.1658 F900
G01 Z-12.0000 F300
G02 X28.3523 Y146.0264 I0.0464 J0.2185 F900
G01 X28.3511 Y146.0519 F900
G02 X28.4245 Y146.2158 I0.2242 J-0.0021 F900
G01 X28.4168 Y146.2085 F900
G02 X28.7255 Y145.8842 I0.1584 J-0.1583 F900
G02 X28.5281 Y145.8308 I-0.1508 J0.1658 F900
G01 Z-14.0000 F300
G02 X28.3523 Y146.0264 I0.0464 J0.2185 F900
G01 X28.3511 Y146.0519 F900
G02 X28.4245 Y146.2158 I0.2242 J-0.0021 F900
G01 X28.4168 Y146.2085 F900
G02 X28.7255 Y145.8842 I0.1584 J-0.1583 F900
G02 X28.5281 Y145.8308 I-0.1508 J0.1658 F900
G01 Z-16.0000 F300
G02 X28.3523 Y146.0264 I0.0464 J0.2185 F900
G01 X28.3511 Y146.0519 F900
G02 X28.4245 Y146.2158 I0.2242 J-0.0021 F900
G01 X28.4168 Y146.2085 F900
G02 X28.7255 Y145.8842 I0.1584 J-0.1583 F900
G02 X28.5281 Y145.8308 I-0.1508 J0.1658 F900
G01 Z-18.0000 F300
G02 X28.3523 Y146.0264 I0.0464 J0.2185 F900
G01 X28.3511 Y146.0519 F900
G02 X28.4245 Y146.2158 I0.2242 J-0.0021 F900
G01 X28.4168 Y146.2085 F900
G02 X28.7255 Y145.8842 I0.1584 J-0.1583 F900
G02 X28.5281 Y145.8308 I-0.1508 J0.1658 F900
G01 Z-20.0000 F300
G02 X28.3523 Y146.0264 I0.0464 J0.2185 F900
G01 X28.3511 Y146.0519 F900
G02 X28.4245 Y146.2158 I0.2242 J-0.0021 F900
G01 X28.4168 Y146.2085 F900
G02 X28.7255 Y145.8842 I0.1584 J-0.1583 F900
G02 X28.5281 Y145.8308 I-0.1508 J0.1658 F900
G01 Z-22.0000 F300
G02 X28.3523 Y146.0264 I0.0464 J0.2185 F900
G01 X28.3511 Y146.0519 F900
G02 X28.4245 Y146.2158 I0.2242 J-0.0021 F900
G01 X28.4168 Y146.2085 F900
G02 X28.7255 Y145.8842 I0.1584 J-0.1583 F900
G02 X28.5281 Y145.8308 I-0.1508 J0.1658 F900
G01 Z-24.0000 F300
G02 X28.3523 Y146.0264 I0.0464 J0.2185 F900
G01 X28.3511 Y146.0519 F900
G02 X28.4245 Y146.2158 I0.2242 J-0.0021 F900
G01 X28.4168 Y146.2085 F900
G02 X28.7255 Y145.8842 I0.1584 J-0.1583 F900
G02 X28.5281 Y145.8308 I-0.1508 J0.1658 F900
G00 Z5.0000 F180


;No. 21: Part 26
G00 X187.1518 Y145.9078 Z5.0000 F1500
G00 Z0.5000 F180
G01 Z-2.0000 F300
G02 X187.1010 Y146.0419 I0.1754 J0.1431 F900
G01 X187.1019 Y146.0305 F900
G01 X187.1008 Y146.0480 F900
G01 X187.1018 Y146.0675 F900
G02 X187.1792 Y146.2201 I0.2258 J-0.0186 F900
G01 X187.1713 Y146.2126 F900
G02 X187.3270 Y146.2742 I0.1541 J-0.1617 F900
G01 X187.3160 Y146.2739 F900
G02 X187.4404 Y146.2420 I0.0092 J-0.2223 F900
G01 X187.4308 Y146.2472 F900
G02 X187.4951 Y146.1958 I-0.0999 J-0.1911 F900
G01 X187.4876 Y146.2037 F900
G02 X187.5489 Y146.0410 I-0.1611 J-0.1537 F900
G01 X187.5492 Y146.0520 F900
G02 X187.4708 Y145.8799 I-0.2275 J-0.0002 F900
G01 X187.4787 Y145.8874 F900
G02 X187.3331 Y145.8260 I-0.1539 J0.1613 F900
G01 X187.3445 Y145.8269 F900
G02 X187.1518 Y145.9078 I-0.0200 J0.2224 F900
G01 Z-4.0000 F300
G02 X187.1010 Y146.0419 I0.1754 J0.1431 F900
G01 X187.1019 Y146.0305 F900
G01 X187.1008 Y146.0480 F900
G01 X187.1018 Y146.0675 F900
G02 X187.1792 Y146.2201 I0.2258 J-0.0186 F900
G01 X187.1713 Y146.2126 F900
G02 X187.3270 Y146.2742 I0.1541 J-0.1617 F900
G01 X187.3160 Y146.2739 F900
G02 X187.4404 Y146.2420 I0.0092 J-0.2223 F900
G01 X187.4308 Y146.2472 F900
G02 X187.4951 Y146.1958 I-0.0999 J-0.1911 F900
G01 X187.4876 Y146.2037 F900
G02 X187.5489 Y146.0410 I-0.1611 J-0.1537 F900
G01 X187.5492 Y146.0520 F900
G02 X187.4708 Y145.8799 I-0.2275 J-0.0002 F900
G01 X187.4787 Y145.8874 F900
G02 X187.3331 Y145.8260 I-0.1539 J0.1613 F900
G01 X187.3445 Y145.8269 F900
G02 X187.1518 Y145.9078 I-0.0200 J0.2224 F900
G01 Z-6.0000 F300
G02 X187.1010 Y146.0419 I0.1754 J0.1431 F900
G01 X187.1019 Y146.0305 F900
G01 X187.1008 Y146.0480 F900
G01 X187.1018 Y146.0675 F900
G02 X187.1792 Y146.2201 I0.2258 J-0.0186 F900
G01 X187.1713 Y146.2126 F900
G02 X187.3270 Y146.2742 I0.1541 J-0.1617 F900
G01 X187.3160 Y146.2739 F900
G02 X187.4404 Y146.2420 I0.0092 J-0.2223 F900
G01 X187.4308 Y146.2472 F900
G02 X187.4951 Y146.1958 I-0.0999 J-0.1911 F900
G01 X187.4876 Y146.2037 F900
G02 X187.5489 Y146.0410 I-0.1611 J-0.1537 F900
G01 X187.5492 Y146.0520 F900
G02 X187.4708 Y145.8799 I-0.2275 J-0.0002 F900
G01 X187.4787 Y145.8874 F900
G02 X187.3331 Y145.8260 I-0.1539 J0.1613 F900
G01 X187.3445 Y145.8269 F900
G02 X187.1518 Y145.9078 I-0.0200 J0.2224 F900
G01 Z-8.0000 F300
G02 X187.1010 Y146.0419 I0.1754 J0.1431 F900
G01 X187.1019 Y146.0305 F900
G01 X187.1008 Y146.0480 F900
G01 X187.1018 Y146.0675 F900
G02 X187.1792 Y146.2201 I0.2258 J-0.0186 F900
G01 X187.1713 Y146.2126 F900
G02 X187.3270 Y146.2742 I0.1541 J-0.1617 F900
G01 X187.3160 Y146.2739 F900
G02 X187.4404 Y146.2420 I0.0092 J-0.2223 F900
G01 X187.4308 Y146.2472 F900
G02 X187.4951 Y146.1958 I-0.0999 J-0.1911 F900
G01 X187.4876 Y146.2037 F900
G02 X187.5489 Y146.0410 I-0.1611 J-0.1537 F900
G01 X187.5492 Y146.0520 F900
G02 X187.4708 Y145.8799 I-0.2275 J-0.0002 F900
G01 X187.4787 Y145.8874 F900
G02 X187.3331 Y145.8260 I-0.1539 J0.1613 F900
G01 X187.3445 Y145.8269 F900
G02 X187.1518 Y145.9078 I-0.0200 J0.2224 F900
G01 Z-10.0000 F300
G02 X187.1010 Y146.0419 I0.1754 J0.1431 F900
G01 X187.1019 Y146.0305 F900
G01 X187.1008 Y146.0480 F900
G01 X187.1018 Y146.0675 F900
G02 X187.1792 Y146.2201 I0.2258 J-0.0186 F900
G01 X187.1713 Y146.2126 F900
G02 X187.3270 Y146.2742 I0.1541 J-0.1617 F900
G01 X187.3160 Y146.2739 F900
G02 X187.4404 Y146.2420 I0.0092 J-0.2223 F900
G01 X187.4308 Y146.2472 F900
G02 X187.4951 Y146.1958 I-0.0999 J-0.1911 F900
G01 X187.4876 Y146.2037 F900
G02 X187.5489 Y146.0410 I-0.1611 J-0.1537 F900
G01 X187.5492 Y146.0520 F900
G02 X187.4708 Y145.8799 I-0.2275 J-0.0002 F900
G01 X187.4787 Y145.8874 F900
G02 X187.3331 Y145.8260 I-0.1539 J0.1613 F900
G01 X187.3445 Y145.8269 F900
G02 X187.1518 Y145.9078 I-0.0200 J0.2224 F900
G01 Z-12.0000 F300
G02 X187.1010 Y146.0419 I0.1754 J0.1431 F900
G01 X187.1019 Y146.0305 F900
G01 X187.1008 Y146.0480 F900
G01 X187.1018 Y146.0675 F900
G02 X187.1792 Y146.2201 I0.2258 J-0.0186 F900
G01 X187.1713 Y146.2126 F900
G02 X187.3270 Y146.2742 I0.1541 J-0.1617 F900
G01 X187.3160 Y146.2739 F900
G02 X187.4404 Y146.2420 I0.0092 J-0.2223 F900
G01 X187.4308 Y146.2472 F900
G02 X187.4951 Y146.1958 I-0.0999 J-0.1911 F900
G01 X187.4876 Y146.2037 F900
G02 X187.5489 Y146.0410 I-0.1611 J-0.1537 F900
G01 X187.5492 Y146.0520 F900
G02 X187.4708 Y145.8799 I-0.2275 J-0.0002 F900
G01 X187.4787 Y145.8874 F900
G02 X187.3331 Y145.8260 I-0.1539 J0.1613 F900
G01 X187.3445 Y145.8269 F900
G02 X187.1518 Y145.9078 I-0.0200 J0.2224 F900
G01 Z-14.0000 F300
G02 X187.1010 Y146.0419 I0.1754 J0.1431 F900
G01 X187.1019 Y146.0305 F900
G01 X187.1008 Y146.0480 F900
G01 X187.1018 Y146.0675 F900
G02 X187.1792 Y146.2201 I0.2258 J-0.0186 F900
G01 X187.1713 Y146.2126 F900
G02 X187.3270 Y146.2742 I0.1541 J-0.1617 F900
G01 X187.3160 Y146.2739 F900
G02 X187.4404 Y146.2420 I0.0092 J-0.2223 F900
G01 X187.4308 Y146.2472 F900
G02 X187.4951 Y146.1958 I-0.0999 J-0.1911 F900
G01 X187.4876 Y146.2037 F900
G02 X187.5489 Y146.0410 I-0.1611 J-0.1537 F900
G01 X187.5492 Y146.0520 F900
G02 X187.4708 Y145.8799 I-0.2275 J-0.0002 F900
G01 X187.4787 Y145.8874 F900
G02 X187.3331 Y145.8260 I-0.1539 J0.1613 F900
G01 X187.3445 Y145.8269 F900
G02 X187.1518 Y145.9078 I-0.0200 J0.2224 F900
G01 Z-16.0000 F300
G02 X187.1010 Y146.0419 I0.1754 J0.1431 F900
G01 X187.1019 Y146.0305 F900
G01 X187.1008 Y146.0480 F900
G01 X187.1018 Y146.0675 F900
G02 X187.1792 Y146.2201 I0.2258 J-0.0186 F900
G01 X187.1713 Y146.2126 F900
G02 X187.3270 Y146.2742 I0.1541 J-0.1617 F900
G01 X187.3160 Y146.2739 F900
G02 X187.4404 Y146.2420 I0.0092 J-0.2223 F900
G01 X187.4308 Y146.2472 F900
G02 X187.4951 Y146.1958 I-0.0999 J-0.1911 F900
G01 X187.4876 Y146.2037 F900
G02 X187.5489 Y146.0410 I-0.1611 J-0.1537 F900
G01 X187.5492 Y146.0520 F900
G02 X187.4708 Y145.8799 I-0.2275 J-0.0002 F900
G01 X187.4787 Y145.8874 F900
G02 X187.3331 Y145.8260 I-0.1539 J0.1613 F900
G01 X187.3445 Y145.8269 F900
G02 X187.1518 Y145.9078 I-0.0200 J0.2224 F900
G01 Z-18.0000 F300
G02 X187.1010 Y146.0419 I0.1754 J0.1431 F900
G01 X187.1019 Y146.0305 F900
G01 X187.1008 Y146.0480 F900
G01 X187.1018 Y146.0675 F900
G02 X187.1792 Y146.2201 I0.2258 J-0.0186 F900
G01 X187.1713 Y146.2126 F900
G02 X187.3270 Y146.2742 I0.1541 J-0.1617 F900
G01 X187.3160 Y146.2739 F900
G02 X187.4404 Y146.2420 I0.0092 J-0.2223 F900
G01 X187.4308 Y146.2472 F900
G02 X187.4951 Y146.1958 I-0.0999 J-0.1911 F900
G01 X187.4876 Y146.2037 F900
G02 X187.5489 Y146.0410 I-0.1611 J-0.1537 F900
G01 X187.5492 Y146.0520 F900
G02 X187.4708 Y145.8799 I-0.2275 J-0.0002 F900
G01 X187.4787 Y145.8874 F900
G02 X187.3331 Y145.8260 I-0.1539 J0.1613 F900
G01 X187.3445 Y145.8269 F900
G02 X187.1518 Y145.9078 I-0.0200 J0.2224 F900
G01 Z-20.0000 F300
G02 X187.1010 Y146.0419 I0.1754 J0.1431 F900
G01 X187.1019 Y146.0305 F900
G01 X187.1008 Y146.0480 F900
G01 X187.1018 Y146.0675 F900
G02 X187.1792 Y146.2201 I0.2258 J-0.0186 F900
G01 X187.1713 Y146.2126 F900
G02 X187.3270 Y146.2742 I0.1541 J-0.1617 F900
G01 X187.3160 Y146.2739 F900
G02 X187.4404 Y146.2420 I0.0092 J-0.2223 F900
G01 X187.4308 Y146.2472 F900
G02 X187.4951 Y146.1958 I-0.0999 J-0.1911 F900
G01 X187.4876 Y146.2037 F900
G02 X187.5489 Y146.0410 I-0.1611 J-0.1537 F900
G01 X187.5492 Y146.0520 F900
G02 X187.4708 Y145.8799 I-0.2275 J-0.0002 F900
G01 X187.4787 Y145.8874 F900
G02 X187.3331 Y145.8260 I-0.1539 J0.1613 F900
G01 X187.3445 Y145.8269 F900
G02 X187.1518 Y145.9078 I-0.0200 J0.2224 F900
G01 Z-22.0000 F300
G02 X187.1010 Y146.0419 I0.1754 J0.1431 F900
G01 X187.1019 Y146.0305 F900
G01 X187.1008 Y146.0480 F900
G01 X187.1018 Y146.0675 F900
G02 X187.1792 Y146.2201 I0.2258 J-0.0186 F900
G01 X187.1713 Y146.2126 F900
G02 X187.3270 Y146.2742 I0.1541 J-0.1617 F900
G01 X187.3160 Y146.2739 F900
G02 X187.4404 Y146.2420 I0.0092 J-0.2223 F900
G01 X187.4308 Y146.2472 F900
G02 X187.4951 Y146.1958 I-0.0999 J-0.1911 F900
G01 X187.4876 Y146.2037 F900
G02 X187.5489 Y146.0410 I-0.1611 J-0.1537 F900
G01 X187.5492 Y146.0520 F900
G02 X187.4708 Y145.8799 I-0.2275 J-0.0002 F900
G01 X187.4787 Y145.8874 F900
G02 X187.3331 Y145.8260 I-0.1539 J0.1613 F900
G01 X187.3445 Y145.8269 F900
G02 X187.1518 Y145.9078 I-0.0200 J0.2224 F900
G01 Z-24.0000 F300
G02 X187.1010 Y146.0419 I0.1754 J0.1431 F900
G01 X187.1019 Y146.0305 F900
G01 X187.1008 Y146.0480 F900
G01 X187.1018 Y146.0675 F900
G02 X187.1792 Y146.2201 I0.2258 J-0.0186 F900
G01 X187.1713 Y146.2126 F900
G02 X187.3270 Y146.2742 I0.1541 J-0.1617 F900
G01 X187.3160 Y146.2739 F900
G02 X187.4404 Y146.2420 I0.0092 J-0.2223 F900
G01 X187.4308 Y146.2472 F900
G02 X187.4951 Y146.1958 I-0.0999 J-0.1911 F900
G01 X187.4876 Y146.2037 F900
G02 X187.5489 Y146.0410 I-0.1611 J-0.1537 F900
G01 X187.5492 Y146.0520 F900
G02 X187.4708 Y145.8799 I-0.2275 J-0.0002 F900
G01 X187.4787 Y145.8874 F900
G02 X187.3331 Y145.8260 I-0.1539 J0.1613 F900
G01 X187.3445 Y145.8269 F900
G02 X187.1518 Y145.9078 I-0.0200 J0.2224 F900
G00 Z5.0000 F180


;No. 22: Part 25
G00 X187.1388 Y114.1756 Z5.0000 F1500
G00 Z0.5000 F180
G01 Z-2.0000 F300
G02 X187.1010 Y114.2919 I0.1867 J0.1249 F900
G01 X187.1019 Y114.2805 F900
G01 X187.1011 Y114.3090 F900
G01 X187.1008 Y114.2980 F900
G01 X187.1018 Y114.3175 F900
G02 X187.1792 Y114.4701 I0.2221 J-0.0167 F900
G01 X187.1713 Y114.4626 F900
G02 X187.3169 Y114.5240 I0.1550 J-0.1640 F900
G01 X187.3055 Y114.5231 F900
G01 X187.3340 Y114.5239 F900
G01 X187.3230 Y114.5242 F900
G02 X187.4951 Y114.4458 I0.0001 J-0.2277 F900
G01 X187.4876 Y114.4537 F900
G02 X187.5490 Y114.3081 I-0.1613 J-0.1539 F900
G01 X187.5481 Y114.3195 F900
G01 X187.5489 Y114.2910 F900
G01 X187.5492 Y114.3020 F900
G02 X187.4708 Y114.1299 I-0.2289 J0.0004 F900
G01 X187.4787 Y114.1374 F900
G02 X187.3331 Y114.0760 I-0.1539 J0.1613 F900
G01 X187.3445 Y114.0769 F900
G01 X187.3160 Y114.0761 F900
G01 X187.3270 Y114.0758 F900
G02 X187.1549 Y114.1542 I-0.0001 J0.2277 F900
G01 X187.1624 Y114.1463 F900
G01 X187.1518 Y114.1578 F900
G01 X187.1388 Y114.1756 F900
G01 Z-4.0000 F300
G02 X187.1010 Y114.2919 I0.1867 J0.1249 F900
G01 X187.1019 Y114.2805 F900
G01 X187.1011 Y114.3090 F900
G01 X187.1008 Y114.2980 F900
G01 X187.1018 Y114.3175 F900
G02 X187.1792 Y114.4701 I0.2221 J-0.0167 F900
G01 X187.1713 Y114.4626 F900
G02 X187.3169 Y114.5240 I0.1550 J-0.1640 F900
G01 X187.3055 Y114.5231 F900
G01 X187.3340 Y114.5239 F900
G01 X187.3230 Y114.5242 F900
G02 X187.4951 Y114.4458 I0.0001 J-0.2277 F900
G01 X187.4876 Y114.4537 F900
G02 X187.5490 Y114.3081 I-0.1613 J-0.1539 F900
G01 X187.5481 Y114.3195 F900
G01 X187.5489 Y114.2910 F900
G01 X187.5492 Y114.3020 F900
G02 X187.4708 Y114.1299 I-0.2289 J0.0004 F900
G01 X187.4787 Y114.1374 F900
G02 X187.3331 Y114.0760 I-0.1539 J0.1613 F900
G01 X187.3445 Y114.0769 F900
G01 X187.3160 Y114.0761 F900
G01 X187.3270 Y114.0758 F900
G02 X187.1549 Y114.1542 I-0.0001 J0.2277 F900
G01 X187.1624 Y114.1463 F900
G01 X187.1518 Y114.1578 F900
G01 X187.1388 Y114.1756 F900
G01 Z-6.0000 F300
G02 X187.1010 Y114.2919 I0.1867 J0.1249 F900
G01 X187.1019 Y114.2805 F900
G01 X187.1011 Y114.3090 F900
G01 X187.1008 Y114.2980 F900
G01 X187.1018 Y114.3175 F900
G02 X187.1792 Y114.4701 I0.2221 J-0.0167 F900
G01 X187.1713 Y114.4626 F900
G02 X187.3169 Y114.5240 I0.1550 J-0.1640 F900
G01 X187.3055 Y114.5231 F900
G01 X187.3340 Y114.5239 F900
G01 X187.3230 Y114.5242 F900
G02 X187.4951 Y114.4458 I0.0001 J-0.2277 F900
G01 X187.4876 Y114.4537 F900
G02 X187.5490 Y114.3081 I-0.1613 J-0.1539 F900
G01 X187.5481 Y114.3195 F900
G01 X187.5489 Y114.2910 F900
G01 X187.5492 Y114.3020 F900
G02 X187.4708 Y114.1299 I-0.2289 J0.0004 F900
G01 X187.4787 Y114.1374 F900
G02 X187.3331 Y114.0760 I-0.1539 J0.1613 F900
G01 X187.3445 Y114.0769 F900
G01 X187.3160 Y114.0761 F900
G01 X187.3270 Y114.0758 F900
G02 X187.1549 Y114.1542 I-0.0001 J0.2277 F900
G01 X187.1624 Y114.1463 F900
G01 X187.1518 Y114.1578 F900
G01 X187.1388 Y114.1756 F900
G01 Z-8.0000 F300
G02 X187.1010 Y114.2919 I0.1867 J0.1249 F900
G01 X187.1019 Y114.2805 F900
G01 X187.1011 Y114.3090 F900
G01 X187.1008 Y114.2980 F900
G01 X187.1018 Y114.3175 F900
G02 X187.1792 Y114.4701 I0.2221 J-0.0167 F900
G01 X187.1713 Y114.4626 F900
G02 X187.3169 Y114.5240 I0.1550 J-0.1640 F900
G01 X187.3055 Y114.5231 F900
G01 X187.3340 Y114.5239 F900
G01 X187.3230 Y114.5242 F900
G02 X187.4951 Y114.4458 I0.0001 J-0.2277 F900
G01 X187.4876 Y114.4537 F900
G02 X187.5490 Y114.3081 I-0.1613 J-0.1539 F900
G01 X187.5481 Y114.3195 F900
G01 X187.5489 Y114.2910 F900
G01 X187.5492 Y114.3020 F900
G02 X187.4708 Y114.1299 I-0.2289 J0.0004 F900
G01 X187.4787 Y114.1374 F900
G02 X187.3331 Y114.0760 I-0.1539 J0.1613 F900
G01 X187.3445 Y114.0769 F900
G01 X187.3160 Y114.0761 F900
G01 X187.3270 Y114.0758 F900
G02 X187.1549 Y114.1542 I-0.0001 J0.2277 F900
G01 X187.1624 Y114.1463 F900
G01 X187.1518 Y114.1578 F900
G01 X187.1388 Y114.1756 F900
G01 Z-10.0000 F300
G02 X187.1010 Y114.2919 I0.1867 J0.1249 F900
G01 X187.1019 Y114.2805 F900
G01 X187.1011 Y114.3090 F900
G01 X187.1008 Y114.2980 F900
G01 X187.1018 Y114.3175 F900
G02 X187.1792 Y114.4701 I0.2221 J-0.0167 F900
G01 X187.1713 Y114.4626 F900
G02 X187.3169 Y114.5240 I0.1550 J-0.1640 F900
G01 X187.3055 Y114.5231 F900
G01 X187.3340 Y114.5239 F900
G01 X187.3230 Y114.5242 F900
G02 X187.4951 Y114.4458 I0.0001 J-0.2277 F900
G01 X187.4876 Y114.4537 F900
G02 X187.5490 Y114.3081 I-0.1613 J-0.1539 F900
G01 X187.5481 Y114.3195 F900
G01 X187.5489 Y114.2910 F900
G01 X187.5492 Y114.3020 F900
G02 X187.4708 Y114.1299 I-0.2289 J0.0004 F900
G01 X187.4787 Y114.1374 F900
G02 X187.3331 Y114.0760 I-0.1539 J0.1613 F900
G01 X187.3445 Y114.0769 F900
G01 X187.3160 Y114.0761 F900
G01 X187.3270 Y114.0758 F900
G02 X187.1549 Y114.1542 I-0.0001 J0.2277 F900
G01 X187.1624 Y114.1463 F900
G01 X187.1518 Y114.1578 F900
G01 X187.1388 Y114.1756 F900
G01 Z-12.0000 F300
G02 X187.1010 Y114.2919 I0.1867 J0.1249 F900
G01 X187.1019 Y114.2805 F900
G01 X187.1011 Y114.3090 F900
G01 X187.1008 Y114.2980 F900
G01 X187.1018 Y114.3175 F900
G02 X187.1792 Y114.4701 I0.2221 J-0.0167 F900
G01 X187.1713 Y114.4626 F900
G02 X187.3169 Y114.5240 I0.1550 J-0.1640 F900
G01 X187.3055 Y114.5231 F900
G01 X187.3340 Y114.5239 F900
G01 X187.3230 Y114.5242 F900
G02 X187.4951 Y114.4458 I0.0001 J-0.2277 F900
G01 X187.4876 Y114.4537 F900
G02 X187.5490 Y114.3081 I-0.1613 J-0.1539 F900
G01 X187.5481 Y114.3195 F900
G01 X187.5489 Y114.2910 F900
G01 X187.5492 Y114.3020 F900
G02 X187.4708 Y114.1299 I-0.2289 J0.0004 F900
G01 X187.4787 Y114.1374 F900
G02 X187.3331 Y114.0760 I-0.1539 J0.1613 F900
G01 X187.3445 Y114.0769 F900
G01 X187.3160 Y114.0761 F900
G01 X187.3270 Y114.0758 F900
G02 X187.1549 Y114.1542 I-0.0001 J0.2277 F900
G01 X187.1624 Y114.1463 F900
G01 X187.1518 Y114.1578 F900
G01 X187.1388 Y114.1756 F900
G01 Z-14.0000 F300
G02 X187.1010 Y114.2919 I0.1867 J0.1249 F900
G01 X187.1019 Y114.2805 F900
G01 X187.1011 Y114.3090 F900
G01 X187.1008 Y114.2980 F900
G01 X187.1018 Y114.3175 F900
G02 X187.1792 Y114.4701 I0.2221 J-0.0167 F900
G01 X187.1713 Y114.4626 F900
G02 X187.3169 Y114.5240 I0.1550 J-0.1640 F900
G01 X187.3055 Y114.5231 F900
G01 X187.3340 Y114.5239 F900
G01 X187.3230 Y114.5242 F900
G02 X187.4951 Y114.4458 I0.0001 J-0.2277 F900
G01 X187.4876 Y114.4537 F900
G02 X187.5490 Y114.3081 I-0.1613 J-0.1539 F900
G01 X187.5481 Y114.3195 F900
G01 X187.5489 Y114.2910 F900
G01 X187.5492 Y114.3020 F900
G02 X187.4708 Y114.1299 I-0.2289 J0.0004 F900
G01 X187.4787 Y114.1374 F900
G02 X187.3331 Y114.0760 I-0.1539 J0.1613 F900
G01 X187.3445 Y114.0769 F900
G01 X187.3160 Y114.0761 F900
G01 X187.3270 Y114.0758 F900
G02 X187.1549 Y114.1542 I-0.0001 J0.2277 F900
G01 X187.1624 Y114.1463 F900
G01 X187.1518 Y114.1578 F900
G01 X187.1388 Y114.1756 F900
G01 Z-16.0000 F300
G02 X187.1010 Y114.2919 I0.1867 J0.1249 F900
G01 X187.1019 Y114.2805 F900
G01 X187.1011 Y114.3090 F900
G01 X187.1008 Y114.2980 F900
G01 X187.1018 Y114.3175 F900
G02 X187.1792 Y114.4701 I0.2221 J-0.0167 F900
G01 X187.1713 Y114.4626 F900
G02 X187.3169 Y114.5240 I0.1550 J-0.1640 F900
G01 X187.3055 Y114.5231 F900
G01 X187.3340 Y114.5239 F900
G01 X187.3230 Y114.5242 F900
G02 X187.4951 Y114.4458 I0.0001 J-0.2277 F900
G01 X187.4876 Y114.4537 F900
G02 X187.5490 Y114.3081 I-0.1613 J-0.1539 F900
G01 X187.5481 Y114.3195 F900
G01 X187.5489 Y114.2910 F900
G01 X187.5492 Y114.3020 F900
G02 X187.4708 Y114.1299 I-0.2289 J0.0004 F900
G01 X187.4787 Y114.1374 F900
G02 X187.3331 Y114.0760 I-0.1539 J0.1613 F900
G01 X187.3445 Y114.0769 F900
G01 X187.3160 Y114.0761 F900
G01 X187.3270 Y114.0758 F900
G02 X187.1549 Y114.1542 I-0.0001 J0.2277 F900
G01 X187.1624 Y114.1463 F900
G01 X187.1518 Y114.1578 F900
G01 X187.1388 Y114.1756 F900
G01 Z-18.0000 F300
G02 X187.1010 Y114.2919 I0.1867 J0.1249 F900
G01 X187.1019 Y114.2805 F900
G01 X187.1011 Y114.3090 F900
G01 X187.1008 Y114.2980 F900
G01 X187.1018 Y114.3175 F900
G02 X187.1792 Y114.4701 I0.2221 J-0.0167 F900
G01 X187.1713 Y114.4626 F900
G02 X187.3169 Y114.5240 I0.1550 J-0.1640 F900
G01 X187.3055 Y114.5231 F900
G01 X187.3340 Y114.5239 F900
G01 X187.3230 Y114.5242 F900
G02 X187.4951 Y114.4458 I0.0001 J-0.2277 F900
G01 X187.4876 Y114.4537 F900
G02 X187.5490 Y114.3081 I-0.1613 J-0.1539 F900
G01 X187.5481 Y114.3195 F900
G01 X187.5489 Y114.2910 F900
G01 X187.5492 Y114.3020 F900
G02 X187.4708 Y114.1299 I-0.2289 J0.0004 F900
G01 X187.4787 Y114.1374 F900
G02 X187.3331 Y114.0760 I-0.1539 J0.1613 F900
G01 X187.3445 Y114.0769 F900
G01 X187.3160 Y114.0761 F900
G01 X187.3270 Y114.0758 F900
G02 X187.1549 Y114.1542 I-0.0001 J0.2277 F900
G01 X187.1624 Y114.1463 F900
G01 X187.1518 Y114.1578 F900
G01 X187.1388 Y114.1756 F900
G01 Z-20.0000 F300
G02 X187.1010 Y114.2919 I0.1867 J0.1249 F900
G01 X187.1019 Y114.2805 F900
G01 X187.1011 Y114.3090 F900
G01 X187.1008 Y114.2980 F900
G01 X187.1018 Y114.3175 F900
G02 X187.1792 Y114.4701 I0.2221 J-0.0167 F900
G01 X187.1713 Y114.4626 F900
G02 X187.3169 Y114.5240 I0.1550 J-0.1640 F900
G01 X187.3055 Y114.5231 F900
G01 X187.3340 Y114.5239 F900
G01 X187.3230 Y114.5242 F900
G02 X187.4951 Y114.4458 I0.0001 J-0.2277 F900
G01 X187.4876 Y114.4537 F900
G02 X187.5490 Y114.3081 I-0.1613 J-0.1539 F900
G01 X187.5481 Y114.3195 F900
G01 X187.5489 Y114.2910 F900
G01 X187.5492 Y114.3020 F900
